(3_ROTOR_00)
(T3  D=3. CR=0. - ZMIN=-17.5 - FLAT END MILL)
G90 G94 G91.1 G40 G49 G17
G21
(WHEN USING FUSION 360 FOR PERSONAL USE, THE FEEDRATE OF)
(RAPID MOVES IS REDUCED TO MATCH THE FEEDRATE OF CUTTING)
(MOVES, WHICH CAN INCREASE MACHINING TIME. UNRESTRICTED RAPID)
(MOVES ARE AVAILABLE WITH A FUSION 360 SUBSCRIPTION.)
G28 G91 Z0.
G90

(POCKET2)
M5
T3 M6
S5000 M3
G54
M8
G0 X59.996 Y29.909
G1 Z3. F1000.
Z2.35 F333.
X59.995 Y29.895 Z2.259
X59.991 Y29.854 Z2.177
X59.983 Y29.791 Z2.111
X59.969 Y29.712 Z2.067
X59.948 Y29.624 Z2.05
G2 X57.2 Y30.378 Z1.894 I-1.374 J0.377
X59.948 Y29.624 Z1.737 I1.374 J-0.377
X57.2 Y30.378 Z1.581 I-1.374 J0.377
X59.948 Y29.624 Z1.425 I1.374 J-0.377
X57.2 Y30.378 Z1.268 I-1.374 J0.377
X59.948 Y29.624 Z1.112 I1.374 J-0.377
X57.2 Y30.378 Z0.956 I-1.374 J0.377
X59.948 Y29.624 Z0.799 I1.374 J-0.377
X57.2 Y30.378 Z0.643 I-1.374 J0.377
X59.999 Y30.001 Z0.5 I1.374 J-0.377
G1 X60. Y0.046 F1000.
X59.996 Y0.004
X59.985 Y0.002
X0.046 Y0.
X0.004 Y0.004
X0.002 Y0.015
X0. Y59.954
X0.004 Y59.996
X0.015 Y59.998
X59.954 Y60.
X59.996 Y59.996
X59.998 Y59.985
X59.999 Y30.001
G2 X58.886 Y28.332 I-1.809 J0.
G3 X57.773 Y26.662 I0.696 J-1.669
G1 X57.774 Y3.138
G2 X56.864 Y2.228 I-0.91 J0.
G1 X3.138 Y2.226
G2 X2.228 Y3.136 I0. J0.91
G1 X2.226 Y56.862
G2 X3.136 Y57.772 I0.91 J0.
G1 X56.862 Y57.774
G2 X57.772 Y56.864 I0. J-0.91
G1 X57.773 Y26.662
G2 X56.667 Y25.003 I-1.797 J0.
G3 X55.562 Y23.345 I0.691 J-1.659
G1 Y5.35
G2 X54.652 Y4.439 I-0.91 J0.
G1 X5.35 Y4.438
G2 X4.439 Y5.348 I0. J0.91
G1 X4.438 Y54.65
G2 X5.348 Y55.561 I0.91 J0.
G1 X54.65 Y55.562
G2 X55.561 Y54.652 I0. J-0.91
G1 X55.562 Y23.345
G2 X54.456 Y21.686 I-1.797 J0.
G3 X53.35 Y20.027 I0.691 J-1.659
G1 X53.351 Y7.561
G2 X52.44 Y6.651 I-0.91 J0.
G1 X7.561 Y6.649
G2 X6.651 Y7.56 I0. J0.91
G1 X6.649 Y52.439
G2 X7.56 Y53.349 I0.91 J0.
G1 X52.439 Y53.351
G2 X53.349 Y52.44 I0. J-0.91
G1 X53.35 Y20.027
G2 X52.244 Y18.368 I-1.797 J0.
G3 X51.139 Y16.71 I0.691 J-1.659
G1 Y9.773
G2 X50.229 Y8.863 I-0.91 J0.
G1 X9.773 Y8.861
G2 X8.863 Y9.771 I0. J0.91
G1 X8.861 Y50.227
G2 X9.771 Y51.137 I0.91 J0.
G1 X50.227 Y51.139
G2 X51.137 Y50.229 I0. J-0.91
G1 X51.139 Y16.71
G2 X50.033 Y15.051 I-1.797 J0.
G3 X48.927 Y13.392 I0.691 J-1.659
G1 Y11.984
G2 X48.017 Y11.074 I-0.91 J0.
G1 X11.984 Y11.073
G2 X11.074 Y11.983 I0. J0.91
G1 X11.073 Y48.016
G2 X11.983 Y48.926 I0.91 J0.
G1 X48.016 Y48.927
G2 X48.926 Y48.017 I0. J-0.91
G1 X48.927 Y13.392
G2 X47.409 Y12.723 I-0.906 J0.
G3 X45.849 Y13.287 I-1.457 J-1.593
G1 X45.805 Y13.286
X14.196 Y13.285
G2 X13.286 Y14.195 I0. J0.91
G1 X13.285 Y45.804
G2 X14.195 Y46.714 I0.91 J0.
G1 X45.804 Y46.715
G2 X46.714 Y45.805 I0. J-0.91
G1 X46.715 Y14.196
G2 X45.849 Y13.287 I-0.91 J0.
X44.258 Y14.373 I-0.076 J1.596
G3 X42.693 Y15.497 I-1.565 J-0.527
G1 X16.407 Y15.496
G2 X15.497 Y16.406 I0. J0.91
G1 X15.496 Y43.593
G2 X16.406 Y44.503 I0.91 J0.
G1 X43.593 Y44.504
G2 X44.503 Y43.594 I0. J-0.91
G1 X44.504 Y16.407
G2 X43.594 Y15.497 I-0.91 J0.
G1 X42.693
G2 X41.599 Y16.603 I0. J1.094
G3 X40.506 Y17.709 I-1.094 J0.012
G1 X18.619 Y17.708
G2 X17.709 Y18.618 I0. J0.91
G1 X17.708 Y41.381
G2 X18.618 Y42.291 I0.91 J0.
G1 X41.381 Y42.292
G2 X42.291 Y41.382 I0. J-0.91
G1 X42.292 Y18.619
G2 X41.382 Y17.709 I-0.91 J0.
G1 X40.506
G2 X39.401 Y18.815 I0. J1.105
G3 X38.295 Y19.92 I-1.105 J0.001
G1 X20.831
G2 X19.92 Y20.83 I0. J0.91
G1 Y39.169
G2 X20.83 Y40.08 I0.91 J0.
G1 X39.169
G2 X40.08 Y39.17 I0. J-0.91
G1 Y20.831
G2 X39.17 Y19.92 I-0.91 J0.
G1 X38.295
G2 X37.19 Y21.026 I0. J1.106
G3 X36.084 Y22.132 I-1.106 J0.
G1 X23.042
G2 X22.132 Y23.042 I0. J0.91
G1 Y36.958
G2 X23.042 Y37.868 I0.91 J0.
G1 X36.958
G2 X37.868 Y36.958 I0. J-0.91
G1 Y23.042
G2 X36.958 Y22.132 I-0.91 J0.
G1 X36.084
G2 X34.978 Y23.238 I0. J1.106
G3 X33.872 Y24.344 I-1.106 J0.
G1 X25.254 Y24.343
G2 X24.344 Y25.253 I0. J0.91
G1 X24.343 Y34.746
G2 X25.253 Y35.656 I0.91 J0.
G1 X34.746 Y35.657
G2 X35.656 Y34.747 I0. J-0.91
G1 X35.657 Y25.254
G2 X34.747 Y24.344 I-0.91 J0.
G1 X33.872
G2 X32.766 Y25.449 I0. J1.106
G3 X31.66 Y26.555 I-1.106 J0.
G1 X27.465
G2 X26.555 Y27.465 I0. J0.91
G1 Y32.535
G2 X27.465 Y33.445 I0.91 J0.
G1 X32.535
G2 X33.445 Y32.535 I0. J-0.91
G1 Y27.465
G2 X32.535 Y26.555 I-0.91 J0.
G1 X31.66
G2 X30.485 Y27.606 I0. J1.182
G3 X29.451 Y28.795 I-1.379 J-0.154
G2 X28.767 Y29.677 I0.226 J0.882
G1 Y30.323
G2 X29.677 Y31.233 I0.91 J0.
G1 X30.323
G2 X31.233 Y30.323 I0. J-0.91
G1 Y29.677
G2 X30.323 Y28.767 I-0.91 J0.
G1 X29.677
X29.563 Y28.774
X29.451 Y28.795
X29.427 Y28.808
X29.413 Y28.831
X29.411 Y28.858
X29.423 Y28.882
X29.445 Y28.898
X29.472 Y28.901
X29.497 Y28.891
X29.513 Y28.87
X29.518 Y28.843
X29.509 Y28.818
X29.483 Y28.79
X29.262 Y24.611
X29.266 Y24.567
X29.283 Y24.526
X29.311 Y24.492
X31.108 Y22.856
G3 X31.351 Y23.014 I0.101 J0.111
X28.644 Y22.123 Z0.344 I-1.354 J-0.446 F333.
X31.351 Y23.014 Z0.187 I1.354 J0.446
X28.644 Y22.123 Z0.031 I-1.354 J-0.446
X31.351 Y23.014 Z-0.125 I1.354 J0.446
X28.644 Y22.123 Z-0.282 I-1.354 J-0.446
X31.351 Y23.014 Z-0.438 I1.354 J0.446
X30.007 Y23.993 Z-0.5 I-1.354 J-0.446
G2 X24.795 Y26.839 I0.042 J6.272 F1000.
X24.117 Y31.866 I4.948 J3.227
X27.538 Y35.611 I5.785 J-1.85
X34.268 Y34.412 I2.442 J-5.781
X35.69 Y27.726 I-4.081 J-4.362
X30.509 Y24.01 I-5.628 J2.378
X30.007 Y23.993 I-0.459 J6.256
X28.778 Y24.881 I0.009 J1.308
G3 X27.855 Y26.084 I-2.233 J-0.758
G1 X27.052 Y26.62
X26.988 Y26.667
X26.927 Y26.719
X26.819 Y26.819
X26.768 Y26.87
X26.72 Y26.925
X26.63 Y27.037
X26.578 Y27.108
X26.168 Y27.721
X26.162 Y27.731
X25.976 Y28.016
X25.931 Y28.093
X25.892 Y28.173
X25.813 Y28.361
X25.779 Y28.455
X25.754 Y28.553
X25.528 Y29.678
X25.514 Y29.76
X25.508 Y29.844
X25.502 Y30.031
X25.504 Y30.121
X25.513 Y30.211
X25.541 Y30.399
X25.55 Y30.45
X25.755 Y31.45
X25.779 Y31.546
X25.813 Y31.639
X25.892 Y31.827
X25.933 Y31.912
X25.982 Y31.993
X26.62 Y32.948
X26.667 Y33.012
X26.719 Y33.073
X26.819 Y33.181
X26.87 Y33.232
X26.925 Y33.28
X27.037 Y33.37
X27.111 Y33.424
X28.01 Y34.02
X28.089 Y34.068
X28.173 Y34.108
X28.361 Y34.187
X28.455 Y34.221
X28.553 Y34.246
X29.678 Y34.472
X29.76 Y34.486
X29.844 Y34.492
X30.031 Y34.498
X30.121 Y34.496
X30.211 Y34.487
X30.399 Y34.459
X30.45 Y34.45
X31.45 Y34.245
X31.546 Y34.221
X31.639 Y34.187
X31.827 Y34.108
X31.912 Y34.067
X31.993 Y34.018
X32.948 Y33.38
X33.012 Y33.333
X33.073 Y33.281
X33.181 Y33.181
X33.232 Y33.13
X33.28 Y33.075
X33.37 Y32.963
X33.424 Y32.889
X34.02 Y31.99
X34.068 Y31.911
X34.108 Y31.827
X34.187 Y31.639
X34.221 Y31.545
X34.246 Y31.447
X34.472 Y30.322
X34.486 Y30.24
X34.492 Y30.156
X34.498 Y29.969
X34.496 Y29.879
X34.487 Y29.789
X34.459 Y29.601
X34.45 Y29.55
X34.245 Y28.55
X34.221 Y28.454
X34.187 Y28.361
X34.108 Y28.173
X34.067 Y28.088
X34.018 Y28.007
X33.38 Y27.052
X33.333 Y26.988
X33.281 Y26.927
X33.181 Y26.819
X33.13 Y26.768
X33.075 Y26.72
X32.963 Y26.63
X32.889 Y26.576
X31.99 Y25.98
X31.911 Y25.932
X31.827 Y25.892
X31.639 Y25.813
X31.545 Y25.779
X31.447 Y25.754
X30.322 Y25.528
X30.24 Y25.514
X30.156 Y25.508
X29.969 Y25.502
X29.879 Y25.504
X29.789 Y25.513
X29.601 Y25.541
X29.55 Y25.55
X28.55 Y25.755
X28.454 Y25.779
X28.361 Y25.813
X28.173 Y25.892
X28.088 Y25.933
X28.007 Y25.982
X27.855 Y26.084
G3 X27.632 Y25.903 I-0.083 J-0.125
G1 X29.107 Y22.278
X29.125 Y22.246
X29.246 Y22.078
G2 X29.432 Y21.737 I-1.462 J-1.019
G3 X29.59 Y21.382 I6.046 J2.487
X30.41 I0.41 J0.198
G2 X31.322 Y22.91 I9.041 J-4.363
X32.644 Y24.1 I3.45 J-2.5
X34.856 Y25.069 I5.467 J-9.478
X37.257 Y25.338 I1.898 J-6.093
G3 X37.667 Y26.045 I0.036 J0.452
G2 X37.665 Y33.953 I5.8 J3.955
G3 X37.256 Y34.664 I-0.376 J0.257
G2 X35.483 Y34.69 I-0.738 J10.16
X33.796 Y35.235 I0.431 J4.217
X32.127 Y36.411 I5.64 J9.778
X30.754 Y37.922 I5.14 J6.05
X30.568 Y38.263 I1.462 J1.019
G3 X30.41 Y38.618 I-6.046 J-2.487
X29.59 I-0.41 J-0.198
G2 X28.678 Y37.09 I-9.041 J4.364
X27.356 Y35.9 I-3.45 J2.5
X25.144 Y34.931 I-5.467 J9.478
X22.743 Y34.662 I-1.898 J6.093
G3 X22.333 Y33.955 I-0.036 J-0.452
G2 X22.335 Y26.047 I-5.8 J-3.955
G3 X22.744 Y25.336 I0.376 J-0.257
G2 X24.517 Y25.31 I0.738 J-10.16
X26.204 Y24.765 I-0.431 J-4.217
X27.873 Y23.589 I-5.64 J-9.778
X29.125 Y22.246 I-5.14 J-6.05
X29.152 Y20.732 I-1.054 J-0.776
G3 X28.814 Y19.256 I1.713 J-1.17
G1 X28.987 Y18.094
X28.995 Y18.021
X28.997 Y17.947
X29.003 Y8.143
X29.078 Y7.689
X29.211 Y7.427
X29.427 Y7.211
X29.691 Y7.077
X30. Y7.026
X30.309 Y7.077
X30.573 Y7.211
X30.789 Y7.427
X30.922 Y7.689
X30.997 Y8.143
X31.003 Y17.947
X31.005 Y18.021
X31.013 Y18.094
X31.207 Y19.396
X31.221 Y19.469
X31.24 Y19.54
X31.297 Y19.728
X31.322 Y19.8
X31.353 Y19.871
X31.93 Y21.066
X31.967 Y21.136
X32.01 Y21.203
X32.102 Y21.336
X32.143 Y21.391
X32.189 Y21.443
X33.067 Y22.392
X33.116 Y22.442
X33.169 Y22.488
X33.319 Y22.61
X33.383 Y22.658
X33.451 Y22.701
X34.604 Y23.366
X34.67 Y23.401
X34.74 Y23.431
X34.889 Y23.489
X34.959 Y23.514
X35.031 Y23.533
X36.342 Y23.83
X36.428 Y23.846
X36.515 Y23.854
X36.702 Y23.863
X36.766 Y23.864
X36.829 Y23.861
X38.142 Y23.757
X38.236 Y23.745
X38.329 Y23.724
X38.516 Y23.673
X38.619 Y23.638
X39.806 Y23.168
X39.873 Y23.139
X39.938 Y23.105
X48.433 Y18.206
X48.84 Y18.05
X49.152 Y18.031
X49.448 Y18.11
X49.71 Y18.281
X49.892 Y18.506
X50.007 Y18.804
X50.022 Y19.09
X49.94 Y19.402
X49.777 Y19.653
X49.433 Y19.931
X40.946 Y24.837
X40.883 Y24.877
X40.823 Y24.921
X39.753 Y25.775
X39.686 Y25.833
X39.625 Y25.897
X39.51 Y26.028
X39.436 Y26.124
X38.718 Y27.176
X38.68 Y27.236
X38.646 Y27.3
X38.563 Y27.47
X38.531 Y27.542
X38.505 Y27.616
X38.113 Y28.894
X38.091 Y28.977
X38.076 Y29.061
X38.052 Y29.249
X38.046 Y29.313
X38.044 Y29.378
X38.049 Y30.691
X38.053 Y30.78
X38.065 Y30.869
X38.1 Y31.056
X38.129 Y31.172
X38.506 Y32.387
X38.532 Y32.46
X38.563 Y32.53
X38.646 Y32.7
X38.68 Y32.764
X38.718 Y32.824
X39.436 Y33.876
X39.51 Y33.972
X39.624 Y34.102
X39.686 Y34.167
X39.753 Y34.225
X40.823 Y35.079
X40.883 Y35.123
X40.946 Y35.163
X49.433 Y40.069
X49.777 Y40.348
X49.94 Y40.598
X50.022 Y40.91
X50.007 Y41.196
X49.892 Y41.494
X49.71 Y41.719
X49.456 Y41.885
X49.241 Y41.947
X49.154 Y41.969
X48.844 Y41.95
X48.393 Y41.774
X39.938 Y36.895
X39.872 Y36.861
X39.804 Y36.831
X38.554 Y36.339
X38.474 Y36.312
X38.392 Y36.291
X38.205 Y36.252
X38.139 Y36.24
X38.073 Y36.233
X36.761 Y36.138
X36.672 Y36.136
X36.583 Y36.141
X36.395 Y36.161
X36.276 Y36.181
X35.028 Y36.468
X34.957 Y36.487
X34.889 Y36.511
X34.74 Y36.569
X34.67 Y36.599
X34.604 Y36.634
X33.451 Y37.299
X33.383 Y37.342
X33.319 Y37.39
X33.169 Y37.512
X33.116 Y37.558
X33.067 Y37.608
X32.189 Y38.557
X32.143 Y38.609
X32.102 Y38.664
X32.01 Y38.797
X31.967 Y38.864
X31.93 Y38.934
X31.353 Y40.129
X31.322 Y40.199
X31.297 Y40.272
X31.24 Y40.46
X31.221 Y40.531
X31.207 Y40.604
X31.013 Y41.906
X31.005 Y41.979
X31.003 Y42.053
X30.997 Y51.857
X30.922 Y52.311
X30.789 Y52.573
X30.573 Y52.789
X30.309 Y52.923
X30. Y52.974
X29.691 Y52.923
X29.427 Y52.789
X29.211 Y52.573
X29.078 Y52.311
X29.003 Y51.857
X28.997 Y42.053
X28.995 Y41.979
X28.987 Y41.906
X28.793 Y40.604
X28.779 Y40.531
X28.76 Y40.46
X28.703 Y40.272
X28.678 Y40.199
X28.647 Y40.129
X28.07 Y38.934
X28.033 Y38.864
X27.99 Y38.797
X27.898 Y38.664
X27.857 Y38.609
X27.811 Y38.557
X26.933 Y37.608
X26.884 Y37.558
X26.831 Y37.512
X26.681 Y37.39
X26.617 Y37.342
X26.549 Y37.299
X25.396 Y36.634
X25.33 Y36.599
X25.26 Y36.569
X25.111 Y36.511
X25.041 Y36.486
X24.969 Y36.467
X23.658 Y36.17
X23.572 Y36.154
X23.485 Y36.146
X23.298 Y36.137
X23.234 Y36.136
X23.171 Y36.139
X21.858 Y36.243
X21.764 Y36.255
X21.671 Y36.276
X21.484 Y36.327
X21.381 Y36.362
X20.194 Y36.832
X20.127 Y36.861
X20.062 Y36.895
X11.567 Y41.794
X11.16 Y41.95
X10.848 Y41.969
X10.552 Y41.89
X10.29 Y41.719
X10.108 Y41.494
X9.993 Y41.196
X9.978 Y40.91
X10.06 Y40.598
X10.223 Y40.347
X10.567 Y40.069
X19.054 Y35.163
X19.117 Y35.123
X19.177 Y35.079
X20.247 Y34.225
X20.314 Y34.167
X20.376 Y34.102
X20.49 Y33.972
X20.564 Y33.876
X21.282 Y32.824
X21.32 Y32.764
X21.354 Y32.7
X21.437 Y32.53
X21.469 Y32.458
X21.495 Y32.385
X21.888 Y31.106
X21.909 Y31.023
X21.924 Y30.939
X21.948 Y30.751
X21.954 Y30.687
X21.956 Y30.622
X21.951 Y29.309
X21.947 Y29.22
X21.935 Y29.131
X21.9 Y28.944
X21.871 Y28.828
X21.494 Y27.613
X21.468 Y27.54
X21.437 Y27.47
X21.354 Y27.3
X21.32 Y27.236
X21.282 Y27.176
X20.564 Y26.124
X20.49 Y26.028
X20.376 Y25.898
X20.314 Y25.833
X20.247 Y25.775
X19.177 Y24.921
X19.117 Y24.877
X19.054 Y24.837
X10.567 Y19.931
X10.223 Y19.652
X10.06 Y19.402
X9.978 Y19.09
X9.993 Y18.804
X10.108 Y18.506
X10.29 Y18.281
X10.544 Y18.115
X10.759 Y18.053
X10.846 Y18.031
X11.156 Y18.05
X11.607 Y18.226
X20.062 Y23.105
X20.128 Y23.139
X20.196 Y23.169
X21.446 Y23.661
X21.526 Y23.688
X21.608 Y23.709
X21.795 Y23.748
X21.861 Y23.76
X21.927 Y23.767
X23.239 Y23.862
X23.328 Y23.864
X23.417 Y23.859
X23.605 Y23.839
X23.724 Y23.819
X24.972 Y23.532
X25.043 Y23.513
X25.111 Y23.489
X25.26 Y23.431
X25.33 Y23.401
X25.396 Y23.366
X26.549 Y22.701
X26.617 Y22.658
X26.681 Y22.61
X26.831 Y22.488
X26.884 Y22.442
X26.933 Y22.392
X27.811 Y21.443
X27.857 Y21.391
X27.898 Y21.336
X27.99 Y21.203
X28.033 Y21.136
X28.07 Y21.066
X28.647 Y19.871
X28.678 Y19.8
X28.703 Y19.728
X28.76 Y19.54
X28.779 Y19.469
X28.793 Y19.396
X28.814 Y19.256
G3 X29.095 Y19.209 I0.148 J0.022
G1 X29.775 Y20.518
X29.787 Y20.549
X29.792 Y20.581
X29.789 Y20.614
X29.225 Y23.783
X29.189 Y23.922
X29.18 Y23.937
X29.164 Y23.945
X29.147 Y23.944
X29.133 Y23.933
G3 X31.397 Y22.202 Z-0.656 I1.132 J-0.866 F333.
X29.133 Y23.933 Z-0.813 I-1.132 J0.866
X31.397 Y22.202 Z-0.969 I1.132 J-0.866
X29.133 Y23.933 Z-1.125 I-1.132 J0.866
X31.397 Y22.202 Z-1.282 I1.132 J-0.866
X29.133 Y23.933 Z-1.438 I-1.132 J0.866
X29.083 Y22.271 Z-1.5 I1.132 J-0.866
G2 X29.59 Y21.385 I-5.804 J-3.912 F1000.
G3 X30.41 I0.41 J0.197
G2 X37.256 Y25.338 I6.32 J-3.042
G3 X37.667 Y26.046 I0.035 J0.453
G2 X36.857 Y27.485 I8.125 J5.518
X36.456 Y29.086 I4.131 J1.886
X36.656 Y31.621 I8.981 J0.564
X37.667 Y33.954 I6.637 J-1.489
G3 X37.256 Y34.662 I-0.376 J0.255
G2 X30.41 Y38.615 I-0.535 J6.978
G3 X29.59 I-0.41 J-0.197
G2 X22.744 Y34.662 I-6.32 J3.042
G3 X22.333 Y33.954 I-0.035 J-0.453
G2 Y26.046 I-5.821 J-3.954
G3 X22.744 Y25.338 I0.376 J-0.255
G2 X29.083 Y22.271 I0.535 J-6.978
X29.089 Y20.812 I-1.089 J-0.734
G3 X28.791 Y19.384 I1.645 J-1.088
G1 X28.829 Y19.171
X28.833 Y19.144
X28.987 Y18.091
X28.995 Y18.02
X28.997 Y17.947
X29.003 Y8.143
X29.078 Y7.689
X29.211 Y7.427
X29.427 Y7.211
X29.691 Y7.077
X30. Y7.026
X30.309 Y7.077
X30.573 Y7.211
X30.789 Y7.427
X30.922 Y7.689
X30.997 Y8.143
X31.003 Y17.947
X31.005 Y18.021
X31.013 Y18.094
X31.207 Y19.396
X31.231 Y19.513
X31.266 Y19.638
X31.303 Y19.748
X31.353 Y19.873
X31.379 Y19.933
X31.904 Y21.022
X31.937 Y21.085
X31.975 Y21.146
X32.095 Y21.325
X32.14 Y21.387
X32.19 Y21.445
X33.065 Y22.391
X33.149 Y22.472
X33.25 Y22.558
X33.328 Y22.619
X33.429 Y22.689
X33.499 Y22.734
X34.499 Y23.313
X34.58 Y23.355
X34.783 Y23.448
X34.895 Y23.493
X34.994 Y23.525
X35.084 Y23.549
X36.345 Y23.831
X36.426 Y23.846
X36.509 Y23.853
X36.696 Y23.864
X36.762 Y23.865
X36.827 Y23.862
X38.077 Y23.766
X38.14 Y23.759
X38.203 Y23.749
X38.39 Y23.71
X38.473 Y23.689
X38.554 Y23.661
X39.805 Y23.169
X39.872 Y23.139
X39.938 Y23.105
X48.433 Y18.206
X48.84 Y18.05
X49.152 Y18.031
X49.448 Y18.11
X49.71 Y18.281
X49.892 Y18.506
X50.007 Y18.804
X50.022 Y19.09
X49.94 Y19.402
X49.777 Y19.653
X49.433 Y19.931
X40.946 Y24.837
X40.885 Y24.876
X40.826 Y24.919
X39.819 Y25.715
X39.739 Y25.786
X39.612 Y25.911
X39.564 Y25.961
X39.519 Y26.015
X39.423 Y26.14
X39.389 Y26.188
X38.716 Y27.177
X38.678 Y27.239
X38.644 Y27.304
X38.561 Y27.474
X38.531 Y27.542
X38.507 Y27.612
X38.128 Y28.827
X38.102 Y28.925
X38.077 Y29.05
X38.065 Y29.118
X38.059 Y29.187
X38.043 Y29.437
X38.041 Y29.503
X38.044 Y30.628
X38.052 Y30.753
X38.077 Y30.941
X38.09 Y31.02
X38.11 Y31.098
X38.315 Y31.786
X38.32 Y31.803
X38.508 Y32.394
X38.532 Y32.461
X38.561 Y32.526
X38.644 Y32.696
X38.678 Y32.761
X38.716 Y32.823
X39.388 Y33.812
X39.423 Y33.86
X39.519 Y33.985
X39.564 Y34.039
X39.612 Y34.089
X39.739 Y34.214
X39.819 Y34.285
X40.826 Y35.081
X40.885 Y35.124
X40.946 Y35.163
X49.433 Y40.069
X49.777 Y40.348
X49.94 Y40.598
X50.022 Y40.91
X50.007 Y41.196
X49.892 Y41.494
X49.71 Y41.719
X49.456 Y41.885
X49.241 Y41.947
X49.154 Y41.969
X48.844 Y41.95
X48.393 Y41.774
X39.938 Y36.895
X39.873 Y36.861
X39.805 Y36.831
X38.554 Y36.339
X38.473 Y36.311
X38.39 Y36.29
X38.203 Y36.251
X38.14 Y36.241
X38.077 Y36.234
X36.827 Y36.138
X36.762 Y36.135
X36.696 Y36.136
X36.509 Y36.147
X36.426 Y36.154
X36.345 Y36.169
X35.084 Y36.451
X35.018 Y36.468
X34.954 Y36.489
X34.755 Y36.563
X34.652 Y36.608
X34.55 Y36.66
X34.499 Y36.687
X33.499 Y37.266
X33.408 Y37.326
X33.256 Y37.438
X33.193 Y37.488
X33.134 Y37.544
X32.882 Y37.802
X32.861 Y37.824
X32.188 Y38.557
X32.139 Y38.615
X32.095 Y38.675
X31.975 Y38.854
X31.937 Y38.915
X31.904 Y38.978
X31.379 Y40.067
X31.343 Y40.154
X31.273 Y40.342
X31.246 Y40.428
X31.226 Y40.516
X31.171 Y40.829
X31.167 Y40.856
X31.013 Y41.909
X31.005 Y41.98
X31.003 Y42.053
X30.997 Y51.857
X30.922 Y52.311
X30.789 Y52.573
X30.573 Y52.789
X30.309 Y52.923
X30. Y52.974
X29.691 Y52.923
X29.427 Y52.789
X29.211 Y52.573
X29.078 Y52.311
X29.003 Y51.857
X28.997 Y42.053
X28.995 Y41.979
X28.987 Y41.906
X28.793 Y40.604
X28.769 Y40.487
X28.734 Y40.362
X28.697 Y40.252
X28.647 Y40.127
X28.621 Y40.067
X28.096 Y38.978
X28.063 Y38.915
X28.025 Y38.854
X27.905 Y38.675
X27.86 Y38.613
X27.81 Y38.555
X26.935 Y37.609
X26.851 Y37.528
X26.75 Y37.442
X26.672 Y37.381
X26.571 Y37.311
X26.501 Y37.266
X25.501 Y36.687
X25.42 Y36.645
X25.218 Y36.552
X25.105 Y36.507
X25.006 Y36.475
X24.916 Y36.451
X23.655 Y36.169
X23.574 Y36.154
X23.491 Y36.147
X23.304 Y36.136
X23.238 Y36.135
X23.173 Y36.138
X21.923 Y36.234
X21.86 Y36.241
X21.797 Y36.251
X21.61 Y36.29
X21.527 Y36.311
X21.446 Y36.339
X20.195 Y36.831
X20.128 Y36.861
X20.062 Y36.895
X11.567 Y41.794
X11.16 Y41.95
X10.848 Y41.969
X10.552 Y41.89
X10.29 Y41.719
X10.108 Y41.494
X9.993 Y41.196
X9.978 Y40.91
X10.06 Y40.598
X10.223 Y40.347
X10.567 Y40.069
X19.054 Y35.163
X19.115 Y35.124
X19.174 Y35.081
X20.181 Y34.285
X20.261 Y34.214
X20.388 Y34.089
X20.436 Y34.039
X20.481 Y33.985
X20.577 Y33.86
X20.612 Y33.812
X21.284 Y32.823
X21.322 Y32.761
X21.356 Y32.696
X21.439 Y32.526
X21.469 Y32.458
X21.493 Y32.388
X21.873 Y31.173
X21.898 Y31.075
X21.923 Y30.95
X21.935 Y30.882
X21.941 Y30.813
X21.957 Y30.563
X21.959 Y30.497
X21.956 Y29.372
X21.948 Y29.247
X21.923 Y29.059
X21.91 Y28.98
X21.89 Y28.902
X21.685 Y28.214
X21.68 Y28.197
X21.492 Y27.606
X21.468 Y27.539
X21.439 Y27.474
X21.356 Y27.304
X21.322 Y27.239
X21.284 Y27.177
X20.612 Y26.188
X20.577 Y26.14
X20.481 Y26.015
X20.436 Y25.961
X20.388 Y25.911
X20.261 Y25.786
X20.181 Y25.715
X19.174 Y24.919
X19.115 Y24.876
X19.054 Y24.837
X10.567 Y19.931
X10.223 Y19.652
X10.06 Y19.402
X9.978 Y19.09
X9.993 Y18.804
X10.108 Y18.506
X10.29 Y18.281
X10.544 Y18.115
X10.759 Y18.053
X10.846 Y18.031
X11.156 Y18.05
X11.607 Y18.226
X20.062 Y23.105
X20.127 Y23.139
X20.195 Y23.169
X21.446 Y23.661
X21.527 Y23.689
X21.61 Y23.71
X21.797 Y23.749
X21.86 Y23.759
X21.923 Y23.766
X23.173 Y23.862
X23.238 Y23.865
X23.304 Y23.864
X23.491 Y23.853
X23.574 Y23.846
X23.655 Y23.831
X24.916 Y23.549
X24.982 Y23.532
X25.046 Y23.511
X25.245 Y23.437
X25.348 Y23.392
X25.45 Y23.34
X25.501 Y23.313
X26.501 Y22.734
X26.592 Y22.674
X26.744 Y22.562
X26.807 Y22.512
X26.866 Y22.456
X27.118 Y22.198
X27.139 Y22.176
X27.812 Y21.443
X27.861 Y21.385
X27.905 Y21.325
X28.025 Y21.146
X28.063 Y21.085
X28.096 Y21.022
X28.621 Y19.933
X28.657 Y19.846
X28.727 Y19.658
X28.754 Y19.572
X28.774 Y19.484
X28.791 Y19.384
G3 X29.085 Y19.374 I0.148 J0.026
G1 X30.16 Y23.81
X30.164 Y23.855
X30.155 Y23.899
X30.133 Y23.938
X30.1 Y23.969
X30.06 Y23.988
X30.015 Y23.995
G2 X24.797 Y26.841 I0.034 J6.27
X24.119 Y31.865 I4.947 J3.226
X27.539 Y35.609 I5.783 J-1.85
X34.267 Y34.411 I2.442 J-5.779
X35.688 Y27.727 I-4.079 J-4.36
X30.509 Y24.012 I-5.626 J2.377
X30.015 Y23.995 I-0.459 J6.254
X28.786 Y24.879 I0.007 J1.308
G3 X27.862 Y26.079 I-2.238 J-0.767
G1 X27.052 Y26.62
X26.988 Y26.667
X26.927 Y26.719
X26.819 Y26.819
X26.768 Y26.87
X26.72 Y26.925
X26.63 Y27.037
X26.578 Y27.108
X26.168 Y27.721
X26.162 Y27.731
X25.976 Y28.016
X25.931 Y28.093
X25.892 Y28.173
X25.813 Y28.361
X25.779 Y28.455
X25.754 Y28.553
X25.528 Y29.678
X25.514 Y29.76
X25.508 Y29.844
X25.502 Y30.031
X25.504 Y30.121
X25.513 Y30.211
X25.541 Y30.399
X25.55 Y30.45
X25.755 Y31.45
X25.779 Y31.546
X25.813 Y31.639
X25.892 Y31.827
X25.933 Y31.912
X25.982 Y31.993
X26.62 Y32.948
X26.667 Y33.012
X26.719 Y33.073
X26.819 Y33.181
X26.87 Y33.232
X26.925 Y33.28
X27.037 Y33.37
X27.111 Y33.424
X28.01 Y34.02
X28.089 Y34.068
X28.173 Y34.108
X28.361 Y34.187
X28.455 Y34.221
X28.553 Y34.246
X29.678 Y34.472
X29.76 Y34.486
X29.844 Y34.492
X30.031 Y34.498
X30.121 Y34.496
X30.211 Y34.487
X30.399 Y34.459
X30.45 Y34.45
X31.45 Y34.245
X31.546 Y34.221
X31.639 Y34.187
X31.827 Y34.108
X31.912 Y34.067
X31.993 Y34.018
X32.948 Y33.38
X33.012 Y33.333
X33.073 Y33.281
X33.181 Y33.181
X33.232 Y33.13
X33.28 Y33.075
X33.37 Y32.963
X33.424 Y32.889
X34.02 Y31.99
X34.068 Y31.911
X34.108 Y31.827
X34.187 Y31.639
X34.221 Y31.545
X34.246 Y31.447
X34.472 Y30.322
X34.486 Y30.24
X34.492 Y30.156
X34.498 Y29.969
X34.496 Y29.879
X34.487 Y29.789
X34.459 Y29.601
X34.45 Y29.55
X34.245 Y28.55
X34.221 Y28.454
X34.187 Y28.361
X34.108 Y28.173
X34.067 Y28.088
X34.018 Y28.007
X33.38 Y27.052
X33.333 Y26.988
X33.281 Y26.927
X33.181 Y26.819
X33.13 Y26.768
X33.075 Y26.72
X32.963 Y26.63
X32.889 Y26.576
X31.99 Y25.98
X31.911 Y25.932
X31.827 Y25.892
X31.639 Y25.813
X31.545 Y25.779
X31.447 Y25.754
X30.322 Y25.528
X30.24 Y25.514
X30.156 Y25.508
X29.969 Y25.502
X29.879 Y25.504
X29.789 Y25.513
X29.601 Y25.541
X29.55 Y25.55
X28.55 Y25.755
X28.454 Y25.779
X28.361 Y25.813
X28.173 Y25.892
X28.088 Y25.933
X28.007 Y25.982
X27.862 Y26.079
G3 X27.647 Y25.883 I-0.083 J-0.125
G1 X27.957 Y25.311
X27.974 Y25.285
X27.997 Y25.264
X31.049 Y22.93
X31.269 Y22.812
X31.296 Y22.805
X31.322 Y22.812
X31.343 Y22.83
X31.353 Y22.855
X31.35 Y22.883
G3 X28.665 Y21.929 Z-1.656 I-1.343 J-0.477 F333.
X31.35 Y22.883 Z-1.813 I1.343 J0.477
X28.665 Y21.929 Z-1.969 I-1.343 J-0.477
X31.35 Y22.883 Z-2.125 I1.343 J0.477
X28.665 Y21.929 Z-2.282 I-1.343 J-0.477
X31.35 Y22.883 Z-2.438 I1.343 J0.477
X29.984 Y23.831 Z-2.5 I-1.343 J-0.477
G2 X28.595 Y23.966 I-0.101 J6.138 F1000.
X25.451 Y25.905 I1.158 J5.396
X23.926 Y30.389 I5.399 J4.339
X26.018 Y34.639 I5.601 J-0.117
X29.26 Y36.094 I4.412 J-5.491
X32.757 Y35.459 I0.869 J-5.161
X35.336 Y33.016 I-3.879 J-6.679
X36.097 Y29.547 I-4.161 J-2.73
X34.868 Y26.431 I-7.379 J1.109
X32.273 Y24.314 I-4.917 J3.378
X29.984 Y23.831 I-2.389 J5.655
X28.609 Y24.86 I-0.023 J1.403
G3 X27.603 Y26.252 I-2.374 J-0.656
G1 X27.052 Y26.62
X26.988 Y26.667
X26.927 Y26.719
X26.819 Y26.819
X26.768 Y26.87
X26.72 Y26.925
X26.63 Y27.037
X26.578 Y27.108
X26.168 Y27.721
X26.162 Y27.731
X25.976 Y28.016
X25.931 Y28.093
X25.892 Y28.173
X25.813 Y28.361
X25.779 Y28.455
X25.754 Y28.553
X25.528 Y29.678
X25.514 Y29.76
X25.508 Y29.844
X25.502 Y30.031
X25.504 Y30.121
X25.513 Y30.211
X25.541 Y30.399
X25.55 Y30.45
X25.755 Y31.45
X25.779 Y31.546
X25.813 Y31.639
X25.892 Y31.827
X25.933 Y31.912
X25.982 Y31.993
X26.62 Y32.948
X26.667 Y33.012
X26.719 Y33.073
X26.819 Y33.181
X26.87 Y33.232
X26.925 Y33.28
X27.037 Y33.37
X27.111 Y33.424
X28.01 Y34.02
X28.089 Y34.068
X28.173 Y34.108
X28.361 Y34.187
X28.455 Y34.221
X28.553 Y34.246
X29.678 Y34.472
X29.76 Y34.486
X29.844 Y34.492
X30.031 Y34.498
X30.121 Y34.496
X30.211 Y34.487
X30.399 Y34.459
X30.45 Y34.45
X31.45 Y34.245
X31.546 Y34.221
X31.639 Y34.187
X31.827 Y34.108
X31.912 Y34.067
X31.993 Y34.018
X32.948 Y33.38
X33.012 Y33.333
X33.073 Y33.281
X33.181 Y33.181
X33.232 Y33.13
X33.28 Y33.075
X33.37 Y32.963
X33.424 Y32.889
X34.02 Y31.99
X34.068 Y31.911
X34.108 Y31.827
X34.187 Y31.639
X34.221 Y31.545
X34.246 Y31.447
X34.472 Y30.322
X34.486 Y30.24
X34.492 Y30.156
X34.498 Y29.969
X34.496 Y29.879
X34.487 Y29.789
X34.459 Y29.601
X34.45 Y29.55
X34.245 Y28.55
X34.221 Y28.454
X34.187 Y28.361
X34.108 Y28.173
X34.067 Y28.088
X34.018 Y28.007
X33.38 Y27.052
X33.333 Y26.988
X33.281 Y26.927
X33.181 Y26.819
X33.13 Y26.768
X33.075 Y26.72
X32.963 Y26.63
X32.889 Y26.576
X31.99 Y25.98
X31.911 Y25.932
X31.827 Y25.892
X31.639 Y25.813
X31.545 Y25.779
X31.447 Y25.754
X30.322 Y25.528
X30.24 Y25.514
X30.156 Y25.508
X29.969 Y25.502
X29.879 Y25.504
X29.789 Y25.513
X29.601 Y25.541
X29.55 Y25.55
X28.55 Y25.755
X28.454 Y25.779
X28.361 Y25.813
X28.173 Y25.892
X28.088 Y25.933
X28.007 Y25.982
X27.603 Y26.252
X27.575 Y26.266
X27.545 Y26.275
X23.014 Y27.032
X22.966
X22.92 Y27.017
X22.881 Y26.988
X22.854 Y26.949
G2 X22.333 Y26.042 I-6.347 J3.048
G3 X22.742 Y25.339 I0.372 J-0.255
G2 X26.784 Y24.429 I0.578 J-6.868
X29.592 Y21.383 I-3.53 J-6.073
G3 X30.41 Y21.382 I0.409 J0.195
G2 X37.259 Y25.336 I6.318 J-3.036
G3 X37.67 Y26.044 I0.035 J0.453
G2 X37.667 Y33.958 I5.824 J3.958
G3 X37.258 Y34.661 I-0.372 J0.255
G2 X33.216 Y35.571 I-0.578 J6.868
X30.408 Y38.617 I3.53 J6.073
G3 X29.59 Y38.618 I-0.409 J-0.195
G2 X22.741 Y34.664 I-6.318 J3.036
G3 X22.33 Y33.956 I-0.035 J-0.453
G2 X22.854 Y26.949 I-5.824 J-3.958
X21.597 Y26.21 I-1.179 J0.566
G3 X20.215 Y25.743 I-0.116 J-1.933
G1 X20.182 Y25.715
X19.173 Y24.918
X19.115 Y24.876
X19.054 Y24.837
X10.567 Y19.931
X10.223 Y19.652
X10.06 Y19.402
X9.978 Y19.09
X9.993 Y18.804
X10.108 Y18.506
X10.29 Y18.281
X10.544 Y18.115
X10.759 Y18.053
X10.846 Y18.031
X11.156 Y18.05
X11.607 Y18.226
X20.062 Y23.105
X20.126 Y23.139
X20.192 Y23.168
X21.38 Y23.64
X21.492 Y23.677
X21.68 Y23.727
X21.766 Y23.746
X21.853 Y23.757
X22.916 Y23.846
X22.934 Y23.848
X23.184 Y23.864
X23.308
X23.496 Y23.853
X23.574 Y23.845
X23.651 Y23.832
X24.713 Y23.599
X24.736 Y23.594
X24.935 Y23.545
X25.049 Y23.51
X25.248 Y23.436
X25.335 Y23.398
X25.437 Y23.348
X25.502 Y23.314
X26.502 Y22.733
X26.573 Y22.688
X26.674 Y22.617
X26.766 Y22.545
X26.923 Y22.405
X26.992 Y22.338
X27.733 Y21.537
X27.786 Y21.475
X27.927 Y21.296
X27.971 Y21.235
X28.011 Y21.171
X28.112 Y20.992
X28.144 Y20.93
X28.622 Y19.93
X28.657 Y19.846
X28.727 Y19.659
X28.754 Y19.574
X28.773 Y19.487
X28.829 Y19.174
X28.834 Y19.143
X28.987 Y18.091
X28.995 Y18.019
X28.997 Y17.947
X29.003 Y8.143
X29.078 Y7.689
X29.211 Y7.427
X29.427 Y7.211
X29.691 Y7.077
X30. Y7.026
X30.309 Y7.077
X30.573 Y7.211
X30.789 Y7.427
X30.922 Y7.689
X30.997 Y8.143
X31.003 Y17.947
X31.005 Y18.02
X31.013 Y18.093
X31.206 Y19.395
X31.232 Y19.517
X31.267 Y19.642
X31.303 Y19.748
X31.353 Y19.873
X31.379 Y19.932
X31.903 Y21.022
X31.937 Y21.088
X31.977 Y21.151
X32.099 Y21.33
X32.136 Y21.381
X32.177 Y21.43
X32.381 Y21.662
X32.401 Y21.683
X33.068 Y22.395
X33.147 Y22.471
X33.249 Y22.558
X33.326 Y22.617
X33.427 Y22.688
X33.498 Y22.733
X34.498 Y23.314
X34.587 Y23.36
X34.789 Y23.452
X34.889 Y23.49
X34.988 Y23.523
X35.081 Y23.549
X36.28 Y23.82
X36.367 Y23.836
X36.492 Y23.853
X36.591 Y23.861
X36.716 Y23.865
X36.828 Y23.863
X38.078 Y23.766
X38.201 Y23.749
X38.389 Y23.711
X38.472 Y23.69
X38.552 Y23.662
X39.74 Y23.198
X39.815 Y23.165
X39.94 Y23.104
X40.001 Y23.071
X48.433 Y18.206
X48.84 Y18.05
X49.152 Y18.031
X49.448 Y18.11
X49.71 Y18.281
X49.892 Y18.506
X50.007 Y18.804
X50.022 Y19.09
X49.94 Y19.402
X49.777 Y19.653
X49.433 Y19.931
X40.946 Y24.837
X40.885 Y24.876
X40.827 Y24.918
X39.818 Y25.715
X39.734 Y25.789
X39.608 Y25.914
X39.562 Y25.963
X39.519 Y26.015
X39.423 Y26.14
X39.389 Y26.188
X38.716 Y27.177
X38.677 Y27.24
X38.642 Y27.306
X38.56 Y27.476
X38.532 Y27.541
X38.508 Y27.608
X38.163 Y28.699
X38.154 Y28.729
X38.119 Y28.854
X38.101 Y28.93
X38.076 Y29.055
X38.059 Y29.177
X38.041 Y29.427
X38.038 Y29.5
Y30.5
X38.041 Y30.573
X38.059 Y30.823
X38.076 Y30.945
X38.101 Y31.07
X38.126 Y31.169
X38.472 Y32.294
X38.501 Y32.375
X38.574 Y32.556
X38.602 Y32.618
X38.634 Y32.679
X38.725 Y32.839
X38.768 Y32.906
X39.391 Y33.815
X39.423 Y33.86
X39.519 Y33.985
X39.562 Y34.037
X39.608 Y34.086
X39.734 Y34.211
X39.818 Y34.285
X40.827 Y35.082
X40.885 Y35.124
X40.946 Y35.163
X49.433 Y40.069
X49.777 Y40.348
X49.94 Y40.598
X50.022 Y40.91
X50.007 Y41.196
X49.892 Y41.494
X49.71 Y41.719
X49.456 Y41.885
X49.241 Y41.947
X49.154 Y41.969
X48.844 Y41.95
X48.393 Y41.774
X39.938 Y36.895
X39.874 Y36.861
X39.808 Y36.832
X38.62 Y36.36
X38.508 Y36.323
X38.32 Y36.273
X38.234 Y36.254
X38.147 Y36.243
X37.084 Y36.154
X37.066 Y36.152
X36.816 Y36.136
X36.692
X36.504 Y36.147
X36.426 Y36.155
X36.349 Y36.168
X35.287 Y36.401
X35.264 Y36.406
X35.065 Y36.455
X34.951 Y36.49
X34.752 Y36.564
X34.665 Y36.602
X34.563 Y36.652
X34.498 Y36.686
X33.498 Y37.267
X33.427 Y37.312
X33.326 Y37.383
X33.234 Y37.455
X33.077 Y37.595
X33.008 Y37.662
X32.267 Y38.463
X32.214 Y38.525
X32.073 Y38.704
X32.029 Y38.765
X31.989 Y38.829
X31.888 Y39.008
X31.856 Y39.07
X31.378 Y40.07
X31.343 Y40.154
X31.273 Y40.341
X31.246 Y40.426
X31.227 Y40.513
X31.171 Y40.826
X31.166 Y40.857
X31.013 Y41.909
X31.005 Y41.981
X31.003 Y42.053
X30.997 Y51.857
X30.922 Y52.311
X30.789 Y52.573
X30.573 Y52.789
X30.309 Y52.923
X30. Y52.974
X29.691 Y52.923
X29.427 Y52.789
X29.211 Y52.573
X29.078 Y52.311
X29.003 Y51.857
X28.997 Y42.053
X28.995 Y41.98
X28.987 Y41.907
X28.794 Y40.605
X28.768 Y40.483
X28.733 Y40.358
X28.697 Y40.252
X28.647 Y40.127
X28.621 Y40.068
X28.097 Y38.978
X28.063 Y38.912
X28.023 Y38.849
X27.901 Y38.67
X27.864 Y38.619
X27.823 Y38.57
X27.619 Y38.338
X27.599 Y38.317
X26.932 Y37.605
X26.853 Y37.529
X26.751 Y37.442
X26.674 Y37.383
X26.573 Y37.312
X26.502 Y37.267
X25.502 Y36.686
X25.413 Y36.64
X25.211 Y36.548
X25.111 Y36.51
X25.012 Y36.477
X24.919 Y36.451
X23.72 Y36.18
X23.633 Y36.164
X23.508 Y36.147
X23.409 Y36.139
X23.284 Y36.135
X23.172 Y36.137
X21.922 Y36.234
X21.799 Y36.251
X21.611 Y36.289
X21.528 Y36.31
X21.448 Y36.338
X20.26 Y36.802
X20.185 Y36.835
X20.06 Y36.896
X19.999 Y36.929
X11.567 Y41.794
X11.16 Y41.95
X10.848 Y41.969
X10.552 Y41.89
X10.29 Y41.719
X10.108 Y41.494
X9.993 Y41.196
X9.978 Y40.91
X10.06 Y40.598
X10.223 Y40.347
X10.567 Y40.069
X19.054 Y35.163
X19.115 Y35.124
X19.173 Y35.082
X20.182 Y34.285
X20.266 Y34.211
X20.392 Y34.086
X20.438 Y34.037
X20.481 Y33.985
X20.577 Y33.86
X20.611 Y33.812
X21.284 Y32.823
X21.323 Y32.76
X21.358 Y32.694
X21.44 Y32.524
X21.468 Y32.459
X21.492 Y32.392
X21.837 Y31.301
X21.846 Y31.271
X21.881 Y31.146
X21.899 Y31.07
X21.924 Y30.945
X21.941 Y30.823
X21.959 Y30.573
X21.962 Y30.5
Y29.5
X21.959 Y29.427
X21.941 Y29.177
X21.924 Y29.055
X21.899 Y28.93
X21.874 Y28.831
X21.528 Y27.706
X21.499 Y27.625
X21.426 Y27.444
X21.398 Y27.382
X21.366 Y27.321
X21.275 Y27.161
X21.232 Y27.094
X20.609 Y26.185
X20.577 Y26.14
X20.481 Y26.015
X20.438 Y25.963
X20.392 Y25.914
X20.266 Y25.789
X20.215 Y25.743
G3 X20.324 Y25.479 I0.098 J-0.114
G1 X21.847 Y25.589
X21.895 Y25.601
X21.936 Y25.626
X24.3 Y27.717
X24.311 Y27.737
G3 X23.957 Y24.909 Z-2.656 I-0.177 J-1.414 F333.
X24.311 Y27.737 Z-2.813 I0.177 J1.414
X23.957 Y24.909 Z-2.969 I-0.177 J-1.414
X24.311 Y27.737 Z-3.125 I0.177 J1.414
X23.957 Y24.909 Z-3.282 I-0.177 J-1.414
X24.311 Y27.737 Z-3.438 I0.177 J1.414
X22.85 Y26.942 Z-3.5 I-0.177 J-1.414
G2 X22.337 Y26.051 I-6.344 J3.059 F1000.
G3 X22.744 Y25.338 I0.376 J-0.258
G2 X26.779 Y24.416 I0.496 J-7.118
X29.593 Y21.382 I-3.427 J-6.001
G3 X30.41 Y21.381 I0.409 J0.194
G2 X33.217 Y24.422 I6.356 J-3.051
X37.254 Y25.339 I3.479 J-5.973
G3 X37.666 Y26.045 I0.037 J0.452
G2 X36.446 Y29.997 I5.855 J3.971
X37.663 Y33.949 I6.961 J0.019
G3 X37.256 Y34.662 I-0.376 J0.258
G2 X33.221 Y35.584 I-0.496 J7.118
X30.407 Y38.618 I3.427 J6.001
G3 X29.59 Y38.619 I-0.409 J-0.194
G2 X26.783 Y35.578 I-6.356 J3.051
X22.746 Y34.661 I-3.479 J5.973
G3 X22.334 Y33.955 I-0.037 J-0.452
G2 X22.85 Y26.942 I-5.829 J-3.954
X21.594 Y26.205 I-1.178 J0.568
G3 X20.214 Y25.74 I-0.115 J-1.941
G1 X20.183 Y25.715
X19.173 Y24.918
X19.115 Y24.876
X19.054 Y24.837
X10.567 Y19.931
X10.223 Y19.652
X10.06 Y19.402
X9.978 Y19.09
X9.993 Y18.804
X10.108 Y18.506
X10.29 Y18.281
X10.544 Y18.115
X10.759 Y18.053
X10.846 Y18.031
X11.156 Y18.05
X11.607 Y18.226
X20.062 Y23.105
X20.126 Y23.139
X20.192 Y23.168
X21.379 Y23.64
X21.496 Y23.679
X21.684 Y23.728
X21.762 Y23.745
X21.841 Y23.756
X22.404 Y23.81
X22.43 Y23.812
X23.18 Y23.864
X23.245 Y23.866
X23.311 Y23.865
X23.499 Y23.853
X23.569 Y23.846
X23.639 Y23.834
X24.202 Y23.718
X24.229 Y23.712
X24.928 Y23.547
X24.989 Y23.531
X25.05 Y23.51
X25.248 Y23.436
X25.331 Y23.4
X25.433 Y23.351
X25.497 Y23.318
X26.283 Y22.867
X26.308 Y22.852
X26.522 Y22.721
X26.573 Y22.688
X26.675 Y22.616
X26.728 Y22.576
X26.779 Y22.533
X26.988 Y22.34
X27.047 Y22.282
X27.735 Y21.535
X27.786 Y21.475
X27.927 Y21.296
X27.969 Y21.239
X28.006 Y21.179
X28.11 Y21.
X28.147 Y20.928
X28.623 Y19.928
X28.657 Y19.846
X28.727 Y19.659
X28.753 Y19.575
X28.773 Y19.49
X28.83 Y19.177
X28.835 Y19.142
X28.987 Y18.09
X28.995 Y18.019
X28.997 Y17.947
X29.003 Y8.143
X29.078 Y7.689
X29.211 Y7.427
X29.427 Y7.211
X29.691 Y7.077
X30. Y7.026
X30.309 Y7.077
X30.573 Y7.211
X30.789 Y7.427
X30.922 Y7.689
X30.997 Y8.143
X31.003 Y17.947
X31.005 Y18.02
X31.013 Y18.093
X31.206 Y19.395
X31.217 Y19.458
X31.232 Y19.52
X31.268 Y19.645
X31.303 Y19.748
X31.353 Y19.873
X31.379 Y19.932
X31.902 Y21.022
X31.937 Y21.089
X31.978 Y21.153
X32.1 Y21.332
X32.172 Y21.425
X32.373 Y21.656
X32.395 Y21.68
X33.01 Y22.341
X33.083 Y22.412
X33.239 Y22.549
X33.325 Y22.616
X33.427 Y22.688
X33.491 Y22.729
X33.991 Y23.025
X34.005 Y23.033
X34.505 Y23.318
X34.59 Y23.362
X34.792 Y23.453
X34.909 Y23.497
X35.108 Y23.558
X35.186 Y23.578
X36.285 Y23.821
X36.367 Y23.836
X36.492 Y23.853
X36.606 Y23.861
X36.793 Y23.865
X36.894 Y23.862
X38.081 Y23.766
X38.2 Y23.749
X38.388 Y23.711
X38.471 Y23.69
X38.553 Y23.662
X39.74 Y23.198
X39.815 Y23.165
X39.94 Y23.104
X40.001 Y23.071
X48.433 Y18.206
X48.84 Y18.05
X49.152 Y18.031
X49.448 Y18.11
X49.71 Y18.281
X49.892 Y18.506
X50.007 Y18.804
X50.022 Y19.09
X49.94 Y19.402
X49.777 Y19.653
X49.433 Y19.931
X40.946 Y24.838
X40.885 Y24.876
X40.827 Y24.918
X39.818 Y25.715
X39.73 Y25.793
X39.605 Y25.918
X39.551 Y25.976
X39.502 Y26.038
X39.23 Y26.413
X39.212 Y26.438
X38.738 Y27.138
X38.702 Y27.196
X38.669 Y27.255
X38.565 Y27.466
X38.534 Y27.535
X38.508 Y27.606
X38.161 Y28.697
X38.14 Y28.776
X38.082 Y29.026
X38.068 Y29.096
X38.06 Y29.168
X38.039 Y29.418
X38.036 Y29.5
Y30.5
X38.039 Y30.582
X38.06 Y30.832
X38.068 Y30.903
X38.082 Y30.974
X38.14 Y31.224
X38.161 Y31.303
X38.508 Y32.394
X38.534 Y32.465
X38.565 Y32.534
X38.669 Y32.745
X38.703 Y32.806
X38.74 Y32.866
X39.391 Y33.815
X39.423 Y33.86
X39.519 Y33.985
X39.56 Y34.035
X39.605 Y34.082
X39.73 Y34.207
X39.817 Y34.285
X40.827 Y35.082
X40.885 Y35.124
X40.946 Y35.163
X49.433 Y40.069
X49.777 Y40.348
X49.94 Y40.598
X50.022 Y40.91
X50.007 Y41.196
X49.892 Y41.494
X49.71 Y41.719
X49.456 Y41.885
X49.241 Y41.947
X49.154 Y41.969
X48.844 Y41.95
X48.393 Y41.774
X39.938 Y36.895
X39.874 Y36.861
X39.808 Y36.832
X38.621 Y36.36
X38.504 Y36.321
X38.316 Y36.272
X38.238 Y36.255
X38.159 Y36.244
X37.596 Y36.19
X37.57 Y36.188
X36.82 Y36.136
X36.755 Y36.134
X36.689 Y36.135
X36.501 Y36.147
X36.431 Y36.154
X36.361 Y36.166
X35.798 Y36.282
X35.771 Y36.288
X35.072 Y36.453
X35.011 Y36.469
X34.95 Y36.49
X34.752 Y36.564
X34.669 Y36.6
X34.567 Y36.649
X34.503 Y36.682
X33.717 Y37.133
X33.692 Y37.148
X33.478 Y37.279
X33.427 Y37.312
X33.325 Y37.384
X33.272 Y37.424
X33.221 Y37.467
X33.012 Y37.66
X32.953 Y37.718
X32.265 Y38.465
X32.214 Y38.525
X32.073 Y38.704
X32.031 Y38.761
X31.994 Y38.821
X31.89 Y39.
X31.853 Y39.072
X31.377 Y40.072
X31.343 Y40.154
X31.273 Y40.341
X31.247 Y40.425
X31.227 Y40.51
X31.17 Y40.823
X31.165 Y40.858
X31.013 Y41.91
X31.005 Y41.981
X31.003 Y42.053
X30.997 Y51.857
X30.922 Y52.311
X30.789 Y52.573
X30.573 Y52.789
X30.309 Y52.923
X30. Y52.974
X29.691 Y52.923
X29.427 Y52.789
X29.211 Y52.573
X29.078 Y52.311
X29.003 Y51.857
X28.997 Y42.053
X28.995 Y41.98
X28.987 Y41.907
X28.794 Y40.605
X28.783 Y40.542
X28.768 Y40.48
X28.732 Y40.355
X28.697 Y40.252
X28.647 Y40.127
X28.621 Y40.068
X28.098 Y38.978
X28.063 Y38.911
X28.022 Y38.847
X27.9 Y38.668
X27.828 Y38.575
X27.627 Y38.344
X27.605 Y38.32
X26.99 Y37.659
X26.917 Y37.588
X26.761 Y37.451
X26.675 Y37.384
X26.573 Y37.312
X26.509 Y37.271
X26.009 Y36.975
X25.995 Y36.967
X25.495 Y36.682
X25.41 Y36.638
X25.208 Y36.547
X25.091 Y36.503
X24.892 Y36.442
X24.814 Y36.422
X23.715 Y36.179
X23.633 Y36.164
X23.508 Y36.147
X23.394 Y36.139
X23.207 Y36.135
X23.106 Y36.138
X21.919 Y36.234
X21.8 Y36.251
X21.612 Y36.289
X21.529 Y36.31
X21.447 Y36.338
X20.26 Y36.802
X20.185 Y36.835
X20.06 Y36.896
X19.999 Y36.929
X11.567 Y41.794
X11.16 Y41.95
X10.848 Y41.969
X10.552 Y41.89
X10.29 Y41.719
X10.108 Y41.494
X9.993 Y41.196
X9.978 Y40.91
X10.06 Y40.598
X10.223 Y40.347
X10.567 Y40.069
X19.054 Y35.163
X19.115 Y35.124
X19.173 Y35.082
X20.183 Y34.285
X20.27 Y34.207
X20.395 Y34.082
X20.449 Y34.024
X20.498 Y33.962
X20.77 Y33.587
X20.788 Y33.562
X21.262 Y32.862
X21.298 Y32.805
X21.331 Y32.745
X21.435 Y32.535
X21.466 Y32.465
X21.492 Y32.394
X21.839 Y31.303
X21.86 Y31.224
X21.918 Y30.974
X21.932 Y30.904
X21.94 Y30.832
X21.961 Y30.582
X21.964 Y30.5
Y29.5
X21.961 Y29.418
X21.94 Y29.168
X21.932 Y29.096
X21.918 Y29.026
X21.86 Y28.776
X21.839 Y28.697
X21.492 Y27.606
X21.466 Y27.535
X21.435 Y27.465
X21.331 Y27.255
X21.297 Y27.194
X21.26 Y27.134
X20.609 Y26.185
X20.577 Y26.14
X20.481 Y26.015
X20.44 Y25.965
X20.395 Y25.918
X20.27 Y25.793
X20.214 Y25.74
G3 X20.353 Y25.482 I0.098 J-0.114
G1 X24.551 Y26.707
X24.593 Y26.726
X24.627 Y26.758
X24.65 Y26.797
X24.659 Y26.842
X24.655 Y26.888
X24.637 Y26.93
G2 X23.905 Y30.453 I4.398 J2.751
X25.133 Y33.568 I7.378 J-1.109
X27.728 Y35.685 I4.916 J-3.377
X34.409 Y34.265 I2.323 J-5.498
X35.606 Y27.54 I-4.579 J-4.284
X33.199 Y24.685 I-5.81 J2.455
X29.547 Y23.905 I-2.863 J4.468
X25.37 Y26.01 I1.113 J7.405
X24.637 Y26.93 I3.665 J3.672
X24.78 Y28.698 I1.259 J0.788
G3 X25.527 Y30.307 I-2.363 J2.076
G1 X25.541 Y30.399
X25.55 Y30.45
X25.755 Y31.45
X25.779 Y31.546
X25.813 Y31.639
X25.892 Y31.827
X25.933 Y31.912
X25.982 Y31.993
X26.62 Y32.948
X26.667 Y33.012
X26.719 Y33.073
X26.819 Y33.181
X26.87 Y33.232
X26.925 Y33.28
X27.037 Y33.37
X27.111 Y33.424
X28.01 Y34.02
X28.089 Y34.068
X28.173 Y34.108
X28.361 Y34.187
X28.455 Y34.221
X28.553 Y34.246
X29.678 Y34.472
X29.76 Y34.486
X29.844 Y34.492
X30.031 Y34.498
X30.121 Y34.496
X30.211 Y34.487
X30.399 Y34.459
X30.45 Y34.45
X31.45 Y34.245
X31.546 Y34.221
X31.639 Y34.187
X31.827 Y34.108
X31.912 Y34.067
X31.993 Y34.018
X32.948 Y33.38
X33.012 Y33.333
X33.073 Y33.281
X33.181 Y33.181
X33.232 Y33.13
X33.28 Y33.075
X33.37 Y32.963
X33.424 Y32.889
X34.02 Y31.99
X34.068 Y31.911
X34.108 Y31.827
X34.187 Y31.639
X34.221 Y31.545
X34.246 Y31.447
X34.472 Y30.322
X34.486 Y30.24
X34.492 Y30.156
X34.498 Y29.969
X34.496 Y29.879
X34.487 Y29.789
X34.459 Y29.601
X34.45 Y29.55
X34.245 Y28.55
X34.221 Y28.454
X34.187 Y28.361
X34.108 Y28.173
X34.067 Y28.088
X34.018 Y28.007
X33.38 Y27.052
X33.333 Y26.988
X33.281 Y26.927
X33.181 Y26.819
X33.13 Y26.768
X33.075 Y26.72
X32.963 Y26.63
X32.889 Y26.576
X31.99 Y25.98
X31.911 Y25.932
X31.827 Y25.892
X31.639 Y25.813
X31.545 Y25.779
X31.447 Y25.754
X30.322 Y25.528
X30.24 Y25.514
X30.156 Y25.508
X29.969 Y25.502
X29.879 Y25.504
X29.789 Y25.513
X29.601 Y25.541
X29.55 Y25.55
X28.55 Y25.755
X28.454 Y25.779
X28.361 Y25.813
X28.173 Y25.892
X28.088 Y25.933
X28.007 Y25.982
X27.052 Y26.62
X26.988 Y26.667
X26.927 Y26.719
X26.819 Y26.819
X26.768 Y26.87
X26.72 Y26.925
X26.63 Y27.037
X26.578 Y27.108
X26.168 Y27.721
X26.162 Y27.731
X25.976 Y28.016
X25.931 Y28.093
X25.892 Y28.173
X25.813 Y28.361
X25.779 Y28.455
X25.754 Y28.553
X25.528 Y29.678
X25.514 Y29.76
X25.508 Y29.844
X25.502 Y30.031
X25.504 Y30.121
X25.513 Y30.211
X25.527 Y30.307
X25.528 Y30.346
X25.518 Y30.385
X25.499 Y30.419
X25.471 Y30.448
X25.437 Y30.468
X24.667 Y30.786
X24.635 Y30.805
X24.608 Y30.83
X23.297 Y32.435
X23.191 Y32.508
X23.163 Y32.517
X23.133 Y32.512
X23.11 Y32.493
X23.098 Y32.466
X23.102 Y32.436
X23.119 Y32.412
X23.146 Y32.398
G3 X23.729 Y35.188 Z-3.656 I0.292 J1.395 F333.
X23.146 Y32.398 Z-3.813 I-0.292 J-1.395
X23.729 Y35.188 Z-3.969 I0.292 J1.395
X23.146 Y32.398 Z-4.125 I-0.292 J-1.395
X23.729 Y35.188 Z-4.282 I0.292 J1.395
X23.146 Y32.398 Z-4.438 I-0.292 J-1.395
X24.666 Y33.072 Z-4.5 I0.292 J1.395
G2 X25.736 Y34.408 I5.146 J-3.021 F1000.
X32.46 Y35.605 I4.284 J-4.579
Y24.395 I-2.368 J-5.605
X27.697 Y24.375 I-2.405 J5.693
X24.315 Y27.728 I2.39 J5.792
X24.666 Y33.072 I5.497 J2.322
X26.243 Y33.702 I1.195 J-0.702
G3 X27.922 Y33.962 I0.558 J1.948
G1 X28.01 Y34.02
X28.089 Y34.068
X28.173 Y34.108
X28.361 Y34.187
X28.455 Y34.221
X28.553 Y34.246
X29.678 Y34.472
X29.76 Y34.486
X29.844 Y34.492
X30.031 Y34.498
X30.121 Y34.496
X30.211 Y34.487
X30.399 Y34.459
X30.45 Y34.45
X31.45 Y34.245
X31.546 Y34.221
X31.639 Y34.187
X31.827 Y34.108
X31.912 Y34.067
X31.993 Y34.018
X32.948 Y33.38
X33.012 Y33.333
X33.073 Y33.281
X33.181 Y33.181
X33.232 Y33.13
X33.28 Y33.075
X33.37 Y32.963
X33.424 Y32.889
X34.02 Y31.99
X34.068 Y31.911
X34.108 Y31.827
X34.187 Y31.639
X34.221 Y31.545
X34.246 Y31.447
X34.472 Y30.322
X34.486 Y30.24
X34.492 Y30.156
X34.498 Y29.969
X34.496 Y29.879
X34.487 Y29.789
X34.459 Y29.601
X34.45 Y29.55
X34.245 Y28.55
X34.221 Y28.454
X34.187 Y28.361
X34.108 Y28.173
X34.067 Y28.088
X34.018 Y28.007
X33.38 Y27.052
X33.333 Y26.988
X33.281 Y26.927
X33.181 Y26.819
X33.13 Y26.768
X33.075 Y26.72
X32.963 Y26.63
X32.889 Y26.576
X31.99 Y25.98
X31.911 Y25.932
X31.827 Y25.892
X31.639 Y25.813
X31.545 Y25.779
X31.447 Y25.754
X30.322 Y25.528
X30.24 Y25.514
X30.156 Y25.508
X29.969 Y25.502
X29.879 Y25.504
X29.789 Y25.513
X29.601 Y25.541
X29.55 Y25.55
X28.55 Y25.755
X28.454 Y25.779
X28.361 Y25.813
X28.173 Y25.892
X28.088 Y25.933
X28.007 Y25.982
X27.052 Y26.62
X26.988 Y26.667
X26.927 Y26.719
X26.819 Y26.819
X26.768 Y26.87
X26.72 Y26.925
X26.63 Y27.037
X26.578 Y27.108
X26.168 Y27.721
X26.162 Y27.731
X25.976 Y28.016
X25.931 Y28.093
X25.892 Y28.173
X25.813 Y28.361
X25.779 Y28.455
X25.754 Y28.553
X25.528 Y29.678
X25.514 Y29.76
X25.508 Y29.844
X25.502 Y30.031
X25.504 Y30.121
X25.513 Y30.211
X25.541 Y30.399
X25.55 Y30.45
X25.755 Y31.45
X25.779 Y31.546
X25.813 Y31.639
X25.892 Y31.827
X25.933 Y31.912
X25.982 Y31.993
X26.62 Y32.948
X26.667 Y33.012
X26.719 Y33.073
X26.819 Y33.181
X26.87 Y33.232
X26.925 Y33.28
X27.037 Y33.37
X27.111 Y33.424
X27.922 Y33.962
X27.954 Y33.991
X30.908 Y37.532
X30.932 Y37.574
X30.942 Y37.621
X30.937 Y37.668
X30.917 Y37.712
G2 X30.406 Y38.616 I5.758 J3.849
G3 X29.592 Y38.617 I-0.407 J-0.193
G2 X22.752 Y34.658 I-6.298 J2.993
G3 X22.342 Y33.948 I-0.033 J-0.454
G2 X22.334 Y26.044 I-5.799 J-3.946
G3 X22.742 Y25.341 I0.37 J-0.255
G2 X29.594 Y21.384 I0.582 J-6.902
G3 X30.408 Y21.383 I0.407 J0.193
G2 X37.248 Y25.342 I6.298 J-2.993
G3 X37.658 Y26.052 I0.033 J0.454
G2 X37.666 Y33.956 I5.799 J3.946
G3 X37.258 Y34.659 I-0.37 J0.255
G2 X30.917 Y37.712 I-0.582 J6.902
X30.9 Y39.178 I1.117 J0.746
G3 X31.204 Y40.613 I-1.771 J1.125
G1 X31.019 Y41.853
X31.01 Y41.93
X31.003 Y42.034
X31. Y42.105
X30.997 Y51.857
X30.922 Y52.311
X30.789 Y52.573
X30.573 Y52.789
X30.309 Y52.923
X30. Y52.974
X29.691 Y52.923
X29.427 Y52.789
X29.211 Y52.573
X29.078 Y52.311
X29.003 Y51.857
X28.997 Y42.053
X28.995 Y41.982
X28.987 Y41.911
X28.836 Y40.859
X28.833 Y40.839
X28.792 Y40.589
X28.767 Y40.477
X28.732 Y40.352
X28.697 Y40.252
X28.647 Y40.127
X28.623 Y40.072
X28.126 Y39.027
X28.067 Y38.92
X27.954 Y38.741
X27.915 Y38.685
X27.873 Y38.631
X27.64 Y38.356
X27.607 Y38.318
X26.992 Y37.659
X26.918 Y37.588
X26.76 Y37.45
X26.706 Y37.406
X26.648 Y37.366
X26.337 Y37.163
X26.286 Y37.132
X25.494 Y36.681
X25.41 Y36.638
X25.208 Y36.547
X25.1 Y36.506
X24.902 Y36.443
X24.822 Y36.421
X24.222 Y36.284
X24.198 Y36.279
X23.635 Y36.165
X23.56 Y36.153
X23.484 Y36.146
X23.234 Y36.134
X23.114 Y36.136
X22.426 Y36.187
X22.401 Y36.189
X21.838 Y36.245
X21.762 Y36.255
X21.688 Y36.271
X21.5 Y36.32
X21.381 Y36.358
X20.256 Y36.804
X20.185 Y36.835
X20.06 Y36.896
X19.999 Y36.929
X11.567 Y41.794
X11.16 Y41.95
X10.848 Y41.969
X10.552 Y41.89
X10.29 Y41.719
X10.108 Y41.494
X9.993 Y41.196
X9.978 Y40.91
X10.06 Y40.598
X10.223 Y40.347
X10.567 Y40.069
X19.054 Y35.162
X19.115 Y35.125
X19.172 Y35.083
X20.117 Y34.34
X20.162 Y34.302
X20.293 Y34.187
X20.36 Y34.121
X20.419 Y34.058
X20.498 Y33.962
X20.809 Y33.534
X20.826 Y33.509
X21.238 Y32.903
X21.295 Y32.81
X21.403 Y32.605
X21.454 Y32.494
X21.506 Y32.358
X21.527 Y32.299
X21.859 Y31.237
X21.885 Y31.137
X21.923 Y30.95
X21.94 Y30.837
X21.961 Y30.587
X21.965 Y30.5
Y29.5
X21.961 Y29.413
X21.94 Y29.163
X21.932 Y29.099
X21.92 Y29.035
X21.865 Y28.785
X21.842 Y28.699
X21.526 Y27.698
X21.499 Y27.625
X21.426 Y27.444
X21.376 Y27.337
X21.288 Y27.178
X21.235 Y27.092
X20.608 Y26.182
X20.577 Y26.14
X20.481 Y26.015
X20.398 Y25.921
X20.274 Y25.796
X20.185 Y25.716
X19.23 Y24.959
X19.164 Y24.911
X19.054 Y24.838
X18.999 Y24.803
X10.567 Y19.931
X10.223 Y19.652
X10.06 Y19.402
X9.978 Y19.09
X9.993 Y18.804
X10.108 Y18.506
X10.29 Y18.281
X10.544 Y18.115
X10.759 Y18.053
X10.846 Y18.031
X11.156 Y18.05
X11.607 Y18.226
X20.062 Y23.105
X20.124 Y23.138
X20.189 Y23.167
X21.127 Y23.543
X21.15 Y23.552
X21.463 Y23.668
X21.537 Y23.693
X21.613 Y23.711
X21.801 Y23.749
X21.915 Y23.766
X22.915 Y23.85
X22.947 Y23.852
X23.197 Y23.865
X23.312
X23.5 Y23.853
X23.568 Y23.846
X23.635 Y23.835
X24.198 Y23.721
X24.222 Y23.716
X24.822 Y23.579
X24.914 Y23.553
X25.162 Y23.471
X25.274 Y23.426
X25.426 Y23.354
X25.494 Y23.319
X26.286 Y22.868
X26.337 Y22.837
X26.648 Y22.634
X26.713 Y22.588
X26.774 Y22.537
X26.987 Y22.344
X27.052 Y22.28
X27.737 Y21.534
X27.786 Y21.475
X27.927 Y21.296
X27.966 Y21.243
X28.002 Y21.187
X28.107 Y21.007
X28.15 Y20.927
X28.623 Y19.927
X28.657 Y19.846
X28.727 Y19.659
X28.755 Y19.569
X28.772 Y19.507
X28.795 Y19.397
X28.981 Y18.147
X28.99 Y18.07
X28.997 Y17.966
X29. Y17.895
X29.003 Y8.143
X29.078 Y7.689
X29.211 Y7.427
X29.427 Y7.211
X29.691 Y7.077
X30. Y7.026
X30.309 Y7.077
X30.573 Y7.211
X30.789 Y7.427
X30.922 Y7.689
X30.997 Y8.143
X31.003 Y17.947
X31.005 Y18.018
X31.013 Y18.089
X31.164 Y19.141
X31.167 Y19.161
X31.208 Y19.411
X31.233 Y19.523
X31.268 Y19.648
X31.303 Y19.748
X31.353 Y19.873
X31.377 Y19.928
X31.874 Y20.973
X31.933 Y21.08
X32.046 Y21.259
X32.085 Y21.315
X32.127 Y21.369
X32.36 Y21.644
X32.393 Y21.682
X33.008 Y22.341
X33.082 Y22.412
X33.24 Y22.55
X33.294 Y22.594
X33.352 Y22.634
X33.663 Y22.837
X33.714 Y22.868
X34.506 Y23.319
X34.59 Y23.362
X34.792 Y23.453
X34.9 Y23.494
X35.098 Y23.557
X35.178 Y23.579
X35.778 Y23.716
X35.802 Y23.721
X36.365 Y23.835
X36.44 Y23.847
X36.516 Y23.854
X36.766 Y23.866
X36.886 Y23.864
X37.574 Y23.813
X37.599 Y23.811
X38.162 Y23.755
X38.238 Y23.745
X38.312 Y23.729
X38.5 Y23.68
X38.619 Y23.642
X39.744 Y23.196
X39.815 Y23.165
X39.94 Y23.104
X40.001 Y23.071
X48.433 Y18.206
X48.84 Y18.05
X49.152 Y18.031
X49.448 Y18.11
X49.71 Y18.281
X49.892 Y18.506
X50.007 Y18.804
X50.022 Y19.09
X49.94 Y19.402
X49.777 Y19.653
X49.433 Y19.931
X40.946 Y24.838
X40.885 Y24.875
X40.828 Y24.917
X39.883 Y25.66
X39.838 Y25.698
X39.707 Y25.813
X39.64 Y25.879
X39.581 Y25.942
X39.502 Y26.038
X39.191 Y26.466
X39.174 Y26.491
X38.762 Y27.097
X38.705 Y27.19
X38.597 Y27.395
X38.546 Y27.506
X38.494 Y27.642
X38.474 Y27.701
X38.141 Y28.763
X38.115 Y28.863
X38.077 Y29.05
X38.06 Y29.163
X38.039 Y29.413
X38.035 Y29.5
Y30.5
X38.039 Y30.587
X38.06 Y30.837
X38.068 Y30.901
X38.08 Y30.965
X38.135 Y31.215
X38.158 Y31.301
X38.474 Y32.302
X38.501 Y32.375
X38.574 Y32.556
X38.624 Y32.663
X38.712 Y32.822
X38.765 Y32.908
X39.392 Y33.818
X39.423 Y33.86
X39.519 Y33.985
X39.602 Y34.079
X39.726 Y34.204
X39.815 Y34.284
X40.77 Y35.041
X40.836 Y35.089
X40.946 Y35.162
X41.001 Y35.197
X49.433 Y40.069
X49.777 Y40.348
X49.94 Y40.598
X50.022 Y40.91
X50.007 Y41.196
X49.892 Y41.494
X49.71 Y41.719
X49.456 Y41.885
X49.241 Y41.947
X49.154 Y41.969
X48.844 Y41.95
X48.393 Y41.774
X39.938 Y36.895
X39.876 Y36.862
X39.811 Y36.833
X38.873 Y36.457
X38.85 Y36.448
X38.537 Y36.332
X38.463 Y36.307
X38.387 Y36.289
X38.199 Y36.251
X38.085 Y36.234
X37.085 Y36.15
X37.053 Y36.148
X36.803 Y36.135
X36.688
X36.5 Y36.147
X36.432 Y36.154
X36.365 Y36.165
X35.802 Y36.279
X35.778 Y36.284
X35.178 Y36.421
X35.086 Y36.447
X34.838 Y36.529
X34.726 Y36.574
X34.574 Y36.646
X34.506 Y36.681
X33.714 Y37.132
X33.663 Y37.163
X33.352 Y37.366
X33.287 Y37.412
X33.226 Y37.463
X33.013 Y37.656
X32.948 Y37.72
X32.263 Y38.466
X32.214 Y38.525
X32.073 Y38.704
X32.034 Y38.757
X31.998 Y38.813
X31.893 Y38.993
X31.85 Y39.073
X31.377 Y40.073
X31.343 Y40.154
X31.273 Y40.341
X31.245 Y40.431
X31.228 Y40.493
X31.205 Y40.603
X31.204 Y40.613
G3 X30.906 Y40.596 I-0.148 J-0.022
G1 X30.837 Y38.443
X30.828 Y38.398
X30.808 Y38.359
X30.776 Y38.327
X30.736 Y38.306
X30.692 Y38.298
X30.647 Y38.303
G3 X29.889 Y35.555 Z-4.656 I-0.379 J-1.374 F333.
X30.647 Y38.303 Z-4.813 I0.379 J1.374
X29.889 Y35.555 Z-4.969 I-0.379 J-1.374
X30.647 Y38.303 Z-5.125 I0.379 J1.374
X29.889 Y35.555 Z-5.282 I-0.379 J-1.374
X30.647 Y38.303 Z-5.438 I0.379 J1.374
X29.087 Y37.726 Z-5.5 I-0.379 J-1.374
G2 X22.756 Y34.657 I-5.811 J3.923 F1000.
G3 X22.345 Y33.945 I-0.033 J-0.455
G2 Y26.055 I-5.811 J-3.945
G3 X22.756 Y25.343 I0.378 J-0.256
G2 X29.591 Y21.396 I0.506 J-7.015
G3 X30.409 I0.409 J0.197
G2 X37.244 Y25.343 I6.316 J-3.045
G3 X37.655 Y26.055 I0.033 J0.455
G2 Y33.945 I5.811 J3.945
G3 X37.244 Y34.657 I-0.378 J0.256
G2 X30.409 Y38.604 I-0.506 J7.015
G3 X29.591 I-0.409 J-0.197
G2 X29.087 Y37.726 I-6.316 J3.045
X27.659 Y37.22 I-1.057 J0.713
G3 X26.153 Y37.054 I-0.559 J-1.84
G1 X25.492 Y36.68
X25.41 Y36.638
X25.208 Y36.547
X25.107 Y36.508
X24.908 Y36.443
X24.823 Y36.42
X24.224 Y36.282
X24.194 Y36.275
X23.631 Y36.164
X23.56 Y36.153
X23.488 Y36.146
X23.238 Y36.134
X23.115 Y36.135
X22.427 Y36.185
X22.397 Y36.187
X21.835 Y36.245
X21.762 Y36.255
X21.691 Y36.27
X21.503 Y36.318
X21.441 Y36.336
X21.381 Y36.358
X20.255 Y36.804
X20.185 Y36.835
X20.06 Y36.896
X19.999 Y36.929
X11.567 Y41.794
X11.16 Y41.95
X10.848 Y41.969
X10.552 Y41.89
X10.29 Y41.719
X10.108 Y41.494
X9.993 Y41.196
X9.978 Y40.91
X10.06 Y40.598
X10.223 Y40.347
X10.567 Y40.069
X19.055 Y35.162
X19.111 Y35.127
X19.165 Y35.089
X19.61 Y34.746
X19.624 Y34.734
X20.19 Y34.281
X20.278 Y34.202
X20.401 Y34.077
X20.45 Y34.023
X20.495 Y33.965
X20.806 Y33.54
X20.826 Y33.512
X21.24 Y32.902
X21.298 Y32.805
X21.406 Y32.6
X21.454 Y32.494
X21.506 Y32.358
X21.525 Y32.303
X21.843 Y31.303
X21.869 Y31.208
X21.922 Y30.958
X21.94 Y30.837
X21.962 Y30.587
X21.965 Y30.5
Y29.5
X21.962 Y29.413
X21.94 Y29.163
X21.922 Y29.042
X21.869 Y28.792
X21.843 Y28.697
X21.525 Y27.697
X21.499 Y27.625
X21.426 Y27.444
X21.379 Y27.343
X21.292 Y27.183
X21.24 Y27.098
X20.792 Y26.438
X20.77 Y26.406
X20.493 Y26.031
X20.449 Y25.976
X20.401 Y25.923
X20.278 Y25.798
X20.186 Y25.716
X19.23 Y24.959
X19.165 Y24.911
X19.054 Y24.838
X18.999 Y24.803
X10.567 Y19.931
X10.223 Y19.652
X10.06 Y19.402
X9.978 Y19.09
X9.993 Y18.804
X10.108 Y18.506
X10.29 Y18.281
X10.544 Y18.115
X10.759 Y18.053
X10.846 Y18.031
X11.156 Y18.05
X11.607 Y18.226
X20.062 Y23.105
X20.124 Y23.138
X20.188 Y23.166
X21.126 Y23.544
X21.138 Y23.549
X21.388 Y23.645
X21.503 Y23.682
X21.691 Y23.73
X21.762 Y23.745
X21.835 Y23.755
X22.397 Y23.813
X22.427 Y23.815
X23.115 Y23.865
X23.238 Y23.866
X23.488 Y23.854
X23.56 Y23.847
X23.631 Y23.836
X24.194 Y23.725
X24.224 Y23.718
X24.823 Y23.58
X24.919 Y23.553
X25.167 Y23.469
X25.274 Y23.426
X25.426 Y23.354
X25.492 Y23.32
X26.288 Y22.87
X26.348 Y22.833
X26.656 Y22.629
X26.714 Y22.588
X26.768 Y22.543
X26.976 Y22.358
X27.044 Y22.291
X27.612 Y21.68
X27.648 Y21.639
X27.878 Y21.363
X27.92 Y21.308
X27.959 Y21.25
X28.098 Y21.026
X28.149 Y20.933
X28.401 Y20.412
X28.408 Y20.395
X28.628 Y19.917
X28.647 Y19.873
X28.697 Y19.748
X28.719 Y19.688
X28.737 Y19.627
X28.786 Y19.44
X28.809 Y19.329
X28.987 Y18.089
X28.995 Y18.018
X28.997 Y17.947
X29.003 Y8.143
X29.078 Y7.689
X29.211 Y7.427
X29.427 Y7.211
X29.691 Y7.077
X30. Y7.026
X30.309 Y7.077
X30.573 Y7.211
X30.789 Y7.427
X30.922 Y7.689
X30.997 Y8.143
X31.003 Y17.947
X31.005 Y18.018
X31.013 Y18.089
X31.191 Y19.329
X31.214 Y19.44
X31.263 Y19.627
X31.281 Y19.688
X31.303 Y19.748
X31.353 Y19.873
X31.372 Y19.917
X31.602 Y20.417
X31.61 Y20.433
X31.851 Y20.933
X31.902 Y21.026
X32.041 Y21.25
X32.08 Y21.308
X32.122 Y21.363
X32.352 Y21.639
X32.388 Y21.68
X32.956 Y22.291
X33.024 Y22.358
X33.232 Y22.543
X33.286 Y22.588
X33.344 Y22.629
X33.652 Y22.833
X33.712 Y22.87
X34.508 Y23.32
X34.59 Y23.362
X34.792 Y23.453
X34.893 Y23.492
X35.092 Y23.557
X35.177 Y23.58
X35.776 Y23.718
X35.806 Y23.725
X36.369 Y23.836
X36.44 Y23.847
X36.512 Y23.854
X36.762 Y23.866
X36.885 Y23.865
X37.573 Y23.815
X37.603 Y23.813
X38.165 Y23.755
X38.238 Y23.745
X38.309 Y23.73
X38.497 Y23.682
X38.559 Y23.664
X38.619 Y23.642
X39.745 Y23.196
X39.815 Y23.165
X39.94 Y23.104
X40.001 Y23.071
X48.433 Y18.206
X48.84 Y18.05
X49.152 Y18.031
X49.448 Y18.11
X49.71 Y18.281
X49.892 Y18.506
X50.007 Y18.804
X50.022 Y19.09
X49.94 Y19.402
X49.777 Y19.653
X49.433 Y19.931
X40.945 Y24.838
X40.889 Y24.873
X40.835 Y24.912
X40.39 Y25.255
X40.376 Y25.266
X39.81 Y25.719
X39.722 Y25.798
X39.599 Y25.923
X39.55 Y25.977
X39.505 Y26.035
X39.194 Y26.46
X39.174 Y26.488
X38.76 Y27.098
X38.702 Y27.195
X38.594 Y27.4
X38.546 Y27.506
X38.494 Y27.642
X38.475 Y27.697
X38.157 Y28.697
X38.131 Y28.792
X38.078 Y29.042
X38.06 Y29.163
X38.039 Y29.413
X38.035 Y29.5
Y30.5
X38.039 Y30.587
X38.06 Y30.837
X38.078 Y30.958
X38.131 Y31.208
X38.157 Y31.303
X38.475 Y32.303
X38.501 Y32.375
X38.574 Y32.556
X38.621 Y32.657
X38.708 Y32.817
X38.76 Y32.902
X39.208 Y33.562
X39.23 Y33.594
X39.507 Y33.969
X39.551 Y34.024
X39.599 Y34.077
X39.722 Y34.202
X39.814 Y34.284
X40.77 Y35.041
X40.835 Y35.089
X40.946 Y35.162
X41.001 Y35.197
X49.433 Y40.069
X49.777 Y40.348
X49.94 Y40.598
X50.022 Y40.91
X50.007 Y41.196
X49.892 Y41.494
X49.71 Y41.719
X49.456 Y41.885
X49.241 Y41.947
X49.154 Y41.969
X48.844 Y41.95
X48.393 Y41.774
X39.938 Y36.895
X39.876 Y36.862
X39.812 Y36.834
X38.874 Y36.456
X38.862 Y36.451
X38.612 Y36.355
X38.497 Y36.318
X38.309 Y36.27
X38.238 Y36.255
X38.165 Y36.245
X37.603 Y36.187
X37.573 Y36.185
X36.885 Y36.135
X36.762 Y36.134
X36.512 Y36.146
X36.44 Y36.153
X36.369 Y36.164
X35.806 Y36.275
X35.776 Y36.282
X35.177 Y36.42
X35.081 Y36.447
X34.833 Y36.531
X34.726 Y36.574
X34.574 Y36.646
X34.508 Y36.68
X33.712 Y37.13
X33.652 Y37.167
X33.344 Y37.371
X33.286 Y37.412
X33.232 Y37.457
X33.024 Y37.642
X32.956 Y37.709
X32.388 Y38.32
X32.352 Y38.361
X32.122 Y38.637
X32.08 Y38.692
X32.041 Y38.75
X31.902 Y38.974
X31.851 Y39.067
X31.599 Y39.588
X31.592 Y39.605
X31.372 Y40.083
X31.353 Y40.127
X31.303 Y40.252
X31.281 Y40.312
X31.263 Y40.373
X31.214 Y40.56
X31.191 Y40.671
X31.013 Y41.911
X31.005 Y41.982
X31.003 Y42.053
X30.997 Y51.857
X30.922 Y52.311
X30.789 Y52.573
X30.573 Y52.789
X30.309 Y52.923
X30. Y52.974
X29.691 Y52.923
X29.427 Y52.789
X29.211 Y52.573
X29.078 Y52.311
X29.003 Y51.857
X28.997 Y42.053
X28.995 Y41.982
X28.987 Y41.911
X28.809 Y40.671
X28.786 Y40.56
X28.737 Y40.373
X28.719 Y40.312
X28.697 Y40.252
X28.647 Y40.127
X28.628 Y40.083
X28.398 Y39.583
X28.39 Y39.567
X28.149 Y39.067
X28.098 Y38.974
X27.959 Y38.75
X27.92 Y38.692
X27.878 Y38.637
X27.648 Y38.361
X27.612 Y38.32
X27.044 Y37.709
X26.976 Y37.642
X26.768 Y37.457
X26.714 Y37.412
X26.656 Y37.371
X26.348 Y37.167
X26.288 Y37.13
X26.153 Y37.054
G3 X26.2 Y36.775 I0.074 J-0.131
G1 X29.976 Y36.102
X30.003 Y36.1
G2 X32.46 Y35.605 I0.017 J-6.27
Y24.395 I-2.368 J-5.605
X27.697 Y24.375 I-2.405 J5.693
X24.316 Y27.728 I2.39 J5.792
X25.736 Y34.408 I5.497 J2.322
X30.003 Y36.1 I4.284 J-4.579
X31.311 Y35.132 I0.004 J-1.364
G3 X32.281 Y33.826 I2.312 J0.702
G1 X32.948 Y33.38
X33.012 Y33.333
X33.073 Y33.281
X33.181 Y33.181
X33.232 Y33.13
X33.28 Y33.075
X33.37 Y32.963
X33.424 Y32.889
X34.02 Y31.99
X34.068 Y31.911
X34.108 Y31.827
X34.187 Y31.639
X34.221 Y31.545
X34.246 Y31.447
X34.472 Y30.322
X34.486 Y30.24
X34.492 Y30.156
X34.498 Y29.969
X34.496 Y29.879
X34.487 Y29.789
X34.459 Y29.601
X34.45 Y29.55
X34.245 Y28.55
X34.221 Y28.454
X34.187 Y28.361
X34.108 Y28.173
X34.067 Y28.088
X34.018 Y28.007
X33.38 Y27.052
X33.333 Y26.988
X33.281 Y26.927
X33.181 Y26.819
X33.13 Y26.768
X33.075 Y26.72
X32.963 Y26.63
X32.889 Y26.576
X31.99 Y25.98
X31.911 Y25.932
X31.827 Y25.892
X31.639 Y25.813
X31.545 Y25.779
X31.447 Y25.754
X30.322 Y25.528
X30.24 Y25.514
X30.156 Y25.508
X29.969 Y25.502
X29.879 Y25.504
X29.789 Y25.513
X29.601 Y25.541
X29.55 Y25.55
X28.55 Y25.755
X28.454 Y25.779
X28.361 Y25.813
X28.173 Y25.892
X28.088 Y25.933
X28.007 Y25.982
X27.052 Y26.62
X26.988 Y26.667
X26.927 Y26.719
X26.819 Y26.819
X26.768 Y26.87
X26.72 Y26.925
X26.63 Y27.037
X26.578 Y27.108
X26.168 Y27.721
X26.162 Y27.731
X25.976 Y28.016
X25.931 Y28.093
X25.892 Y28.173
X25.813 Y28.361
X25.779 Y28.455
X25.754 Y28.553
X25.528 Y29.678
X25.514 Y29.76
X25.508 Y29.844
X25.502 Y30.031
X25.504 Y30.121
X25.513 Y30.211
X25.541 Y30.399
X25.55 Y30.45
X25.755 Y31.45
X25.779 Y31.546
X25.813 Y31.639
X25.892 Y31.827
X25.933 Y31.912
X25.982 Y31.993
X26.62 Y32.948
X26.667 Y33.012
X26.719 Y33.073
X26.819 Y33.181
X26.87 Y33.232
X26.925 Y33.28
X27.037 Y33.37
X27.111 Y33.424
X28.01 Y34.02
X28.089 Y34.068
X28.173 Y34.108
X28.361 Y34.187
X28.455 Y34.221
X28.553 Y34.246
X29.678 Y34.472
X29.76 Y34.486
X29.844 Y34.492
X30.031 Y34.498
X30.121 Y34.496
X30.211 Y34.487
X30.399 Y34.459
X30.45 Y34.45
X31.45 Y34.245
X31.546 Y34.221
X31.639 Y34.187
X31.827 Y34.108
X31.912 Y34.067
X31.993 Y34.018
X32.281 Y33.826
X32.313 Y33.809
X32.349 Y33.801
X32.386 Y33.802
X32.421 Y33.812
X34.91 Y34.841
X34.942 Y34.85
X34.974 Y34.852
X35.007 Y34.847
X35.484 Y34.726
G3 X37.636 Y32.856 Z-5.656 I1.076 J-0.935 F333.
X35.484 Y34.726 Z-5.813 I-1.076 J0.935
X37.636 Y32.856 Z-5.969 I1.076 J-0.935
X35.484 Y34.726 Z-6.125 I-1.076 J0.935
X37.636 Y32.856 Z-6.282 I1.076 J-0.935
X35.484 Y34.726 Z-6.438 I-1.076 J0.935
X35.331 Y33.07 Z-6.5 I1.076 J-0.935
G2 X35.682 Y27.729 I-5.144 J-3.019 F1000.
X30.508 Y24.019 I-5.62 J2.375
X24.803 Y26.844 I-0.459 J6.247
X24.125 Y31.863 I4.941 J3.222
X27.542 Y35.602 I5.777 J-1.848
X34.262 Y34.406 I2.439 J-5.773
X35.331 Y33.07 I-4.075 J-4.356
X35.189 Y31.359 I-1.286 J-0.755
G3 X34.487 Y29.792 I2.426 J-2.028
G1 Y29.789
X34.459 Y29.601
X34.45 Y29.55
X34.245 Y28.55
X34.221 Y28.454
X34.187 Y28.361
X34.108 Y28.173
X34.067 Y28.088
X34.018 Y28.007
X33.38 Y27.052
X33.333 Y26.988
X33.281 Y26.927
X33.181 Y26.819
X33.13 Y26.768
X33.075 Y26.72
X32.963 Y26.63
X32.889 Y26.576
X31.99 Y25.98
X31.911 Y25.932
X31.827 Y25.892
X31.639 Y25.813
X31.545 Y25.779
X31.447 Y25.754
X30.322 Y25.528
X30.24 Y25.514
X30.156 Y25.508
X29.969 Y25.502
X29.879 Y25.504
X29.789 Y25.513
X29.601 Y25.541
X29.55 Y25.55
X28.55 Y25.755
X28.454 Y25.779
X28.361 Y25.813
X28.173 Y25.892
X28.088 Y25.933
X28.007 Y25.982
X27.052 Y26.62
X26.988 Y26.667
X26.927 Y26.719
X26.819 Y26.819
X26.768 Y26.87
X26.72 Y26.925
X26.63 Y27.037
X26.578 Y27.108
X26.168 Y27.721
X26.162 Y27.731
X25.976 Y28.016
X25.931 Y28.093
X25.892 Y28.173
X25.813 Y28.361
X25.779 Y28.455
X25.754 Y28.553
X25.528 Y29.678
X25.514 Y29.76
X25.508 Y29.844
X25.502 Y30.031
X25.504 Y30.121
X25.513 Y30.211
X25.541 Y30.399
X25.55 Y30.45
X25.755 Y31.45
X25.779 Y31.546
X25.813 Y31.639
X25.892 Y31.827
X25.933 Y31.912
X25.982 Y31.993
X26.62 Y32.948
X26.667 Y33.012
X26.719 Y33.073
X26.819 Y33.181
X26.87 Y33.232
X26.925 Y33.28
X27.037 Y33.37
X27.111 Y33.424
X28.01 Y34.02
X28.089 Y34.068
X28.173 Y34.108
X28.361 Y34.187
X28.455 Y34.221
X28.553 Y34.246
X29.678 Y34.472
X29.76 Y34.486
X29.844 Y34.492
X30.031 Y34.498
X30.121 Y34.496
X30.211 Y34.487
X30.399 Y34.459
X30.45 Y34.45
X31.45 Y34.245
X31.546 Y34.221
X31.639 Y34.187
X31.827 Y34.108
X31.912 Y34.067
X31.993 Y34.018
X32.948 Y33.38
X33.012 Y33.333
X33.073 Y33.281
X33.181 Y33.181
X33.232 Y33.13
X33.28 Y33.075
X33.37 Y32.963
X33.424 Y32.889
X34.02 Y31.99
X34.068 Y31.911
X34.108 Y31.827
X34.187 Y31.639
X34.221 Y31.545
X34.246 Y31.447
X34.472 Y30.322
X34.486 Y30.24
X34.492 Y30.156
X34.498 Y29.969
X34.496 Y29.88
X34.487 Y29.792
Y29.755
X34.495 Y29.718
X36.061 Y25.44
X36.084 Y25.398
X36.12 Y25.366
X36.165 Y25.346
X36.213 Y25.342
G2 X37.246 Y25.343 I0.522 J-7.007
G3 X37.658 Y26.054 I0.034 J0.455
G2 X37.657 Y33.946 I5.833 J3.946
G3 X37.246 Y34.659 I-0.379 J0.257
G2 X30.409 Y38.607 I-0.495 J7.038
G3 X29.591 I-0.409 J-0.198
G2 X22.754 Y34.657 I-6.326 J3.058
G3 X22.342 Y33.946 I-0.034 J-0.455
G2 X22.343 Y26.054 I-5.833 J-3.946
G3 X22.754 Y25.341 I0.379 J-0.257
G2 X29.591 Y21.393 I0.495 J-7.038
G3 X30.409 I0.409 J0.198
G2 X36.213 Y25.342 I6.326 J-3.058
X37.486 Y24.623 I0.098 J-1.314
G3 X38.585 Y23.656 I1.754 J0.886
G1 X38.62 Y23.643
X39.745 Y23.196
X39.815 Y23.165
X39.94 Y23.104
X40.001 Y23.071
X48.433 Y18.206
X48.84 Y18.05
X49.152 Y18.031
X49.448 Y18.11
X49.71 Y18.281
X49.892 Y18.506
X50.007 Y18.804
X50.022 Y19.09
X49.94 Y19.402
X49.777 Y19.653
X49.433 Y19.931
X40.945 Y24.838
X40.89 Y24.873
X40.837 Y24.911
X40.392 Y25.252
X40.375 Y25.265
X39.809 Y25.719
X39.719 Y25.801
X39.597 Y25.926
X39.55 Y25.977
X39.507 Y26.031
X39.196 Y26.453
X39.173 Y26.486
X38.758 Y27.099
X38.699 Y27.198
X38.593 Y27.403
X38.546 Y27.506
X38.494 Y27.642
X38.479 Y27.683
X38.312 Y28.184
X38.305 Y28.208
X38.152 Y28.708
X38.129 Y28.797
X38.077 Y29.047
X38.06 Y29.163
X38.039 Y29.413
X38.035 Y29.487
X38.028 Y29.987
Y30.013
X38.035 Y30.513
X38.039 Y30.587
X38.06 Y30.837
X38.077 Y30.953
X38.129 Y31.203
X38.152 Y31.292
X38.305 Y31.792
X38.314 Y31.821
X38.514 Y32.412
X38.545 Y32.491
X38.585 Y32.582
X38.619 Y32.653
X38.705 Y32.813
X38.758 Y32.901
X39.205 Y33.561
X39.23 Y33.597
X39.509 Y33.972
X39.551 Y34.025
X39.597 Y34.074
X39.719 Y34.199
X39.812 Y34.284
X40.658 Y34.955
X40.696 Y34.983
X40.917 Y35.142
X41.001 Y35.197
X49.433 Y40.069
X49.777 Y40.348
X49.94 Y40.598
X50.022 Y40.91
X50.007 Y41.196
X49.892 Y41.494
X49.71 Y41.719
X49.456 Y41.885
X49.241 Y41.947
X49.154 Y41.969
X48.844 Y41.95
X48.393 Y41.774
X39.938 Y36.895
X39.878 Y36.864
X39.817 Y36.836
X39.179 Y36.575
X39.163 Y36.569
X38.613 Y36.355
X38.494 Y36.317
X38.306 Y36.27
X38.238 Y36.255
X38.169 Y36.245
X37.606 Y36.186
X37.571 Y36.182
X36.883 Y36.134
X36.759 Y36.133
X36.509 Y36.147
X36.441 Y36.153
X36.373 Y36.163
X35.81 Y36.272
X35.774 Y36.28
X35.174 Y36.42
X35.078 Y36.447
X34.83 Y36.532
X34.726 Y36.574
X34.574 Y36.646
X34.51 Y36.678
X33.709 Y37.129
X33.64 Y37.171
X33.337 Y37.376
X33.284 Y37.414
X33.234 Y37.455
X33.024 Y37.64
X32.954 Y37.709
X32.386 Y38.32
X32.339 Y38.373
X32.081 Y38.694
X32.042 Y38.746
X32.006 Y38.801
X31.896 Y38.98
X31.85 Y39.066
X31.6 Y39.583
X31.586 Y39.612
X31.316 Y40.22
X31.287 Y40.293
X31.264 Y40.369
X31.214 Y40.556
X31.191 Y40.67
X31.018 Y41.857
X31.01 Y41.93
X31.003 Y42.034
X31. Y42.105
X30.997 Y51.857
X30.922 Y52.311
X30.789 Y52.573
X30.573 Y52.789
X30.309 Y52.923
X30. Y52.974
X29.691 Y52.923
X29.427 Y52.789
X29.211 Y52.573
X29.078 Y52.311
X29.003 Y51.857
X28.997 Y42.053
X28.995 Y41.983
X28.988 Y41.913
X28.839 Y40.861
X28.835 Y40.834
X28.792 Y40.584
X28.767 Y40.472
X28.73 Y40.347
X28.709 Y40.282
X28.683 Y40.219
X28.405 Y39.594
X28.392 Y39.566
X28.15 Y39.066
X28.097 Y38.97
X27.956 Y38.745
X27.92 Y38.692
X27.881 Y38.641
X27.654 Y38.365
X27.614 Y38.32
X27.046 Y37.709
X26.976 Y37.64
X26.766 Y37.455
X26.716 Y37.414
X26.663 Y37.376
X26.36 Y37.171
X26.291 Y37.129
X25.49 Y36.678
X25.41 Y36.638
X25.208 Y36.547
X25.15 Y36.523
X25.089 Y36.503
X24.791 Y36.412
X24.722 Y36.393
X24.222 Y36.279
X24.19 Y36.272
X23.627 Y36.163
X23.551 Y36.152
X23.475 Y36.146
X23.162 Y36.134
X23.05 Y36.136
X22.425 Y36.183
X22.394 Y36.186
X21.831 Y36.245
X21.762 Y36.255
X21.694 Y36.27
X21.506 Y36.317
X21.443 Y36.335
X21.38 Y36.357
X20.255 Y36.804
X20.185 Y36.835
X20.06 Y36.896
X19.999 Y36.929
X11.567 Y41.794
X11.16 Y41.95
X10.848 Y41.969
X10.552 Y41.89
X10.29 Y41.719
X10.108 Y41.494
X9.993 Y41.196
X9.978 Y40.91
X10.06 Y40.598
X10.223 Y40.347
X10.567 Y40.069
X19.055 Y35.162
X19.11 Y35.128
X19.163 Y35.089
X19.608 Y34.748
X19.625 Y34.735
X20.192 Y34.281
X20.281 Y34.199
X20.403 Y34.074
X20.45 Y34.023
X20.493 Y33.969
X20.804 Y33.547
X20.827 Y33.514
X21.242 Y32.901
X21.301 Y32.802
X21.407 Y32.597
X21.454 Y32.494
X21.506 Y32.358
X21.521 Y32.317
X21.688 Y31.816
X21.695 Y31.792
X21.848 Y31.292
X21.871 Y31.203
X21.923 Y30.953
X21.94 Y30.837
X21.962 Y30.587
X21.965 Y30.513
X21.972 Y30.013
Y29.987
X21.965 Y29.487
X21.962 Y29.413
X21.94 Y29.163
X21.923 Y29.047
X21.871 Y28.797
X21.848 Y28.708
X21.695 Y28.208
X21.686 Y28.179
X21.486 Y27.588
X21.455 Y27.509
X21.415 Y27.418
X21.381 Y27.347
X21.295 Y27.187
X21.242 Y27.099
X20.795 Y26.439
X20.77 Y26.403
X20.49 Y26.028
X20.449 Y25.975
X20.403 Y25.926
X20.281 Y25.801
X20.188 Y25.716
X19.342 Y25.045
X19.304 Y25.017
X19.083 Y24.858
X18.999 Y24.803
X10.567 Y19.931
X10.223 Y19.652
X10.06 Y19.402
X9.978 Y19.09
X9.993 Y18.804
X10.108 Y18.506
X10.29 Y18.281
X10.544 Y18.115
X10.759 Y18.053
X10.846 Y18.031
X11.156 Y18.05
X11.607 Y18.226
X20.062 Y23.105
X20.122 Y23.136
X20.183 Y23.164
X20.821 Y23.425
X20.837 Y23.431
X21.387 Y23.645
X21.506 Y23.683
X21.694 Y23.73
X21.762 Y23.745
X21.831 Y23.755
X22.394 Y23.814
X22.429 Y23.818
X23.117 Y23.866
X23.241 Y23.867
X23.491 Y23.853
X23.559 Y23.847
X23.627 Y23.837
X24.19 Y23.728
X24.226 Y23.72
X24.826 Y23.58
X24.922 Y23.553
X25.17 Y23.468
X25.274 Y23.426
X25.426 Y23.354
X25.49 Y23.322
X26.291 Y22.871
X26.36 Y22.829
X26.663 Y22.624
X26.716 Y22.586
X26.766 Y22.545
X26.976 Y22.36
X27.046 Y22.291
X27.614 Y21.68
X27.661 Y21.627
X27.919 Y21.306
X27.958 Y21.254
X27.994 Y21.199
X28.104 Y21.02
X28.15 Y20.934
X28.4 Y20.417
X28.414 Y20.388
X28.684 Y19.78
X28.713 Y19.707
X28.736 Y19.631
X28.786 Y19.444
X28.809 Y19.33
X28.982 Y18.143
X28.99 Y18.07
X28.997 Y17.966
X29. Y17.895
X29.003 Y8.143
X29.078 Y7.689
X29.211 Y7.427
X29.427 Y7.211
X29.691 Y7.077
X30. Y7.026
X30.309 Y7.077
X30.573 Y7.211
X30.789 Y7.427
X30.922 Y7.689
X30.997 Y8.143
X31.003 Y17.947
X31.005 Y18.017
X31.012 Y18.087
X31.161 Y19.139
X31.165 Y19.166
X31.208 Y19.416
X31.233 Y19.528
X31.27 Y19.653
X31.291 Y19.718
X31.317 Y19.781
X31.595 Y20.406
X31.608 Y20.434
X31.85 Y20.934
X31.903 Y21.03
X32.044 Y21.255
X32.08 Y21.308
X32.119 Y21.359
X32.346 Y21.635
X32.386 Y21.68
X32.954 Y22.291
X33.024 Y22.36
X33.234 Y22.545
X33.284 Y22.586
X33.337 Y22.624
X33.64 Y22.829
X33.709 Y22.871
X34.51 Y23.322
X34.59 Y23.362
X34.792 Y23.453
X34.85 Y23.477
X34.911 Y23.497
X35.209 Y23.588
X35.278 Y23.607
X35.778 Y23.721
X35.81 Y23.728
X36.373 Y23.837
X36.449 Y23.848
X36.525 Y23.854
X36.838 Y23.866
X36.95 Y23.864
X37.575 Y23.817
X37.606 Y23.814
X38.169 Y23.755
X38.238 Y23.745
X38.306 Y23.73
X38.494 Y23.683
X38.585 Y23.656
X38.613 Y23.654
X38.638 Y23.666
X38.654 Y23.689
X38.656 Y23.718
X38.644 Y23.743
X38.504 Y23.901
X35.1 Y26.181
X34.879 Y26.283
X34.853 Y26.288
X34.827 Y26.28
X34.808 Y26.262
X34.799 Y26.236
X34.804 Y26.21
G3 X37.43 Y27.317 Z-6.656 I1.313 J0.553 F333.
X34.804 Y26.21 Z-6.813 I-1.313 J-0.553
X37.43 Y27.317 Z-6.969 I1.313 J0.553
X34.804 Y26.21 Z-7.125 I-1.313 J-0.553
X37.43 Y27.317 Z-7.282 I1.313 J0.553
X34.804 Y26.21 Z-7.438 I-1.313 J-0.553
X36.222 Y25.342 Z-7.5 I1.313 J0.553
G2 X37.244 Y25.344 I0.521 J-7.021 F1000.
G3 X37.657 Y26.055 I0.034 J0.456
G2 X37.656 Y33.946 I5.859 J3.947
G3 X37.245 Y34.657 I-0.377 J0.256
G2 X30.409 Y38.605 I-0.517 J6.996
G3 X29.591 I-0.409 J-0.199
G2 X22.756 Y34.656 I-6.334 J3.073
G3 X22.343 Y33.945 I-0.034 J-0.456
G2 X22.344 Y26.054 I-5.858 J-3.947
G3 X22.755 Y25.343 I0.377 J-0.256
G2 X29.591 Y21.395 I0.517 J-6.996
G3 X30.409 I0.409 J0.199
G2 X36.222 Y25.342 I6.334 J-3.073
X37.495 Y24.623 I0.097 J-1.314
G3 X38.59 Y23.654 I1.767 J0.894
G1 X38.62 Y23.643
X39.745 Y23.196
X39.815 Y23.165
X39.94 Y23.104
X40.001 Y23.071
X48.433 Y18.206
X48.84 Y18.05
X49.152 Y18.031
X49.448 Y18.11
X49.71 Y18.281
X49.892 Y18.506
X50.007 Y18.804
X50.022 Y19.09
X49.94 Y19.402
X49.777 Y19.653
X49.433 Y19.931
X40.945 Y24.838
X40.89 Y24.872
X40.838 Y24.91
X40.393 Y25.25
X40.375 Y25.264
X39.807 Y25.72
X39.716 Y25.803
X39.595 Y25.928
X39.55 Y25.977
X39.509 Y26.028
X39.198 Y26.447
X39.172 Y26.485
X38.756 Y27.101
X38.722 Y27.156
X38.691 Y27.214
X38.566 Y27.464
X38.539 Y27.523
X38.516 Y27.585
X38.313 Y28.175
X38.301 Y28.211
X38.15 Y28.711
X38.128 Y28.8
X38.077 Y29.05
X38.06 Y29.163
X38.039 Y29.413
X38.035 Y29.482
X38.026 Y29.982
Y30.018
X38.035 Y30.518
X38.039 Y30.587
X38.06 Y30.837
X38.077 Y30.95
X38.128 Y31.2
X38.15 Y31.289
X38.301 Y31.789
X38.314 Y31.829
X38.535 Y32.464
X38.563 Y32.535
X38.596 Y32.603
X38.725 Y32.848
X38.782 Y32.943
X39.204 Y33.563
X39.231 Y33.6
X39.512 Y33.975
X39.551 Y34.025
X39.594 Y34.072
X39.716 Y34.197
X39.762 Y34.242
X39.812 Y34.284
X40.658 Y34.955
X40.695 Y34.983
X40.917 Y35.142
X41.001 Y35.197
X49.433 Y40.069
X49.777 Y40.348
X49.94 Y40.598
X50.022 Y40.91
X50.007 Y41.196
X49.892 Y41.494
X49.71 Y41.719
X49.456 Y41.885
X49.241 Y41.947
X49.154 Y41.969
X48.844 Y41.95
X48.393 Y41.774
X39.938 Y36.895
X39.877 Y36.863
X39.814 Y36.835
X38.876 Y36.455
X38.858 Y36.448
X38.608 Y36.352
X38.491 Y36.315
X38.303 Y36.269
X38.238 Y36.255
X38.172 Y36.246
X37.61 Y36.184
X37.574 Y36.181
X36.949 Y36.135
X36.833 Y36.133
X36.521 Y36.146
X36.449 Y36.152
X36.377 Y36.163
X35.815 Y36.269
X35.77 Y36.278
X35.171 Y36.42
X35.078 Y36.447
X34.83 Y36.532
X34.726 Y36.574
X34.574 Y36.646
X34.52 Y36.673
X34.02 Y36.946
X34. Y36.958
X33.694 Y37.135
X33.63 Y37.175
X33.33 Y37.38
X33.235 Y37.455
X33.024 Y37.64
X32.951 Y37.711
X32.385 Y38.32
X32.338 Y38.374
X32.08 Y38.695
X32.008 Y38.797
X31.898 Y38.976
X31.849 Y39.064
X31.601 Y39.577
X31.585 Y39.61
X31.315 Y40.222
X31.287 Y40.293
X31.265 Y40.365
X31.214 Y40.553
X31.19 Y40.67
X31.018 Y41.858
X31.01 Y41.93
X31.003 Y42.034
X31. Y42.105
X30.997 Y51.857
X30.922 Y52.311
X30.789 Y52.573
X30.573 Y52.789
X30.309 Y52.923
X30. Y52.974
X29.691 Y52.923
X29.427 Y52.789
X29.211 Y52.573
X29.078 Y52.311
X29.003 Y51.857
X28.997 Y42.053
X28.995 Y41.988
X28.989 Y41.923
X28.917 Y41.371
X28.913 Y41.345
X28.794 Y40.595
X28.782 Y40.532
X28.766 Y40.471
X28.73 Y40.346
X28.709 Y40.283
X28.685 Y40.222
X28.408 Y39.597
X28.393 Y39.564
X28.151 Y39.064
X28.096 Y38.966
X27.954 Y38.742
X27.882 Y38.642
X27.655 Y38.366
X27.615 Y38.32
X27.049 Y37.711
X26.976 Y37.64
X26.765 Y37.455
X26.67 Y37.38
X26.37 Y37.175
X26.306 Y37.135
X26. Y36.958
X25.972 Y36.942
X25.369 Y36.619
X25.31 Y36.59
X25.248 Y36.564
X25.05 Y36.49
X24.989 Y36.469
X24.79 Y36.409
X24.722 Y36.391
X24.222 Y36.277
X24.185 Y36.269
X23.623 Y36.163
X23.551 Y36.152
X23.479 Y36.146
X23.167 Y36.133
X23.051 Y36.135
X22.426 Y36.181
X22.39 Y36.184
X21.828 Y36.246
X21.762 Y36.255
X21.697 Y36.269
X21.509 Y36.315
X21.444 Y36.334
X21.38 Y36.357
X20.255 Y36.804
X20.185 Y36.835
X20.06 Y36.896
X19.999 Y36.929
X11.567 Y41.794
X11.16 Y41.95
X10.848 Y41.969
X10.552 Y41.89
X10.29 Y41.719
X10.108 Y41.494
X9.993 Y41.196
X9.978 Y40.91
X10.06 Y40.598
X10.223 Y40.347
X10.567 Y40.069
X19.055 Y35.162
X19.11 Y35.128
X19.162 Y35.091
X19.607 Y34.75
X19.625 Y34.736
X20.193 Y34.28
X20.284 Y34.197
X20.406 Y34.072
X20.45 Y34.023
X20.491 Y33.972
X20.802 Y33.553
X20.828 Y33.516
X21.244 Y32.899
X21.278 Y32.844
X21.31 Y32.786
X21.434 Y32.536
X21.461 Y32.477
X21.484 Y32.415
X21.687 Y31.825
X21.699 Y31.789
X21.85 Y31.289
X21.872 Y31.2
X21.923 Y30.95
X21.94 Y30.837
X21.962 Y30.587
X21.965 Y30.518
X21.974 Y30.018
Y29.982
X21.965 Y29.482
X21.962 Y29.413
X21.94 Y29.163
X21.923 Y29.05
X21.872 Y28.8
X21.85 Y28.711
X21.699 Y28.211
X21.686 Y28.171
X21.465 Y27.536
X21.437 Y27.465
X21.404 Y27.397
X21.275 Y27.152
X21.218 Y27.057
X20.796 Y26.437
X20.769 Y26.4
X20.488 Y26.025
X20.449 Y25.975
X20.406 Y25.928
X20.284 Y25.803
X20.238 Y25.758
X20.188 Y25.716
X19.342 Y25.045
X19.305 Y25.017
X19.083 Y24.858
X18.999 Y24.803
X10.567 Y19.931
X10.223 Y19.652
X10.06 Y19.402
X9.978 Y19.09
X9.993 Y18.804
X10.108 Y18.506
X10.29 Y18.281
X10.544 Y18.115
X10.759 Y18.053
X10.846 Y18.031
X11.156 Y18.05
X11.607 Y18.226
X20.062 Y23.105
X20.123 Y23.137
X20.186 Y23.165
X21.124 Y23.545
X21.142 Y23.552
X21.392 Y23.648
X21.509 Y23.685
X21.697 Y23.731
X21.762 Y23.745
X21.828 Y23.754
X22.39 Y23.816
X22.426 Y23.819
X23.051 Y23.865
X23.167 Y23.867
X23.479 Y23.854
X23.551 Y23.848
X23.623 Y23.837
X24.185 Y23.731
X24.23 Y23.722
X24.829 Y23.58
X24.922 Y23.553
X25.17 Y23.468
X25.274 Y23.426
X25.426 Y23.354
X25.48 Y23.327
X25.98 Y23.054
X26. Y23.042
X26.306 Y22.865
X26.37 Y22.825
X26.67 Y22.62
X26.765 Y22.545
X26.976 Y22.36
X27.049 Y22.289
X27.615 Y21.68
X27.662 Y21.626
X27.92 Y21.305
X27.992 Y21.203
X28.102 Y21.024
X28.151 Y20.936
X28.399 Y20.423
X28.415 Y20.39
X28.685 Y19.778
X28.713 Y19.707
X28.735 Y19.635
X28.786 Y19.447
X28.81 Y19.33
X28.982 Y18.142
X28.99 Y18.07
X28.997 Y17.966
X29. Y17.895
X29.003 Y8.143
X29.078 Y7.689
X29.211 Y7.427
X29.427 Y7.211
X29.691 Y7.077
X30. Y7.026
X30.309 Y7.077
X30.573 Y7.211
X30.789 Y7.427
X30.922 Y7.689
X30.997 Y8.143
X31.003 Y17.947
X31.005 Y18.012
X31.011 Y18.077
X31.083 Y18.629
X31.087 Y18.655
X31.206 Y19.405
X31.218 Y19.468
X31.234 Y19.529
X31.27 Y19.654
X31.291 Y19.717
X31.315 Y19.778
X31.592 Y20.403
X31.607 Y20.436
X31.849 Y20.936
X31.904 Y21.034
X32.046 Y21.258
X32.118 Y21.358
X32.345 Y21.634
X32.385 Y21.68
X32.951 Y22.289
X33.024 Y22.36
X33.235 Y22.545
X33.33 Y22.62
X33.63 Y22.825
X33.694 Y22.865
X34. Y23.042
X34.028 Y23.058
X34.631 Y23.381
X34.69 Y23.41
X34.752 Y23.436
X34.95 Y23.51
X35.011 Y23.531
X35.21 Y23.591
X35.278 Y23.609
X35.778 Y23.723
X35.815 Y23.731
X36.377 Y23.837
X36.449 Y23.848
X36.521 Y23.854
X36.833 Y23.867
X36.949 Y23.865
X37.574 Y23.819
X37.61 Y23.816
X38.172 Y23.754
X38.238 Y23.745
X38.303 Y23.731
X38.491 Y23.685
X38.59 Y23.654
G3 X38.745 Y23.904 I0.051 J0.141
G1 X35.529 Y27.003
X35.492 Y27.029
X35.45 Y27.043
X35.405
X35.362 Y27.031
X35.325 Y27.006
X35.296 Y26.972
G2 X30.508 Y24.02 I-5.235 J3.132
X24.804 Y26.845 I-0.458 J6.246
X24.127 Y31.863 I4.94 J3.221
X27.542 Y35.601 I5.775 J-1.847
X34.261 Y34.405 I2.439 J-5.772
X35.681 Y27.73 I-4.074 J-4.355
X35.296 Y26.972 I-5.619 J2.374
X33.784 Y26.363 I-1.158 J0.693
G3 X32.175 Y26.103 I-0.518 J-1.905
G1 X31.99 Y25.98
X31.911 Y25.932
X31.827 Y25.892
X31.639 Y25.813
X31.545 Y25.779
X31.447 Y25.754
X30.322 Y25.528
X30.24 Y25.514
X30.156 Y25.508
X29.969 Y25.502
X29.879 Y25.504
X29.789 Y25.513
X29.601 Y25.541
X29.55 Y25.55
X28.55 Y25.755
X28.454 Y25.779
X28.361 Y25.813
X28.173 Y25.892
X28.088 Y25.933
X28.007 Y25.982
X27.052 Y26.62
X26.988 Y26.667
X26.927 Y26.719
X26.819 Y26.819
X26.768 Y26.87
X26.72 Y26.925
X26.63 Y27.037
X26.578 Y27.108
X26.168 Y27.721
X26.162 Y27.731
X25.976 Y28.016
X25.931 Y28.093
X25.892 Y28.173
X25.813 Y28.361
X25.779 Y28.455
X25.754 Y28.553
X25.528 Y29.678
X25.514 Y29.76
X25.508 Y29.844
X25.502 Y30.031
X25.504 Y30.121
X25.513 Y30.211
X25.541 Y30.399
X25.55 Y30.45
X25.755 Y31.45
X25.779 Y31.546
X25.813 Y31.639
X25.892 Y31.827
X25.933 Y31.912
X25.982 Y31.993
X26.62 Y32.948
X26.667 Y33.012
X26.719 Y33.073
X26.819 Y33.181
X26.87 Y33.232
X26.925 Y33.28
X27.037 Y33.37
X27.111 Y33.424
X28.01 Y34.02
X28.089 Y34.068
X28.173 Y34.108
X28.361 Y34.187
X28.455 Y34.221
X28.553 Y34.246
X29.678 Y34.472
X29.76 Y34.486
X29.844 Y34.492
X30.031 Y34.498
X30.121 Y34.496
X30.211 Y34.487
X30.399 Y34.459
X30.45 Y34.45
X31.45 Y34.245
X31.546 Y34.221
X31.639 Y34.187
X31.827 Y34.108
X31.912 Y34.067
X31.993 Y34.018
X32.948 Y33.38
X33.012 Y33.333
X33.073 Y33.281
X33.181 Y33.181
X33.232 Y33.13
X33.28 Y33.075
X33.37 Y32.963
X33.424 Y32.889
X34.02 Y31.99
X34.068 Y31.911
X34.108 Y31.827
X34.187 Y31.639
X34.221 Y31.545
X34.246 Y31.447
X34.472 Y30.322
X34.486 Y30.24
X34.492 Y30.156
X34.498 Y29.969
X34.496 Y29.879
X34.487 Y29.789
X34.459 Y29.601
X34.45 Y29.55
X34.245 Y28.55
X34.221 Y28.454
X34.187 Y28.361
X34.108 Y28.173
X34.067 Y28.088
X34.018 Y28.007
X33.38 Y27.052
X33.333 Y26.988
X33.281 Y26.927
X33.181 Y26.819
X33.13 Y26.768
X33.075 Y26.72
X32.963 Y26.63
X32.889 Y26.576
X32.175 Y26.103
X32.146 Y26.077
X32.124 Y26.045
X32.111 Y26.008
X32.108 Y25.969
X32.194 Y24.528
X32.189 Y24.48
X32.168 Y24.435
X31.279 Y23.118
X31.238 Y23.032
X31.232 Y23.003
X31.241 Y22.975
X31.261 Y22.955
X31.289 Y22.946
X31.318 Y22.951
X31.341 Y22.969
X31.352 Y22.996
X31.35 Y23.025
G3 X28.643 Y22.134 Z-7.656 I-1.354 J-0.445 F333.
X31.35 Y23.025 Z-7.813 I1.354 J0.445
X28.643 Y22.134 Z-7.969 I-1.354 J-0.445
X31.35 Y23.025 Z-8.125 I1.354 J0.445
X28.643 Y22.134 Z-8.282 I-1.354 J-0.445
X31.35 Y23.025 Z-8.438 I1.354 J0.445
X30.006 Y24.005 Z-8.5 I-1.354 J-0.445
G2 X24.805 Y26.846 I0.043 J6.261 F1000.
X24.128 Y31.863 I4.939 J3.221
X27.543 Y35.6 I5.774 J-1.847
X34.26 Y34.404 I2.438 J-5.771
X35.679 Y27.73 I-4.073 J-4.354
X30.508 Y24.021 I-5.618 J2.374
X30.006 Y24.005 I-0.458 J6.244
X28.785 Y24.883 I0.009 J1.3
G3 X27.868 Y26.075 I-2.223 J-0.762
G1 X27.052 Y26.62
X26.988 Y26.667
X26.927 Y26.719
X26.819 Y26.819
X26.768 Y26.87
X26.72 Y26.925
X26.63 Y27.037
X26.578 Y27.108
X26.168 Y27.721
X26.162 Y27.731
X25.976 Y28.016
X25.931 Y28.093
X25.892 Y28.173
X25.813 Y28.361
X25.779 Y28.455
X25.754 Y28.553
X25.528 Y29.678
X25.514 Y29.76
X25.508 Y29.844
X25.502 Y30.031
X25.504 Y30.121
X25.513 Y30.211
X25.541 Y30.399
X25.55 Y30.45
X25.755 Y31.45
X25.779 Y31.546
X25.813 Y31.639
X25.892 Y31.827
X25.933 Y31.912
X25.982 Y31.993
X26.62 Y32.948
X26.667 Y33.012
X26.719 Y33.073
X26.819 Y33.181
X26.87 Y33.232
X26.925 Y33.28
X27.037 Y33.37
X27.111 Y33.424
X28.01 Y34.02
X28.089 Y34.068
X28.173 Y34.108
X28.361 Y34.187
X28.455 Y34.221
X28.553 Y34.246
X29.678 Y34.472
X29.76 Y34.486
X29.844 Y34.492
X30.031 Y34.498
X30.121 Y34.496
X30.211 Y34.487
X30.399 Y34.459
X30.45 Y34.45
X31.45 Y34.245
X31.546 Y34.221
X31.639 Y34.187
X31.827 Y34.108
X31.912 Y34.067
X31.993 Y34.018
X32.948 Y33.38
X33.012 Y33.333
X33.073 Y33.281
X33.181 Y33.181
X33.232 Y33.13
X33.28 Y33.075
X33.37 Y32.963
X33.424 Y32.889
X34.02 Y31.99
X34.068 Y31.911
X34.108 Y31.827
X34.187 Y31.639
X34.221 Y31.545
X34.246 Y31.447
X34.472 Y30.322
X34.486 Y30.24
X34.492 Y30.156
X34.498 Y29.969
X34.496 Y29.879
X34.487 Y29.789
X34.459 Y29.601
X34.45 Y29.55
X34.245 Y28.55
X34.221 Y28.454
X34.187 Y28.361
X34.108 Y28.173
X34.067 Y28.088
X34.018 Y28.007
X33.38 Y27.052
X33.333 Y26.988
X33.281 Y26.927
X33.181 Y26.819
X33.13 Y26.768
X33.075 Y26.72
X32.963 Y26.63
X32.889 Y26.576
X31.99 Y25.98
X31.911 Y25.932
X31.827 Y25.892
X31.639 Y25.813
X31.545 Y25.779
X31.447 Y25.754
X30.322 Y25.528
X30.24 Y25.514
X30.156 Y25.508
X29.969 Y25.502
X29.879 Y25.504
X29.789 Y25.513
X29.601 Y25.541
X29.55 Y25.55
X28.55 Y25.755
X28.454 Y25.779
X28.361 Y25.813
X28.173 Y25.892
X28.088 Y25.933
X28.007 Y25.982
X27.868 Y26.075
G3 X27.645 Y25.895 I-0.083 J-0.125
G1 X29.07 Y22.3
X29.085 Y22.271
G2 X29.59 Y21.396 I-5.822 J-3.939
G3 X30.41 I0.41 J0.2
G2 X37.244 Y25.344 I6.345 J-3.095
G3 X37.655 Y26.055 I0.033 J0.455
G2 X36.437 Y30.001 I5.846 J3.964
X37.654 Y33.946 I6.943 J0.019
G3 X37.247 Y34.656 I-0.375 J0.257
G2 X30.41 Y38.604 I-0.51 J7.011
G3 X29.59 I-0.41 J-0.2
G2 X22.756 Y34.656 I-6.345 J3.095
G3 X22.345 Y33.945 I-0.033 J-0.455
G2 X23.563 Y29.999 I-5.846 J-3.964
X22.346 Y26.054 I-6.943 J-0.019
G3 X22.753 Y25.344 I0.375 J-0.257
G2 X29.085 Y22.271 I0.51 J-7.011
X29.091 Y20.809 I-1.087 J-0.735
G3 X28.803 Y19.376 I1.605 J-1.068
G1 X28.81 Y19.337
X28.914 Y18.649
X28.917 Y18.628
X28.989 Y18.076
X28.995 Y18.012
X28.997 Y17.947
X29.003 Y8.143
X29.078 Y7.689
X29.211 Y7.427
X29.427 Y7.211
X29.691 Y7.077
X30. Y7.026
X30.309 Y7.077
X30.573 Y7.211
X30.789 Y7.427
X30.922 Y7.689
X30.997 Y8.143
X31.003 Y17.947
X31.005 Y18.012
X31.011 Y18.076
X31.083 Y18.628
X31.086 Y18.649
X31.19 Y19.337
X31.214 Y19.45
X31.266 Y19.638
X31.287 Y19.708
X31.314 Y19.776
X31.589 Y20.401
X31.606 Y20.438
X31.849 Y20.938
X31.905 Y21.036
X32.047 Y21.26
X32.118 Y21.358
X32.345 Y21.634
X32.384 Y21.679
X32.948 Y22.287
X33.021 Y22.358
X33.234 Y22.545
X33.327 Y22.617
X33.625 Y22.823
X33.688 Y22.863
X33.996 Y23.043
X34.031 Y23.062
X34.634 Y23.383
X34.692 Y23.411
X34.752 Y23.436
X34.95 Y23.51
X35.001 Y23.528
X35.2 Y23.59
X35.278 Y23.611
X35.778 Y23.726
X35.819 Y23.734
X36.381 Y23.838
X36.449 Y23.848
X36.517 Y23.854
X36.829 Y23.868
X36.948 Y23.867
X37.573 Y23.821
X37.613 Y23.818
X38.176 Y23.754
X38.239 Y23.745
X38.301 Y23.732
X38.489 Y23.686
X38.555 Y23.667
X38.619 Y23.644
X39.619 Y23.248
X39.662 Y23.23
X39.912 Y23.117
X40.001 Y23.071
X48.433 Y18.206
X48.84 Y18.05
X49.152 Y18.031
X49.448 Y18.11
X49.71 Y18.281
X49.892 Y18.506
X50.007 Y18.804
X50.022 Y19.09
X49.94 Y19.402
X49.777 Y19.653
X49.433 Y19.931
X40.945 Y24.838
X40.891 Y24.872
X40.839 Y24.909
X40.394 Y25.249
X40.375 Y25.264
X39.807 Y25.72
X39.714 Y25.805
X39.593 Y25.93
X39.511 Y26.025
X39.2 Y26.441
X39.173 Y26.479
X38.78 Y27.058
X38.722 Y27.155
X38.594 Y27.4
X38.563 Y27.465
X38.536 Y27.532
X38.313 Y28.168
X38.297 Y28.215
X38.149 Y28.715
X38.128 Y28.8
X38.077 Y29.05
X38.06 Y29.163
X38.039 Y29.413
X38.035 Y29.477
X38.023 Y29.977
Y30.023
X38.035 Y30.523
X38.039 Y30.587
X38.06 Y30.837
X38.068 Y30.903
X38.081 Y30.968
X38.164 Y31.343
X38.185 Y31.42
X38.3 Y31.795
X38.313 Y31.832
X38.536 Y32.468
X38.565 Y32.54
X38.599 Y32.61
X38.752 Y32.894
X38.808 Y32.986
X39.206 Y33.566
X39.231 Y33.6
X39.512 Y33.975
X39.593 Y34.07
X39.713 Y34.195
X39.761 Y34.241
X39.812 Y34.284
X40.658 Y34.955
X40.695 Y34.983
X40.917 Y35.142
X41.001 Y35.197
X49.433 Y40.069
X49.777 Y40.348
X49.94 Y40.598
X50.022 Y40.91
X50.007 Y41.196
X49.892 Y41.494
X49.71 Y41.719
X49.456 Y41.885
X49.241 Y41.947
X49.154 Y41.969
X48.844 Y41.95
X48.393 Y41.774
X39.938 Y36.895
X39.877 Y36.863
X39.814 Y36.835
X38.877 Y36.454
X38.856 Y36.446
X38.606 Y36.351
X38.489 Y36.314
X38.301 Y36.268
X38.239 Y36.255
X38.176 Y36.246
X37.613 Y36.182
X37.573 Y36.179
X36.948 Y36.133
X36.829 Y36.132
X36.517 Y36.146
X36.449 Y36.152
X36.381 Y36.162
X35.819 Y36.266
X35.778 Y36.274
X35.278 Y36.389
X35.187 Y36.414
X34.839 Y36.529
X34.726 Y36.574
X34.574 Y36.646
X34.524 Y36.671
X34.024 Y36.941
X33.996 Y36.957
X33.688 Y37.137
X33.625 Y37.177
X33.327 Y37.383
X33.276 Y37.42
X33.227 Y37.461
X32.958 Y37.702
X32.888 Y37.771
X32.38 Y38.325
X32.338 Y38.374
X32.08 Y38.695
X32.01 Y38.794
X31.899 Y38.973
X31.849 Y39.063
X31.601 Y39.571
X31.584 Y39.608
X31.314 Y40.225
X31.287 Y40.293
X31.266 Y40.362
X31.214 Y40.55
X31.19 Y40.663
X31.086 Y41.351
X31.083 Y41.372
X31.011 Y41.924
X31.005 Y41.988
X31.003 Y42.053
X30.997 Y51.857
X30.922 Y52.311
X30.789 Y52.573
X30.573 Y52.789
X30.309 Y52.923
X30. Y52.974
X29.691 Y52.923
X29.427 Y52.789
X29.211 Y52.573
X29.078 Y52.311
X29.003 Y51.857
X28.997 Y42.053
X28.995 Y41.988
X28.989 Y41.924
X28.917 Y41.372
X28.914 Y41.351
X28.81 Y40.663
X28.786 Y40.55
X28.734 Y40.362
X28.713 Y40.292
X28.686 Y40.224
X28.411 Y39.599
X28.394 Y39.562
X28.151 Y39.062
X28.095 Y38.964
X27.953 Y38.74
X27.882 Y38.642
X27.655 Y38.366
X27.616 Y38.321
X27.052 Y37.713
X26.979 Y37.642
X26.766 Y37.455
X26.673 Y37.383
X26.375 Y37.177
X26.312 Y37.137
X26.004 Y36.957
X25.969 Y36.938
X25.366 Y36.617
X25.308 Y36.589
X25.248 Y36.564
X25.05 Y36.49
X24.999 Y36.472
X24.8 Y36.41
X24.722 Y36.389
X24.222 Y36.274
X24.181 Y36.266
X23.619 Y36.162
X23.551 Y36.152
X23.483 Y36.146
X23.171 Y36.132
X23.052 Y36.133
X22.427 Y36.179
X22.387 Y36.182
X21.824 Y36.246
X21.761 Y36.255
X21.699 Y36.268
X21.511 Y36.314
X21.445 Y36.333
X21.381 Y36.356
X20.381 Y36.752
X20.338 Y36.77
X20.088 Y36.883
X19.999 Y36.929
X11.567 Y41.794
X11.16 Y41.95
X10.848 Y41.969
X10.552 Y41.89
X10.29 Y41.719
X10.108 Y41.494
X9.993 Y41.196
X9.978 Y40.91
X10.06 Y40.598
X10.223 Y40.347
X10.567 Y40.069
X19.055 Y35.162
X19.109 Y35.128
X19.161 Y35.091
X19.606 Y34.751
X19.625 Y34.736
X20.194 Y34.28
X20.287 Y34.195
X20.407 Y34.07
X20.489 Y33.975
X20.8 Y33.559
X20.827 Y33.521
X21.22 Y32.942
X21.278 Y32.845
X21.406 Y32.6
X21.437 Y32.535
X21.464 Y32.468
X21.687 Y31.832
X21.703 Y31.785
X21.851 Y31.285
X21.872 Y31.2
X21.923 Y30.95
X21.94 Y30.837
X21.962 Y30.587
X21.965 Y30.523
X21.977 Y30.023
Y29.977
X21.965 Y29.477
X21.962 Y29.413
X21.94 Y29.163
X21.932 Y29.097
X21.919 Y29.032
X21.836 Y28.657
X21.815 Y28.58
X21.7 Y28.205
X21.687 Y28.168
X21.464 Y27.532
X21.435 Y27.46
X21.401 Y27.39
X21.248 Y27.106
X21.192 Y27.014
X20.794 Y26.434
X20.769 Y26.4
X20.488 Y26.025
X20.407 Y25.93
X20.287 Y25.805
X20.239 Y25.759
X20.188 Y25.716
X19.342 Y25.045
X19.305 Y25.017
X19.083 Y24.858
X18.999 Y24.803
X10.567 Y19.931
X10.223 Y19.652
X10.06 Y19.402
X9.978 Y19.09
X9.993 Y18.804
X10.108 Y18.506
X10.29 Y18.281
X10.544 Y18.115
X10.759 Y18.053
X10.846 Y18.031
X11.156 Y18.05
X11.607 Y18.226
X20.062 Y23.105
X20.123 Y23.137
X20.186 Y23.165
X21.123 Y23.546
X21.144 Y23.554
X21.394 Y23.649
X21.511 Y23.686
X21.699 Y23.732
X21.761 Y23.745
X21.824 Y23.754
X22.387 Y23.818
X22.427 Y23.821
X23.052 Y23.867
X23.171 Y23.868
X23.483 Y23.854
X23.551 Y23.848
X23.619 Y23.838
X24.181 Y23.734
X24.222 Y23.726
X24.722 Y23.611
X24.813 Y23.586
X25.161 Y23.471
X25.274 Y23.426
X25.426 Y23.354
X25.476 Y23.329
X25.976 Y23.059
X26.004 Y23.043
X26.312 Y22.863
X26.375 Y22.823
X26.673 Y22.617
X26.724 Y22.58
X26.773 Y22.539
X27.042 Y22.298
X27.112 Y22.229
X27.62 Y21.675
X27.662 Y21.626
X27.92 Y21.305
X27.99 Y21.206
X28.101 Y21.027
X28.151 Y20.937
X28.399 Y20.429
X28.416 Y20.392
X28.686 Y19.775
X28.713 Y19.707
X28.734 Y19.638
X28.786 Y19.45
X28.803 Y19.376
G3 X29.085 Y19.338 I0.147 J0.028
G1 X29.764 Y20.712
X29.778 Y20.758
X29.777 Y20.806
X29.225 Y23.779
X29.187 Y23.921
X29.178 Y23.936
X29.163 Y23.944
X29.145 Y23.943
X29.131 Y23.932
G3 X31.4 Y22.208 Z-8.656 I1.135 J-0.862 F333.
X29.131 Y23.932 Z-8.813 I-1.135 J0.862
X31.4 Y22.208 Z-8.969 I1.135 J-0.862
X29.131 Y23.932 Z-9.125 I-1.135 J0.862
X31.4 Y22.208 Z-9.282 I1.135 J-0.862
X29.131 Y23.932 Z-9.438 I-1.135 J0.862
X29.086 Y22.27 Z-9.5 I1.135 J-0.862
G2 X29.591 Y21.399 I-5.835 J-3.962 F1000.
G3 X30.41 Y21.396 I0.411 J0.198
G2 X37.245 Y25.343 I6.361 J-3.124
G3 X37.653 Y26.055 I0.032 J0.454
G2 X37.654 Y33.946 I5.758 J3.945
G3 X37.248 Y34.657 I-0.374 J0.258
G2 X30.409 Y38.601 I-0.499 J7.035
G3 X29.59 Y38.604 I-0.411 J-0.198
G2 X22.755 Y34.657 I-6.361 J3.124
G3 X22.347 Y33.945 I-0.032 J-0.454
G2 X22.346 Y26.054 I-5.758 J-3.945
G3 X22.752 Y25.343 I0.374 J-0.258
G2 X29.086 Y22.27 I0.499 J-7.035
X29.094 Y20.807 I-1.086 J-0.737
G3 X28.804 Y19.373 I1.617 J-1.073
G1 X28.812 Y19.329
X28.982 Y18.141
X28.99 Y18.07
X28.997 Y17.966
X29. Y17.895
X29.003 Y8.143
X29.078 Y7.689
X29.211 Y7.427
X29.427 Y7.211
X29.691 Y7.077
X30. Y7.026
X30.309 Y7.077
X30.573 Y7.211
X30.789 Y7.427
X30.922 Y7.689
X30.997 Y8.143
X31.003 Y17.947
X31.005 Y18.016
X31.012 Y18.084
X31.158 Y19.136
X31.164 Y19.177
X31.209 Y19.427
X31.234 Y19.531
X31.271 Y19.656
X31.313 Y19.773
X31.585 Y20.398
X31.605 Y20.44
X31.85 Y20.94
X31.905 Y21.037
X32.048 Y21.262
X32.118 Y21.358
X32.345 Y21.634
X32.379 Y21.673
X32.887 Y22.23
X32.961 Y22.303
X33.229 Y22.541
X33.326 Y22.617
X33.625 Y22.823
X33.682 Y22.859
X33.99 Y23.042
X34.035 Y23.067
X34.637 Y23.384
X34.752 Y23.436
X34.95 Y23.51
X34.995 Y23.526
X35.193 Y23.59
X35.276 Y23.612
X35.776 Y23.728
X35.83 Y23.739
X36.455 Y23.847
X36.523 Y23.856
X36.591 Y23.861
X36.841 Y23.87
X36.946 Y23.868
X37.571 Y23.823
X37.616 Y23.819
X38.179 Y23.754
X38.299 Y23.732
X38.487 Y23.686
X38.552 Y23.668
X38.615 Y23.646
X39.366 Y23.352
X39.386 Y23.344
X39.823 Y23.162
X39.881 Y23.135
X39.938 Y23.105
X48.433 Y18.206
X48.84 Y18.05
X49.152 Y18.031
X49.448 Y18.11
X49.71 Y18.281
X49.892 Y18.506
X50.007 Y18.804
X50.022 Y19.09
X49.94 Y19.402
X49.777 Y19.653
X49.433 Y19.931
X40.945 Y24.838
X40.891 Y24.872
X40.839 Y24.909
X40.394 Y25.249
X40.375 Y25.263
X39.806 Y25.72
X39.758 Y25.762
X39.712 Y25.806
X39.591 Y25.931
X39.512 Y26.025
X39.2 Y26.441
X39.176 Y26.475
X38.806 Y27.014
X38.748 Y27.11
X38.597 Y27.395
X38.565 Y27.461
X38.538 Y27.529
X38.311 Y28.165
X38.297 Y28.21
X38.164 Y28.647
X38.142 Y28.736
X38.077 Y29.048
X38.06 Y29.163
X38.039 Y29.413
X38.035 Y29.472
X38.021 Y29.972
Y30.028
X38.035 Y30.528
X38.039 Y30.587
X38.06 Y30.837
X38.079 Y30.962
X38.161 Y31.337
X38.182 Y31.42
X38.298 Y31.795
X38.311 Y31.835
X38.538 Y32.471
X38.565 Y32.539
X38.597 Y32.606
X38.748 Y32.89
X38.808 Y32.988
X39.207 Y33.568
X39.231 Y33.6
X39.512 Y33.975
X39.591 Y34.069
X39.711 Y34.194
X39.76 Y34.241
X39.811 Y34.284
X40.658 Y34.955
X40.695 Y34.983
X40.917 Y35.142
X41.001 Y35.197
X49.433 Y40.069
X49.777 Y40.348
X49.94 Y40.598
X50.022 Y40.91
X50.007 Y41.196
X49.892 Y41.494
X49.71 Y41.719
X49.456 Y41.885
X49.241 Y41.947
X49.154 Y41.969
X48.844 Y41.95
X48.393 Y41.774
X39.938 Y36.895
X39.878 Y36.863
X39.815 Y36.835
X38.878 Y36.454
X38.854 Y36.444
X38.604 Y36.35
X38.487 Y36.314
X38.299 Y36.268
X38.179 Y36.246
X37.616 Y36.181
X37.571 Y36.177
X36.946 Y36.132
X36.827 Y36.131
X36.514 Y36.146
X36.45 Y36.152
X36.385 Y36.161
X35.823 Y36.263
X35.776 Y36.272
X35.276 Y36.388
X35.183 Y36.414
X34.836 Y36.53
X34.726 Y36.574
X34.574 Y36.646
X34.528 Y36.669
X34.028 Y36.936
X33.99 Y36.958
X33.682 Y37.141
X33.625 Y37.177
X33.326 Y37.383
X33.229 Y37.459
X32.961 Y37.697
X32.887 Y37.77
X32.379 Y38.327
X32.338 Y38.374
X32.08 Y38.695
X32.041 Y38.748
X32.004 Y38.803
X31.858 Y39.045
X31.812 Y39.129
X31.599 Y39.571
X31.583 Y39.606
X31.313 Y40.227
X31.287 Y40.292
X31.266 Y40.359
X31.214 Y40.547
X31.199 Y40.609
X31.188 Y40.671
X31.018 Y41.859
X31.01 Y41.93
X31.003 Y42.034
X31. Y42.105
X30.997 Y51.857
X30.922 Y52.311
X30.789 Y52.573
X30.573 Y52.789
X30.309 Y52.923
X30. Y52.974
X29.691 Y52.923
X29.427 Y52.789
X29.211 Y52.573
X29.078 Y52.311
X29.003 Y51.857
X28.997 Y42.053
X28.995 Y41.984
X28.988 Y41.916
X28.842 Y40.864
X28.836 Y40.823
X28.791 Y40.573
X28.766 Y40.469
X28.729 Y40.344
X28.687 Y40.227
X28.415 Y39.602
X28.395 Y39.56
X28.15 Y39.06
X28.095 Y38.963
X27.952 Y38.738
X27.882 Y38.642
X27.655 Y38.366
X27.621 Y38.327
X27.113 Y37.77
X27.039 Y37.697
X26.771 Y37.459
X26.674 Y37.383
X26.375 Y37.177
X26.318 Y37.141
X26.01 Y36.958
X25.965 Y36.933
X25.363 Y36.616
X25.248 Y36.564
X25.05 Y36.49
X25.005 Y36.474
X24.807 Y36.41
X24.724 Y36.388
X24.224 Y36.272
X24.17 Y36.261
X23.545 Y36.153
X23.477 Y36.144
X23.409 Y36.139
X23.159 Y36.13
X23.054 Y36.132
X22.429 Y36.177
X22.384 Y36.181
X21.821 Y36.246
X21.701 Y36.268
X21.513 Y36.314
X21.448 Y36.332
X21.385 Y36.354
X20.634 Y36.648
X20.614 Y36.656
X20.177 Y36.838
X20.119 Y36.865
X20.062 Y36.895
X11.567 Y41.794
X11.16 Y41.95
X10.848 Y41.969
X10.552 Y41.89
X10.29 Y41.719
X10.108 Y41.494
X9.993 Y41.196
X9.978 Y40.91
X10.06 Y40.598
X10.223 Y40.347
X10.567 Y40.069
X19.055 Y35.162
X19.109 Y35.128
X19.161 Y35.091
X19.606 Y34.751
X19.625 Y34.737
X20.194 Y34.28
X20.243 Y34.238
X20.289 Y34.194
X20.409 Y34.069
X20.489 Y33.975
X20.8 Y33.56
X20.824 Y33.525
X21.194 Y32.986
X21.252 Y32.89
X21.403 Y32.606
X21.435 Y32.539
X21.462 Y32.471
X21.689 Y31.835
X21.703 Y31.79
X21.836 Y31.353
X21.859 Y31.264
X21.923 Y30.952
X21.94 Y30.837
X21.962 Y30.587
X21.965 Y30.528
X21.979 Y30.028
Y29.972
X21.965 Y29.472
X21.962 Y29.413
X21.94 Y29.163
X21.921 Y29.038
X21.839 Y28.663
X21.818 Y28.58
X21.702 Y28.205
X21.689 Y28.165
X21.462 Y27.529
X21.435 Y27.461
X21.403 Y27.394
X21.252 Y27.11
X21.192 Y27.012
X20.793 Y26.432
X20.769 Y26.4
X20.488 Y26.025
X20.409 Y25.931
X20.289 Y25.806
X20.24 Y25.759
X20.189 Y25.716
X19.342 Y25.045
X19.305 Y25.017
X19.083 Y24.858
X18.999 Y24.803
X10.567 Y19.931
X10.223 Y19.652
X10.06 Y19.402
X9.978 Y19.09
X9.993 Y18.804
X10.108 Y18.506
X10.29 Y18.281
X10.544 Y18.115
X10.759 Y18.053
X10.846 Y18.031
X11.156 Y18.05
X11.607 Y18.226
X20.062 Y23.105
X20.122 Y23.137
X20.185 Y23.165
X21.122 Y23.546
X21.146 Y23.556
X21.396 Y23.65
X21.513 Y23.686
X21.701 Y23.732
X21.821 Y23.754
X22.384 Y23.819
X22.429 Y23.823
X23.054 Y23.868
X23.173 Y23.869
X23.486 Y23.854
X23.55 Y23.848
X23.615 Y23.839
X24.177 Y23.737
X24.224 Y23.728
X24.724 Y23.612
X24.817 Y23.586
X25.164 Y23.47
X25.274 Y23.426
X25.426 Y23.354
X25.472 Y23.331
X25.972 Y23.064
X26.01 Y23.042
X26.318 Y22.859
X26.375 Y22.823
X26.674 Y22.617
X26.771 Y22.541
X27.039 Y22.303
X27.113 Y22.23
X27.621 Y21.673
X27.662 Y21.626
X27.92 Y21.305
X27.959 Y21.252
X27.996 Y21.197
X28.142 Y20.955
X28.188 Y20.871
X28.401 Y20.429
X28.417 Y20.394
X28.687 Y19.773
X28.713 Y19.708
X28.734 Y19.641
X28.786 Y19.453
X28.804 Y19.373
G3 X29.098 Y19.366 I0.147 J0.028
G1 X30.159 Y23.821
X30.163 Y23.866
X30.154 Y23.909
X30.131 Y23.948
X30.099 Y23.979
X30.059 Y23.999
X30.014 Y24.006
G2 X24.806 Y26.846 I0.035 J6.26
X24.129 Y31.862 I4.938 J3.22
X27.543 Y35.599 I5.773 J-1.846
X34.259 Y34.403 I2.438 J-5.77
X35.678 Y27.731 I-4.072 J-4.353
X30.508 Y24.023 I-5.617 J2.373
X30.014 Y24.006 I-0.458 J6.243
X28.793 Y24.881 I0.007 J1.3
G3 X27.874 Y26.071 I-2.228 J-0.771
G1 X27.052 Y26.62
X26.988 Y26.667
X26.927 Y26.719
X26.819 Y26.819
X26.768 Y26.87
X26.72 Y26.925
X26.63 Y27.037
X26.578 Y27.108
X26.168 Y27.721
X26.162 Y27.731
X25.976 Y28.016
X25.931 Y28.093
X25.892 Y28.173
X25.813 Y28.361
X25.779 Y28.455
X25.754 Y28.553
X25.528 Y29.678
X25.514 Y29.76
X25.508 Y29.844
X25.502 Y30.031
X25.504 Y30.121
X25.513 Y30.211
X25.541 Y30.399
X25.55 Y30.45
X25.755 Y31.45
X25.779 Y31.546
X25.813 Y31.639
X25.892 Y31.827
X25.933 Y31.912
X25.982 Y31.993
X26.62 Y32.948
X26.667 Y33.012
X26.719 Y33.073
X26.819 Y33.181
X26.87 Y33.232
X26.925 Y33.28
X27.037 Y33.37
X27.111 Y33.424
X28.01 Y34.02
X28.089 Y34.068
X28.173 Y34.108
X28.361 Y34.187
X28.455 Y34.221
X28.553 Y34.246
X29.678 Y34.472
X29.76 Y34.486
X29.844 Y34.492
X30.031 Y34.498
X30.121 Y34.496
X30.211 Y34.487
X30.399 Y34.459
X30.45 Y34.45
X31.45 Y34.245
X31.546 Y34.221
X31.639 Y34.187
X31.827 Y34.108
X31.912 Y34.067
X31.993 Y34.018
X32.948 Y33.38
X33.012 Y33.333
X33.073 Y33.281
X33.181 Y33.181
X33.232 Y33.13
X33.28 Y33.075
X33.37 Y32.963
X33.424 Y32.889
X34.02 Y31.99
X34.068 Y31.911
X34.108 Y31.827
X34.187 Y31.639
X34.221 Y31.545
X34.246 Y31.447
X34.472 Y30.322
X34.486 Y30.24
X34.492 Y30.156
X34.498 Y29.969
X34.496 Y29.879
X34.487 Y29.789
X34.459 Y29.601
X34.45 Y29.55
X34.245 Y28.55
X34.221 Y28.454
X34.187 Y28.361
X34.108 Y28.173
X34.067 Y28.088
X34.018 Y28.007
X33.38 Y27.052
X33.333 Y26.988
X33.281 Y26.927
X33.181 Y26.819
X33.13 Y26.768
X33.075 Y26.72
X32.963 Y26.63
X32.889 Y26.576
X31.99 Y25.98
X31.911 Y25.932
X31.827 Y25.892
X31.639 Y25.813
X31.545 Y25.779
X31.447 Y25.754
X30.322 Y25.528
X30.24 Y25.514
X30.156 Y25.508
X29.969 Y25.502
X29.879 Y25.504
X29.789 Y25.513
X29.601 Y25.541
X29.55 Y25.55
X28.55 Y25.755
X28.454 Y25.779
X28.361 Y25.813
X28.173 Y25.892
X28.088 Y25.933
X28.007 Y25.982
X27.874 Y26.071
G3 X27.653 Y25.888 I-0.083 J-0.125
G1 X28.114 Y24.79
X28.139 Y24.75
X28.175 Y24.72
X31.072 Y22.967
X31.28 Y22.872
X31.303 Y22.868
X31.325 Y22.874
X31.343 Y22.89
X31.352 Y22.912
X31.349 Y22.935
G3 X28.641 Y22.047 Z-9.656 I-1.354 J-0.444 F333.
X31.349 Y22.935 Z-9.813 I1.354 J0.444
X28.641 Y22.047 Z-9.969 I-1.354 J-0.444
X31.349 Y22.935 Z-10.125 I1.354 J0.444
X28.641 Y22.047 Z-10.282 I-1.354 J-0.444
X31.349 Y22.935 Z-10.438 I1.354 J0.444
X30.007 Y23.916 Z-10.5 I-1.354 J-0.444
G2 X27.7 Y24.382 I0.048 J6.172 F1000.
X24.323 Y27.731 I2.387 J5.784
X25.741 Y34.403 I5.49 J2.319
X32.456 Y35.598 I4.278 J-4.573
Y24.402 I-2.365 J-5.598
X30.007 Y23.916 I-2.402 J5.685
X28.719 Y24.867 I0.011 J1.361
G3 X27.759 Y26.148 I-2.3 J-0.725
G1 X27.052 Y26.62
X26.988 Y26.667
X26.927 Y26.719
X26.819 Y26.819
X26.768 Y26.87
X26.72 Y26.925
X26.63 Y27.037
X26.578 Y27.108
X26.168 Y27.721
X26.162 Y27.731
X25.976 Y28.016
X25.931 Y28.093
X25.892 Y28.173
X25.813 Y28.361
X25.779 Y28.455
X25.754 Y28.553
X25.528 Y29.678
X25.514 Y29.76
X25.508 Y29.844
X25.502 Y30.031
X25.504 Y30.121
X25.513 Y30.211
X25.541 Y30.399
X25.55 Y30.45
X25.755 Y31.45
X25.779 Y31.546
X25.813 Y31.639
X25.892 Y31.827
X25.933 Y31.912
X25.982 Y31.993
X26.62 Y32.948
X26.667 Y33.012
X26.719 Y33.073
X26.819 Y33.181
X26.87 Y33.232
X26.925 Y33.28
X27.037 Y33.37
X27.111 Y33.424
X28.01 Y34.02
X28.089 Y34.068
X28.173 Y34.108
X28.361 Y34.187
X28.455 Y34.221
X28.553 Y34.246
X29.678 Y34.472
X29.76 Y34.486
X29.844 Y34.492
X30.031 Y34.498
X30.121 Y34.496
X30.211 Y34.487
X30.399 Y34.459
X30.45 Y34.45
X31.45 Y34.245
X31.546 Y34.221
X31.639 Y34.187
X31.827 Y34.108
X31.912 Y34.067
X31.993 Y34.018
X32.948 Y33.38
X33.012 Y33.333
X33.073 Y33.281
X33.181 Y33.181
X33.232 Y33.13
X33.28 Y33.075
X33.37 Y32.963
X33.424 Y32.889
X34.02 Y31.99
X34.068 Y31.911
X34.108 Y31.827
X34.187 Y31.639
X34.221 Y31.545
X34.246 Y31.447
X34.472 Y30.322
X34.486 Y30.24
X34.492 Y30.156
X34.498 Y29.969
X34.496 Y29.879
X34.487 Y29.789
X34.459 Y29.601
X34.45 Y29.55
X34.245 Y28.55
X34.221 Y28.454
X34.187 Y28.361
X34.108 Y28.173
X34.067 Y28.088
X34.018 Y28.007
X33.38 Y27.052
X33.333 Y26.988
X33.281 Y26.927
X33.181 Y26.819
X33.13 Y26.768
X33.075 Y26.72
X32.963 Y26.63
X32.889 Y26.576
X31.99 Y25.98
X31.911 Y25.932
X31.827 Y25.892
X31.639 Y25.813
X31.545 Y25.779
X31.447 Y25.754
X30.322 Y25.528
X30.24 Y25.514
X30.156 Y25.508
X29.969 Y25.502
X29.879 Y25.504
X29.789 Y25.513
X29.601 Y25.541
X29.55 Y25.55
X28.55 Y25.755
X28.454 Y25.779
X28.361 Y25.813
X28.173 Y25.892
X28.088 Y25.933
X28.007 Y25.982
X27.759 Y26.148
X27.732 Y26.162
X27.703 Y26.17
X23.029 Y27.031
X22.98 Y27.032
X22.934 Y27.017
X22.895 Y26.989
X22.867 Y26.949
G2 X22.344 Y26.053 I-6.263 J3.051
G3 X22.75 Y25.342 I0.373 J-0.258
G2 X29.59 Y21.401 I0.5 J-7.039
G3 X30.411 Y21.397 I0.411 J0.199
G2 X33.225 Y24.417 I6.461 J-3.199
X37.248 Y25.345 I3.492 J-5.955
G3 X37.655 Y26.053 I0.035 J0.451
G2 X37.656 Y33.947 I5.741 J3.947
G3 X37.25 Y34.658 I-0.373 J0.258
G2 X30.41 Y38.599 I-0.5 J7.039
G3 X29.589 Y38.603 I-0.411 J-0.199
G2 X26.775 Y35.583 I-6.461 J3.199
X22.752 Y34.655 I-3.492 J5.955
G3 X22.345 Y33.947 I-0.035 J-0.451
G2 X22.867 Y26.949 I-5.741 J-3.947
X21.604 Y26.204 I-1.194 J0.582
G3 X20.214 Y25.736 I-0.103 J-1.99
G1 X20.189 Y25.716
X19.341 Y25.045
X19.305 Y25.017
X19.083 Y24.858
X18.999 Y24.803
X10.567 Y19.931
X10.223 Y19.652
X10.06 Y19.402
X9.978 Y19.09
X9.993 Y18.804
X10.108 Y18.506
X10.29 Y18.281
X10.544 Y18.115
X10.759 Y18.053
X10.846 Y18.031
X11.156 Y18.05
X11.607 Y18.226
X20.062 Y23.105
X20.122 Y23.137
X20.184 Y23.164
X21.121 Y23.547
X21.148 Y23.558
X21.398 Y23.651
X21.467 Y23.674
X21.537 Y23.692
X21.788 Y23.747
X21.886 Y23.763
X22.386 Y23.82
X22.428 Y23.824
X23.054 Y23.868
X23.175 Y23.869
X23.487 Y23.854
X23.611 Y23.84
X24.173 Y23.74
X24.227 Y23.729
X24.727 Y23.613
X24.819 Y23.587
X25.167 Y23.469
X25.274 Y23.426
X25.426 Y23.354
X25.468 Y23.334
X25.968 Y23.069
X26.016 Y23.042
X26.324 Y22.856
X26.376 Y22.823
X26.675 Y22.616
X26.728 Y22.576
X26.779 Y22.534
X27.103 Y22.24
X27.174 Y22.169
X27.625 Y21.669
X27.662 Y21.626
X27.92 Y21.305
X27.958 Y21.254
X27.993 Y21.201
X28.141 Y20.959
X28.189 Y20.872
X28.4 Y20.434
X28.418 Y20.396
X28.688 Y19.77
X28.716 Y19.697
X28.739 Y19.622
X28.803 Y19.372
X28.824 Y19.262
X28.988 Y18.084
X28.995 Y18.016
X28.997 Y17.947
X29.003 Y8.143
X29.078 Y7.689
X29.211 Y7.427
X29.427 Y7.211
X29.691 Y7.077
X30. Y7.026
X30.309 Y7.077
X30.573 Y7.211
X30.789 Y7.427
X30.922 Y7.689
X30.997 Y8.143
X31.003 Y17.947
X31.005 Y18.016
X31.012 Y18.084
X31.176 Y19.262
X31.197 Y19.372
X31.261 Y19.622
X31.284 Y19.697
X31.312 Y19.77
X31.582 Y20.396
X31.604 Y20.443
X31.851 Y20.943
X31.905 Y21.038
X32.048 Y21.262
X32.118 Y21.358
X32.345 Y21.634
X32.378 Y21.672
X32.883 Y22.227
X32.96 Y22.303
X33.23 Y22.542
X33.325 Y22.616
X33.624 Y22.823
X33.676 Y22.856
X33.984 Y23.042
X34.038 Y23.072
X34.641 Y23.386
X34.752 Y23.436
X34.95 Y23.51
X34.991 Y23.524
X35.189 Y23.589
X35.273 Y23.613
X35.773 Y23.729
X35.833 Y23.742
X36.458 Y23.848
X36.529 Y23.857
X36.6 Y23.861
X36.913 Y23.869
X37.015 Y23.867
X37.577 Y23.823
X37.617 Y23.819
X38.18 Y23.753
X38.249 Y23.743
X38.317 Y23.727
X38.567 Y23.662
X38.687 Y23.622
X39.75 Y23.194
X39.815 Y23.165
X39.94 Y23.104
X40.001 Y23.071
X48.433 Y18.206
X48.84 Y18.05
X49.152 Y18.031
X49.448 Y18.11
X49.71 Y18.281
X49.892 Y18.506
X50.007 Y18.804
X50.022 Y19.09
X49.94 Y19.402
X49.777 Y19.653
X49.433 Y19.931
X40.945 Y24.838
X40.891 Y24.872
X40.839 Y24.909
X40.394 Y25.249
X40.375 Y25.263
X39.806 Y25.719
X39.757 Y25.762
X39.71 Y25.808
X39.59 Y25.933
X39.512 Y26.025
X39.2 Y26.441
X39.177 Y26.473
X38.806 Y27.013
X38.745 Y27.113
X38.595 Y27.398
X38.565 Y27.461
X38.539 Y27.526
X38.31 Y28.161
X38.295 Y28.206
X38.18 Y28.581
X38.157 Y28.668
X38.078 Y29.043
X38.06 Y29.163
X38.039 Y29.413
X38.035 Y29.467
X38.019 Y29.967
Y30.033
X38.035 Y30.533
X38.039 Y30.587
X38.06 Y30.837
X38.078 Y30.957
X38.157 Y31.332
X38.18 Y31.419
X38.295 Y31.794
X38.31 Y31.839
X38.539 Y32.474
X38.565 Y32.539
X38.595 Y32.602
X38.745 Y32.887
X38.807 Y32.989
X39.208 Y33.569
X39.231 Y33.6
X39.512 Y33.975
X39.59 Y34.067
X39.71 Y34.192
X39.759 Y34.24
X39.811 Y34.284
X40.659 Y34.955
X40.695 Y34.983
X40.917 Y35.142
X41.001 Y35.197
X49.433 Y40.069
X49.777 Y40.348
X49.94 Y40.598
X50.022 Y40.91
X50.007 Y41.196
X49.892 Y41.494
X49.71 Y41.719
X49.456 Y41.885
X49.241 Y41.947
X49.154 Y41.969
X48.844 Y41.95
X48.393 Y41.774
X39.938 Y36.895
X39.878 Y36.863
X39.816 Y36.836
X38.879 Y36.453
X38.852 Y36.442
X38.602 Y36.349
X38.533 Y36.326
X38.463 Y36.308
X38.212 Y36.253
X38.114 Y36.237
X37.614 Y36.18
X37.572 Y36.176
X36.946 Y36.132
X36.825 Y36.131
X36.513 Y36.146
X36.389 Y36.16
X35.827 Y36.26
X35.773 Y36.271
X35.273 Y36.387
X35.181 Y36.413
X34.833 Y36.531
X34.726 Y36.574
X34.574 Y36.646
X34.532 Y36.666
X34.032 Y36.931
X33.984 Y36.958
X33.676 Y37.144
X33.624 Y37.177
X33.325 Y37.384
X33.272 Y37.424
X33.221 Y37.466
X32.897 Y37.76
X32.826 Y37.831
X32.375 Y38.331
X32.338 Y38.374
X32.08 Y38.695
X32.042 Y38.746
X32.007 Y38.799
