(3_ROTOR_01)
(T3  D=3. CR=0. - ZMIN=-18.5 - FLAT END MILL)
G90 G94 G91.1 G40 G49 G17
G21
(WHEN USING FUSION 360 FOR PERSONAL USE, THE FEEDRATE OF)
(RAPID MOVES IS REDUCED TO MATCH THE FEEDRATE OF CUTTING)
(MOVES, WHICH CAN INCREASE MACHINING TIME. UNRESTRICTED RAPID)
(MOVES ARE AVAILABLE WITH A FUSION 360 SUBSCRIPTION.)
G28 G91 Z0.
G90

(PARALLEL1)
M5
T3 M6
S5000 M3
G54
G0 X31.37 Y5.201
G1 Z2. F2000.
Z0.3
G18 G3 X31.07 Z0. I-0.3 K0.
G1 X28.93
X28.896 Z0.004
X28.864 Z0.015
X28.832 Z0.027
X28.798 Z0.031
X28.378
X28.34 Y5.209
X28.308 Y5.23
X28.286 Y5.263
X28.278 Y5.301
X28.286 Y5.339
X28.308 Y5.372
X28.34 Y5.393
X28.378 Y5.401
X28.412 Z0.027
X28.444 Z0.015
X28.476 Z0.004
X28.51 Z0.
X31.49
X31.524 Z0.004
X31.556 Z0.015
X31.588 Z0.027
X31.622 Z0.031
X31.927
X31.965 Y5.409
X31.998 Y5.43
X32.019 Y5.463
X32.027 Y5.501
X32.019 Y5.539
X31.998 Y5.572
X31.965 Y5.593
X31.927 Y5.601
X31.893 Z0.027
X31.861 Z0.015
X31.829 Z0.004
X31.795 Z0.
X28.205
X28.171 Z0.004
X28.139 Z0.015
X28.107 Z0.027
X28.073 Z0.031
X27.834
X27.795 Y5.609
X27.763 Y5.63
X27.741 Y5.663
X27.734 Y5.701
X27.741 Y5.739
X27.763 Y5.772
X27.795 Y5.793
X27.834 Y5.801
X27.868 Z0.027
X27.9 Z0.015
X27.932 Z0.004
X27.966 Z0.
X32.034
X32.068 Z0.004
X32.1 Z0.015
X32.133 Z0.027
X32.166 Z0.031
X32.363
X32.401 Y5.809
X32.433 Y5.83
X32.455 Y5.863
X32.463 Y5.901
X32.455 Y5.939
X32.433 Y5.972
X32.401 Y5.993
X32.363 Y6.001
X32.329 Z0.027
X32.297 Z0.015
X32.264 Z0.004
X32.231 Z0.
X27.769
X27.736 Z0.004
X27.703 Z0.015
X27.671 Z0.027
X27.637 Z0.031
X27.472
X27.434 Y6.009
X27.401 Y6.03
X27.379 Y6.063
X27.372 Y6.101
X27.379 Y6.139
X27.401 Y6.172
X27.434 Y6.193
X27.472 Y6.201
X27.506 Z0.027
X27.538 Z0.015
X27.57 Z0.004
X27.604 Z0.
X32.396
X32.43 Z0.004
X32.462 Z0.015
X32.494 Z0.027
X32.528 Z0.031
X32.67
X32.708 Y6.209
X32.741 Y6.23
X32.762 Y6.263
X32.77 Y6.301
X32.762 Y6.339
X32.741 Y6.372
X32.708 Y6.393
X32.67 Y6.401
X32.636 Z0.027
X32.604 Z0.015
X32.572 Z0.004
X32.538 Z0.
X27.462
X27.428 Z0.004
X27.396 Z0.015
X27.364 Z0.027
X27.33 Z0.031
X27.219
X27.181 Y6.409
X27.148 Y6.43
X27.127 Y6.463
X27.119 Y6.501
X27.127 Y6.539
X27.148 Y6.572
X27.181 Y6.593
X27.219 Y6.601
X27.253 Z0.027
X27.285 Z0.015
X27.317 Z0.004
X27.351 Z0.
X29.47
Z-14.972
X30.53
Z0.
X32.649
X32.683 Z0.004
X32.715 Z0.015
X32.747 Z0.027
X32.781 Z0.031
X32.877
X32.916 Y6.609
X32.948 Y6.63
X32.97 Y6.663
X32.977 Y6.701
X32.97 Y6.739
X32.948 Y6.772
X32.916 Y6.793
X32.877 Y6.801
X32.844 Z0.027
X32.811 Z0.015
X32.779 Z0.004
X32.745 Z0.
X30.894
Z-15.006
X29.106
Z0.
X27.255
X27.221 Z0.004
X27.189 Z0.015
X27.156 Z0.027
X27.123 Z0.031
X27.04
X27.001 Y6.809
X26.969 Y6.83
X26.947 Y6.863
X26.94 Y6.901
X26.947 Y6.939
X26.969 Y6.972
X27.001 Y6.993
X27.04 Y7.001
X27.074 Z0.027
X27.106 Z0.015
X27.138 Z0.004
X27.172 Z0.
X28.887
Z-15.041
X31.113
Z0.
X32.828
X32.862 Z0.004
X32.894 Z0.015
X32.926 Z0.027
X32.96 Z0.031
X33.019
X33.057 Y7.009
X33.09 Y7.03
X33.111 Y7.063
X33.119 Y7.101
X33.111 Y7.139
X33.09 Y7.172
X33.057 Y7.193
X33.019 Y7.201
X32.985 Z0.027
X32.953 Z0.015
X32.921 Z0.004
X32.887 Z0.
X31.266
X31.265 Z-15.076
X29.052 Z-15.078
X28.735 Z-15.076
X28.733 Z0.
X27.113
X27.079 Z0.004
X27.047 Z0.015
X27.015 Z0.027
X26.981 Z0.031
X26.932
X26.893 Y7.209
X26.861 Y7.23
X26.839 Y7.263
X26.832 Y7.301
X26.839 Y7.339
X26.861 Y7.372
X26.893 Y7.393
X26.932 Y7.401
X26.965 Z0.027
X26.998 Z0.015
X27.03 Z0.004
X27.064 Z0.
X28.625
X28.63 Z-15.111
X29.241 Z-15.116
X31.37 Z-15.111
Z0.
X32.936
X32.97 Z0.004
X33.002 Z0.015
X33.035 Z0.027
X33.068 Z0.031
X33.102
X33.141 Y7.409
X33.173 Y7.43
X33.195 Y7.463
X33.202 Y7.501
X33.195 Y7.539
X33.173 Y7.572
X33.141 Y7.593
X33.102 Y7.601
X33.069 Z0.027
X33.036 Z0.015
X33.004 Z0.004
X32.97 Z0.
X31.441
Z-15.146
X29.241 Z-15.152
X28.559 Z-15.146
Z0.
X27.03
X26.996 Z0.004
X26.964 Z0.015
X26.931 Z0.027
X26.898 Z0.031
X26.879
X26.841 Y7.608
X26.808 Y7.63
X26.787 Y7.663
X26.779 Y7.701
X26.787 Y7.739
X26.808 Y7.772
X26.841 Y7.793
X26.879 Y7.801
X26.913 Z0.027
X26.945 Z0.015
X26.977 Z0.004
X27.011 Z0.
X28.514
X28.517 Z-15.182
X29.427 Z-15.19
X31.483 Z-15.182
Z0.
X32.989
X33.023 Z0.004
X33.055 Z0.015
X33.087 Z0.027
X33.121 Z0.031
X33.132
X33.17 Y7.808
X33.203 Y7.83
X33.224 Y7.863
X33.232 Y7.901
X33.224 Y7.939
X33.203 Y7.972
X33.17 Y7.993
X33.132 Y8.001
X33.098 Z0.027
X33.066 Z0.015
X33.034 Z0.004
X33. Z0.
X31.498
Z-15.218
X29.431 Z-15.226
X28.502 Z-15.218
X28.5 Z0.
X27.
X26.966 Z0.004
X26.934 Z0.015
X26.902 Z0.027
X26.868 Z0.031
X26.83 Y8.008
X26.797 Y8.03
X26.776 Y8.063
X26.768 Y8.101
X26.776 Y8.139
X26.797 Y8.172
X26.83 Y8.193
X26.868 Y8.201
X26.902 Z0.027
X26.934 Z0.015
X26.966 Z0.004
X27. Z0.
X28.5
Z-15.254
X29.431 Z-15.262
X31.5 Z-15.254
Z0.
X33.
X33.034 Z0.004
X33.066 Z0.015
X33.098 Z0.027
X33.132 Z0.031
X33.17 Y8.208
X33.203 Y8.23
X33.224 Y8.263
X33.232 Y8.301
X33.224 Y8.339
X33.203 Y8.372
X33.17 Y8.393
X33.132 Y8.401
X33.098 Z0.027
X33.066 Z0.015
X33.034 Z0.004
X33. Z0.
X31.5
Z-15.291
X29.431 Z-15.299
X28.5 Z-15.291
Z0.
X27.
X26.966 Z0.004
X26.934 Z0.015
X26.902 Z0.027
X26.868 Z0.031
X26.83 Y8.408
X26.797 Y8.43
X26.776 Y8.463
X26.768 Y8.501
X26.776 Y8.539
X26.797 Y8.572
X26.83 Y8.593
X26.868 Y8.601
X26.902 Z0.027
X26.934 Z0.015
X26.966 Z0.004
X27. Z0.
X28.5
Z-15.327
X29.431 Z-15.335
X31.5 Z-15.327
Z0.
X33.
X33.034 Z0.004
X33.066 Z0.015
X33.098 Z0.027
X33.132 Z0.031
X33.17 Y8.608
X33.203 Y8.63
X33.224 Y8.663
X33.232 Y8.701
X33.224 Y8.739
X33.203 Y8.772
X33.17 Y8.793
X33.132 Y8.801
X33.098 Z0.027
X33.066 Z0.015
X33.034 Z0.004
X33. Z0.
X31.5
Z-15.363
X29.431 Z-15.371
X28.5 Z-15.363
Z0.
X27.
X26.966 Z0.004
X26.934 Z0.015
X26.902 Z0.027
X26.868 Z0.031
X26.83 Y8.808
X26.797 Y8.83
X26.776 Y8.863
X26.768 Y8.901
X26.776 Y8.939
X26.797 Y8.972
X26.83 Y8.993
X26.868 Y9.001
X26.902 Z0.027
X26.934 Z0.015
X26.966 Z0.004
X27. Z0.
X28.5
Z-15.399
X29.431 Z-15.408
X31.5 Z-15.399
Z0.
X33.
X33.034 Z0.004
X33.066 Z0.015
X33.098 Z0.027
X33.132 Z0.031
X33.17 Y9.008
X33.203 Y9.03
X33.224 Y9.063
X33.232 Y9.101
X33.224 Y9.139
X33.203 Y9.172
X33.17 Y9.193
X33.132 Y9.201
X33.098 Z0.027
X33.066 Z0.015
X33.034 Z0.004
X33. Z0.
X31.5
Z-15.436
X29.444 Z-15.444
X28.5 Z-15.436
X28.496 Z0.
X27.
X26.966 Z0.004
X26.934 Z0.015
X26.902 Z0.027
X26.868 Z0.031
X26.83 Y9.208
X26.797 Y9.23
X26.776 Y9.263
X26.768 Y9.301
X26.776 Y9.339
X26.797 Y9.372
X26.83 Y9.393
X26.868 Y9.401
X26.902 Z0.027
X26.934 Z0.015
X26.966 Z0.004
X27. Z0.
X28.496
X28.5 Z-15.472
X29.444 Z-15.48
X31.5 Z-15.472
Z0.
X33.
X33.034 Z0.004
X33.066 Z0.015
X33.098 Z0.027
X33.132 Z0.031
X33.17 Y9.408
X33.203 Y9.43
X33.224 Y9.463
X33.232 Y9.501
X33.224 Y9.539
X33.203 Y9.572
X33.17 Y9.593
X33.132 Y9.601
X33.098 Z0.027
X33.066 Z0.015
X33.034 Z0.004
X33. Z0.
X31.5
Z-15.508
X29.444 Z-15.517
X28.5 Z-15.508
X28.496 Z0.
X27.
X26.966 Z0.004
X26.934 Z0.015
X26.902 Z0.027
X26.868 Z0.031
X26.83 Y9.608
X26.797 Y9.63
X26.776 Y9.663
X26.768 Y9.701
X26.776 Y9.739
X26.797 Y9.772
X26.83 Y9.793
X26.868 Y9.801
X26.902 Z0.027
X26.934 Z0.015
X26.966 Z0.004
X27. Z0.
X28.496
X28.5 Z-15.545
X29.444 Z-15.553
X31.5 Z-15.545
Z0.
X33.
X33.034 Z0.004
X33.066 Z0.015
X33.098 Z0.027
X33.132 Z0.031
X33.17 Y9.808
X33.203 Y9.83
X33.224 Y9.863
X33.232 Y9.901
X33.224 Y9.939
X33.203 Y9.972
X33.17 Y9.993
X33.132 Y10.001
X33.098 Z0.027
X33.066 Z0.015
X33.034 Z0.004
X33. Z0.
X31.5
Z-15.581
X29.444 Z-15.59
X28.5 Z-15.581
X28.496 Z0.
X27.
X26.966 Z0.004
X26.934 Z0.015
X26.902 Z0.027
X26.868 Z0.031
X26.83 Y10.008
X26.797 Y10.03
X26.776 Y10.063
X26.768 Y10.101
X26.776 Y10.139
X26.797 Y10.171
X26.83 Y10.193
X26.868 Y10.201
X26.902 Z0.027
X26.934 Z0.015
X26.966 Z0.004
X27. Z0.
X28.496
X28.5 Z-15.617
X29.444 Z-15.626
X31.5 Z-15.617
Z0.
X33.
X33.034 Z0.004
X33.066 Z0.015
X33.098 Z0.027
X33.132 Z0.031
X33.17 Y10.208
X33.203 Y10.23
X33.224 Y10.263
X33.232 Y10.301
X33.224 Y10.339
X33.203 Y10.371
X33.17 Y10.393
X33.132 Y10.401
X33.098 Z0.027
X33.066 Z0.015
X33.034 Z0.004
X33. Z0.
X31.5
Z-15.653
X29.444 Z-15.662
X28.5 Z-15.653
X28.496 Z0.
X27.
X26.966 Z0.004
X26.934 Z0.015
X26.902 Z0.027
X26.868 Z0.031
X26.83 Y10.408
X26.797 Y10.43
X26.776 Y10.463
X26.768 Y10.501
X26.776 Y10.539
X26.797 Y10.571
X26.83 Y10.593
X26.868 Y10.601
X26.902 Z0.027
X26.934 Z0.015
X26.966 Z0.004
X27. Z0.
X28.496
X28.5 Z-15.69
X29.444 Z-15.699
X31.5 Z-15.69
Z0.
X33.
X33.034 Z0.004
X33.066 Z0.015
X33.098 Z0.027
X33.132 Z0.031
X33.17 Y10.608
X33.203 Y10.63
X33.224 Y10.662
X33.232 Y10.701
X33.224 Y10.739
X33.203 Y10.771
X33.17 Y10.793
X33.132 Y10.801
X33.098 Z0.027
X33.066 Z0.015
X33.034 Z0.004
X33. Z0.
X31.5
Z-15.726
X29.444 Z-15.735
X28.5 Z-15.726
X28.496 Z0.
X27.
X26.966 Z0.004
X26.934 Z0.015
X26.902 Z0.027
X26.868 Z0.031
X26.83 Y10.808
X26.797 Y10.83
X26.776 Y10.862
X26.768 Y10.901
X26.776 Y10.939
X26.797 Y10.971
X26.83 Y10.993
X26.868 Y11.001
X26.902 Z0.027
X26.934 Z0.015
X26.966 Z0.004
X27. Z0.
X28.496
X28.5 Z-15.762
X29.444 Z-15.771
X31.5 Z-15.762
Z0.
X33.
X33.034 Z0.004
X33.066 Z0.015
X33.098 Z0.027
X33.132 Z0.031
X33.17 Y11.008
X33.203 Y11.03
X33.224 Y11.062
X33.232 Y11.101
X33.224 Y11.139
X33.203 Y11.171
X33.17 Y11.193
X33.132 Y11.201
X33.098 Z0.027
X33.066 Z0.015
X33.034 Z0.004
X33. Z0.
X31.5
Z-15.798
X29.634 Z-15.808
X28.5 Z-15.798
X28.496 Z0.
X27.
X26.966 Z0.004
X26.934 Z0.015
X26.902 Z0.027
X26.868 Z0.031
X26.83 Y11.208
X26.797 Y11.23
X26.776 Y11.262
X26.768 Y11.301
X26.776 Y11.339
X26.797 Y11.371
X26.83 Y11.393
X26.868 Y11.401
X26.902 Z0.027
X26.934 Z0.015
X26.966 Z0.004
X27. Z0.
X28.5
Z-15.835
X29.621 Z-15.845
X31.5 Z-15.835
Z0.
X33.
X33.034 Z0.004
X33.066 Z0.015
X33.098 Z0.027
X33.132 Z0.031
X33.17 Y11.408
X33.203 Y11.43
X33.224 Y11.462
X33.232 Y11.501
X33.224 Y11.539
X33.203 Y11.571
X33.17 Y11.593
X33.132 Y11.601
X33.098 Z0.027
X33.066 Z0.015
X33.034 Z0.004
X33. Z0.
X31.5
Z-15.871
X29.621 Z-15.881
X28.5 Z-15.871
Z0.
X27.
X26.966 Z0.004
X26.934 Z0.015
X26.902 Z0.027
X26.868 Z0.031
X26.83 Y11.608
X26.797 Y11.63
X26.776 Y11.662
X26.768 Y11.701
X26.776 Y11.739
X26.797 Y11.771
X26.83 Y11.793
X26.868 Y11.801
X26.902 Z0.027
X26.934 Z0.015
X26.966 Z0.004
X27. Z0.
X28.5
Z-15.907
X29.621 Z-15.917
X31.5 Z-15.907
Z0.
X33.
X33.034 Z0.004
X33.066 Z0.015
X33.098 Z0.027
X33.132 Z0.031
X33.17 Y11.808
X33.203 Y11.83
X33.224 Y11.862
X33.232 Y11.901
X33.224 Y11.939
X33.203 Y11.971
X33.17 Y11.993
X33.132 Y12.001
X33.098 Z0.027
X33.066 Z0.015
X33.034 Z0.004
X33. Z0.
X31.5
Z-15.943
X29.621 Z-15.954
X28.5 Z-15.943
Z0.
X27.
X26.966 Z0.004
X26.934 Z0.015
X26.902 Z0.027
X26.868 Z0.031
X26.83 Y12.008
X26.797 Y12.03
X26.776 Y12.062
X26.768 Y12.101
X26.776 Y12.139
X26.797 Y12.171
X26.83 Y12.193
X26.868 Y12.201
X26.902 Z0.027
X26.934 Z0.015
X26.966 Z0.004
X27. Z0.
X28.5
Z-15.979
X29.621 Z-15.99
X31.5 Z-15.979
Z0.
X33.
X33.034 Z0.004
X33.066 Z0.015
X33.098 Z0.027
X33.132 Z0.031
X33.17 Y12.208
X33.203 Y12.23
X33.224 Y12.262
X33.232 Y12.301
X33.224 Y12.339
X33.203 Y12.371
X33.17 Y12.393
X33.132 Y12.401
X33.098 Z0.027
X33.066 Z0.015
X33.034 Z0.004
X33. Z0.
X31.5
Z-16.016
X29.621 Z-16.026
X28.5 Z-16.016
Z0.
X27.
X26.966 Z0.004
X26.934 Z0.015
X26.902 Z0.027
X26.868 Z0.031
X26.83 Y12.408
X26.797 Y12.43
X26.776 Y12.462
X26.768 Y12.501
X26.776 Y12.539
X26.797 Y12.571
X26.83 Y12.593
X26.868 Y12.601
X26.902 Z0.027
X26.934 Z0.015
X26.966 Z0.004
X27. Z0.
X28.5
Z-16.052
X29.621 Z-16.063
X31.5 Z-16.052
Z0.
X33.
X33.034 Z0.004
X33.066 Z0.015
X33.098 Z0.027
X33.132 Z0.031
X33.17 Y12.608
X33.203 Y12.63
X33.224 Y12.662
X33.232 Y12.701
X33.224 Y12.739
X33.203 Y12.771
X33.17 Y12.793
X33.132 Y12.801
X33.098 Z0.027
X33.066 Z0.015
X33.034 Z0.004
X33. Z0.
X31.5
Z-16.088
X29.621 Z-16.099
X28.5 Z-16.088
Z0.
X27.
X26.966 Z0.004
X26.934 Z0.015
X26.902 Z0.027
X26.868 Z0.031
X26.83 Y12.808
X26.797 Y12.83
X26.776 Y12.862
X26.768 Y12.901
X26.776 Y12.939
X26.797 Y12.971
X26.83 Y12.993
X26.868 Y13.001
X26.902 Z0.027
X26.934 Z0.015
X26.966 Z0.004
X27. Z0.
X28.5
Z-16.124
X29.621 Z-16.136
X31.5 Z-16.124
Z0.
X33.
X33.034 Z0.004
X33.066 Z0.015
X33.098 Z0.027
X33.132 Z0.031
X33.17 Y13.008
X33.203 Y13.03
X33.224 Y13.062
X33.232 Y13.101
X33.224 Y13.139
X33.203 Y13.171
X33.17 Y13.193
X33.132 Y13.201
X33.098 Z0.027
X33.066 Z0.015
X33.034 Z0.004
X33. Z0.
X31.5
Z-16.161
X29.621 Z-16.172
X28.5 Z-16.161
X28.498 Z0.
X27.
X26.966 Z0.004
X26.934 Z0.015
X26.902 Z0.027
X26.868 Z0.031
X26.83 Y13.208
X26.797 Y13.23
X26.776 Y13.262
X26.768 Y13.301
X26.776 Y13.339
X26.797 Y13.371
X26.83 Y13.393
X26.868 Y13.401
X26.902 Z0.027
X26.934 Z0.015
X26.966 Z0.004
X27. Z0.
X28.498
X28.5 Z-16.197
X29.621 Z-16.208
X31.5 Z-16.197
Z0.
X33.
X33.034 Z0.004
X33.066 Z0.015
X33.098 Z0.027
X33.132 Z0.031
X33.17 Y13.408
X33.203 Y13.43
X33.224 Y13.462
X33.232 Y13.501
X33.224 Y13.539
X33.203 Y13.571
X33.17 Y13.593
X33.132 Y13.601
X33.098 Z0.027
X33.066 Z0.015
X33.034 Z0.004
X33. Z0.
X31.5
Z-16.233
X29.621 Z-16.245
X28.5 Z-16.233
X28.498 Z0.
X27.
X26.966 Z0.004
X26.934 Z0.015
X26.902 Z0.027
X26.868 Z0.031
X26.83 Y13.608
X26.797 Y13.63
X26.776 Y13.662
X26.768 Y13.701
X26.776 Y13.739
X26.797 Y13.771
X26.83 Y13.793
X26.868 Y13.801
X26.902 Z0.027
X26.934 Z0.015
X26.966 Z0.004
X27. Z0.
X28.498
X28.5 Z-16.269
X29.621 Z-16.281
X31.5 Z-16.269
Z0.
X33.
X33.034 Z0.004
X33.066 Z0.015
X33.098 Z0.027
X33.132 Z0.031
X33.17 Y13.808
X33.203 Y13.83
X33.224 Y13.862
X33.232 Y13.901
X33.224 Y13.939
X33.203 Y13.971
X33.17 Y13.993
X33.132 Y14.001
X33.098 Z0.027
X33.066 Z0.015
X33.034 Z0.004
X33. Z0.
X31.5
Z-16.305
X29.81 Z-16.318
X28.5 Z-16.305
X28.498 Z0.
X27.
X26.966 Z0.004
X26.934 Z0.015
X26.902 Z0.027
X26.868 Z0.031
X26.83 Y14.008
X26.797 Y14.03
X26.776 Y14.062
X26.768 Y14.101
X26.776 Y14.139
X26.797 Y14.171
X26.83 Y14.193
X26.868 Y14.201
X26.902 Z0.027
X26.934 Z0.015
X26.966 Z0.004
X27. Z0.
X28.498
X28.5 Z-16.342
X29.81 Z-16.354
X31.5 Z-16.342
Z0.
X33.
X33.034 Z0.004
X33.066 Z0.015
X33.098 Z0.027
X33.132 Z0.031
X33.17 Y14.208
X33.203 Y14.23
X33.224 Y14.262
X33.232 Y14.301
X33.224 Y14.339
X33.203 Y14.371
X33.17 Y14.393
X33.132 Y14.401
X33.098 Z0.027
X33.066 Z0.015
X33.034 Z0.004
X33. Z0.
X31.5
Z-16.378
X29.81 Z-16.391
X28.5 Z-16.378
X28.498 Z0.
X27.
X26.966 Z0.004
X26.934 Z0.015
X26.902 Z0.027
X26.868 Z0.031
X26.83 Y14.408
X26.797 Y14.43
X26.776 Y14.462
X26.768 Y14.501
X26.776 Y14.539
X26.797 Y14.571
X26.83 Y14.593
X26.868 Y14.601
X26.902 Z0.027
X26.934 Z0.015
X26.966 Z0.004
X27. Z0.
X28.498
X28.5 Z-16.414
X29.81 Z-16.427
X31.5 Z-16.414
Z0.
X33.
X33.034 Z0.004
X33.066 Z0.015
X33.098 Z0.027
X33.132 Z0.031
X33.17 Y14.608
X33.203 Y14.63
X33.224 Y14.662
X33.232 Y14.701
X33.224 Y14.739
X33.203 Y14.771
X33.17 Y14.793
X33.132 Y14.801
X33.098 Z0.027
X33.066 Z0.015
X33.034 Z0.004
X33. Z0.
X31.5
Z-16.45
X29.81 Z-16.463
X28.5 Z-16.45
Z0.
X27.
X26.966 Z0.004
X26.934 Z0.015
X26.902 Z0.027
X26.868 Z0.031
X26.83 Y14.808
X26.797 Y14.83
X26.776 Y14.862
X26.768 Y14.901
X26.776 Y14.939
X26.797 Y14.971
X26.83 Y14.993
X26.868 Y15.001
X26.902 Z0.027
X26.934 Z0.015
X26.966 Z0.004
X27. Z0.
X28.5
Z-16.486
X29.81 Z-16.5
X31.5 Z-16.486
Z0.
X33.
X33.034 Z0.004
X33.066 Z0.015
X33.098 Z0.027
X33.132 Z0.031
X33.17 Y15.008
X33.203 Y15.03
X33.224 Y15.062
X33.232 Y15.101
X33.224 Y15.139
X33.203 Y15.171
X33.17 Y15.193
X33.132 Y15.201
X33.098 Z0.027
X33.066 Z0.015
X33.034 Z0.004
X33. Z0.
X31.5
Z-16.523
X29.81 Z-16.536
X28.5 Z-16.523
Z0.
X27.
X26.966 Z0.004
X26.934 Z0.015
X26.902 Z0.027
X26.868 Z0.031
X26.83 Y15.208
X26.797 Y15.23
X26.776 Y15.262
X26.768 Y15.301
X26.776 Y15.339
X26.797 Y15.371
X26.83 Y15.393
X26.868 Y15.401
X26.902 Z0.027
X26.934 Z0.015
X26.966 Z0.004
X27. Z0.
X28.5
Z-16.559
X29.81 Z-16.572
X31.5 Z-16.559
Z0.
X33.
X33.034 Z0.004
X33.066 Z0.015
X33.098 Z0.027
X33.132 Z0.031
X33.17 Y15.408
X33.203 Y15.43
X33.224 Y15.462
X33.232 Y15.501
X33.224 Y15.539
X33.203 Y15.571
X33.17 Y15.593
X33.132 Y15.601
X33.098 Z0.027
X33.066 Z0.015
X33.034 Z0.004
X33. Z0.
X31.5
Z-16.595
X29.81 Z-16.609
X28.5 Z-16.595
Z0.
X27.
X26.966 Z0.004
X26.934 Z0.015
X26.902 Z0.027
X26.868 Z0.031
X26.83 Y15.608
X26.797 Y15.63
X26.776 Y15.662
X26.768 Y15.701
X26.776 Y15.739
X26.797 Y15.771
X26.83 Y15.793
X26.868 Y15.801
X26.902 Z0.027
X26.934 Z0.015
X26.966 Z0.004
X27. Z0.
X28.5
Z-16.631
X29.81 Z-16.645
X31.5 Z-16.631
Z0.
X33.
X33.034 Z0.004
X33.066 Z0.015
X33.098 Z0.027
X33.132 Z0.031
X33.17 Y15.808
X33.203 Y15.83
X33.224 Y15.862
X33.232 Y15.901
X33.224 Y15.939
X33.203 Y15.971
X33.17 Y15.993
X33.132 Y16.001
X33.098 Z0.027
X33.066 Z0.015
X33.034 Z0.004
X33. Z0.
X31.5
Z-16.667
X29.81 Z-16.681
X28.5 Z-16.667
Z0.
X27.
X26.966 Z0.004
X26.934 Z0.015
X26.902 Z0.027
X26.868 Z0.031
X26.83 Y16.008
X26.797 Y16.03
X26.776 Y16.062
X26.768 Y16.101
X26.776 Y16.139
X26.797 Y16.171
X26.83 Y16.193
X26.868 Y16.201
X26.902 Z0.027
X26.934 Z0.015
X26.966 Z0.004
X27. Z0.
X28.5
Z-16.703
X29.81 Z-16.718
X31.5 Z-16.703
Z0.
X33.
X33.034 Z0.004
X33.066 Z0.015
X33.098 Z0.027
X33.132 Z0.031
X33.17 Y16.208
X33.203 Y16.23
X33.224 Y16.262
X33.232 Y16.301
X33.224 Y16.339
X33.203 Y16.371
X33.17 Y16.393
X33.132 Y16.401
X33.098 Z0.027
X33.066 Z0.015
X33.034 Z0.004
X33. Z0.
X31.5
Z-16.739
X29.81 Z-16.754
X28.5 Z-16.739
Z0.
X27.
X26.966 Z0.004
X26.934 Z0.015
X26.902 Z0.027
X26.868 Z0.031
X26.83 Y16.408
X26.797 Y16.43
X26.776 Y16.462
X26.768 Y16.501
X26.776 Y16.539
X26.797 Y16.571
X26.83 Y16.593
X26.868 Y16.601
X26.902 Z0.027
X26.934 Z0.015
X26.966 Z0.004
X27. Z0.
X28.5
Z-16.776
X29.925 Z-16.791
X31.5 Z-16.776
Z0.
X33.
X33.034 Z0.004
X33.066 Z0.015
X33.098 Z0.027
X33.132 Z0.031
X33.17 Y16.608
X33.203 Y16.63
X33.224 Y16.662
X33.232 Y16.701
X33.224 Y16.739
X33.203 Y16.771
X33.17 Y16.793
X33.132 Y16.801
X33.098 Z0.027
X33.066 Z0.015
X33.034 Z0.004
X33. Z0.
X31.5
Z-16.812
X29.925 Z-16.827
X28.5 Z-16.812
Z0.
X27.
X26.966 Z0.004
X26.934 Z0.015
X26.902 Z0.027
X26.868 Z0.031
X26.83 Y16.808
X26.797 Y16.83
X26.776 Y16.862
X26.768 Y16.901
X26.776 Y16.939
X26.797 Y16.971
X26.83 Y16.993
X26.868 Y17.001
X26.902 Z0.027
X26.934 Z0.015
X26.966 Z0.004
X27. Z0.
X28.5
Z-16.848
X29.94 Z-16.863
X31.5 Z-16.848
Z0.
X33.
X33.034 Z0.004
X33.066 Z0.015
X33.098 Z0.027
X33.132 Z0.031
X33.17 Y17.008
X33.203 Y17.03
X33.224 Y17.062
X33.232 Y17.101
X33.224 Y17.139
X33.203 Y17.171
X33.17 Y17.193
X33.132 Y17.201
X33.098 Z0.027
X33.066 Z0.015
X33.034 Z0.004
X33. Z0.
X31.5
Z-16.884
X29.94 Z-16.9
X28.5 Z-16.884
Z0.
X27.
X26.966 Z0.004
X26.934 Z0.015
X26.902 Z0.027
X26.868 Z0.031
X26.83 Y17.208
X26.797 Y17.23
X26.776 Y17.262
X26.768 Y17.3
X26.776 Y17.339
X26.797 Y17.371
X26.83 Y17.393
X26.868 Y17.4
X26.902 Z0.027
X26.934 Z0.015
X26.966 Z0.004
X27. Z0.
X28.5
Z-16.92
X29.963 Z-16.936
X31.5 Z-16.92
Z0.
X33.
X33.034 Z0.004
X33.066 Z0.015
X33.098 Z0.027
X33.132 Z0.031
X33.17 Y17.408
X33.203 Y17.43
X33.224 Y17.462
X33.232 Y17.5
X33.224 Y17.539
X33.203 Y17.571
X33.17 Y17.593
X33.132 Y17.6
X33.098 Z0.027
X33.066 Z0.015
X33.034 Z0.004
X33. Z0.
X31.5
Z-16.956
X29.963 Z-16.972
X28.5 Z-16.956
Z0.
X27.
X26.966 Z0.004
X26.934 Z0.015
X26.902 Z0.027
X26.868 Z0.031
X26.83 Y17.608
X26.797 Y17.63
X26.776 Y17.662
X26.768 Y17.7
X26.776 Y17.739
X26.797 Y17.771
X26.83 Y17.793
X26.868 Y17.8
X26.902 Z0.027
X26.934 Z0.015
X26.966 Z0.004
X27. Z0.
X28.5
Z-16.992
X29.974 Z-17.009
X31.5 Z-16.992
Z0.
X33.
X33.034 Z0.004
X33.066 Z0.015
X33.098 Z0.027
X33.132 Z0.031
X33.138
X33.177 Y17.808
X33.209 Y17.83
X33.231 Y17.862
X33.238 Y17.9
X33.231 Y17.939
X33.209 Y17.971
X33.177 Y17.993
X33.138 Y18.
X33.104 Z0.027
X33.072 Z0.015
X33.04 Z0.004
X33.006 Z0.
X31.504
X31.502 Z-17.028
X29.988 Z-17.045
X28.497 Z-17.028
X28.496 Z0.
X26.994
X26.96 Z0.004
X26.928 Z0.015
X26.896 Z0.027
X26.862 Z0.031
X26.852
X26.813 Y18.008
X26.781 Y18.03
X26.759 Y18.062
X26.752 Y18.1
X26.759 Y18.139
X26.781 Y18.171
X26.813 Y18.193
X26.852 Y18.2
X26.886 Z0.027
X26.918 Z0.015
X26.95 Z0.004
X26.984 Z0.
X28.484
X28.49 Z-17.064
X29.996 Z-17.081
X31.51 Z-17.064
X31.514 Z0.
X33.016
X33.05 Z0.004
X33.082 Z0.015
X33.114 Z0.027
X33.148 Z0.031
X33.171
X33.209 Y18.208
X33.242 Y18.23
X33.263 Y18.262
X33.271 Y18.3
X33.263 Y18.339
X33.242 Y18.371
X33.209 Y18.393
X33.171 Y18.4
X33.137 Z0.027
X33.105 Z0.015
X33.073 Z0.004
X33.039 Z0.
X31.525
X31.522 Z-17.1
X30.064 Z-17.118
X28.634 Z-17.103
X28.475 Z-17.1
Z0.
X26.961
X26.927 Z0.004
X26.895 Z0.015
X26.863 Z0.027
X26.829 Z0.031
X26.799
X26.761 Y18.408
X26.728 Y18.43
X26.706 Y18.462
X26.699 Y18.5
X26.706 Y18.539
X26.728 Y18.571
X26.761 Y18.593
X26.799 Y18.6
X26.833 Z0.027
X26.865 Z0.015
X26.897 Z0.004
X26.931 Z0.
X28.448
X28.452 Z-17.135
X28.606 Z-17.139
X30.093 Z-17.154
X31.548 Z-17.135
X31.552 Z0.
X33.069
X33.103 Z0.004
X33.135 Z0.015
X33.167 Z0.027
X33.201 Z0.031
X33.245
X33.283 Y18.608
X33.316 Y18.63
X33.337 Y18.662
X33.345 Y18.7
X33.337 Y18.739
X33.316 Y18.771
X33.283 Y18.793
X33.245 Y18.8
X33.211 Z0.027
X33.179 Z0.015
X33.147 Z0.004
X33.113 Z0.
X31.582
X31.581 Z-17.17
X30.142 Z-17.19
X28.713 Z-17.177
X28.419 Z-17.17
X28.418 Z0.
X26.887
X26.853 Z0.004
X26.821 Z0.015
X26.789 Z0.027
X26.755 Z0.031
X26.704
X26.666 Y18.808
X26.633 Y18.83
X26.612 Y18.862
X26.604 Y18.9
X26.612 Y18.939
X26.633 Y18.971
X26.666 Y18.993
X26.704 Y19.
X26.738 Z0.027
X26.77 Z0.015
X26.802 Z0.004
X26.836 Z0.
X28.383
Z-17.206
X28.7 Z-17.213
X30.13 Z-17.227
X31.616 Z-17.205
X31.617 Z0.
X33.164
X33.198 Z0.004
X33.23 Z0.015
X33.262 Z0.027
X33.296 Z0.031
X33.363
X33.401 Y19.008
X33.433 Y19.03
X33.455 Y19.062
X33.463 Y19.1
X33.455 Y19.139
X33.433 Y19.171
X33.401 Y19.193
X33.363 Y19.2
X33.329 Z0.027
X33.297 Z0.015
X33.265 Z0.004
X33.231 Z0.
X31.667
X31.664 Z-17.24
X30.304 Z-17.263
X28.847 Z-17.252
X28.336 Z-17.24
X28.333 Z0.
X26.769
X26.735 Z0.004
X26.703 Z0.015
X26.671 Z0.027
X26.637 Z0.031
X26.564
X26.526 Y19.208
X26.494 Y19.23
X26.472 Y19.262
X26.464 Y19.3
X26.472 Y19.339
X26.494 Y19.371
X26.526 Y19.393
X26.564 Y19.4
X26.598 Z0.027
X26.63 Z0.015
X26.663 Z0.004
X26.696 Z0.
X28.282
X28.283 Z-17.275
X28.774 Z-17.287
X30.204 Z-17.299
X31.716 Z-17.275
X31.718 Z0.
X33.304
X33.337 Z0.004
X33.37 Z0.015
X33.402 Z0.027
X33.436 Z0.031
X33.528
X33.567 Y19.408
X33.599 Y19.43
X33.621 Y19.462
X33.628 Y19.5
X33.621 Y19.539
X33.599 Y19.571
X33.567 Y19.593
X33.528 Y19.6
X33.495 Z0.027
X33.462 Z0.015
X33.43 Z0.004
X33.396 Z0.
X31.78
X31.778 Z-17.309
X30.428 Z-17.335
X28.943 Z-17.326
X28.222 Z-17.309
X28.22 Z0.
X26.604
X26.57 Z0.004
X26.538 Z0.015
X26.505 Z0.027
X26.472 Z0.031
X26.374
X26.335 Y19.608
X26.303 Y19.63
X26.281 Y19.662
X26.274 Y19.7
X26.281 Y19.739
X26.303 Y19.771
X26.335 Y19.793
X26.374 Y19.8
X26.408 Z0.027
X26.44 Z0.015
X26.472 Z0.004
X26.506 Z0.
X28.143
X28.15 Z-17.34
X28.899 Z-17.362
X30.356 Z-17.372
X31.85 Z-17.343
X31.853 Z0.
X33.494
X33.528 Z0.004
X33.56 Z0.015
X33.592 Z0.027
X33.626 Z0.031
X33.748
X33.787 Y19.808
X33.819 Y19.83
X33.841 Y19.862
X33.848 Y19.9
X33.841 Y19.939
X33.819 Y19.971
X33.787 Y19.993
X33.748 Y20.
X33.715 Z0.027
X33.682 Z0.015
X33.65 Z0.004
X33.616 Z0.
X31.927
Z-17.376
X30.389 Z-17.408
X28.918 Z-17.398
X28.073 Z-17.376
X28.072 Z0.
X26.384
X26.35 Z0.004
X26.318 Z0.015
X26.285 Z0.027
X26.252 Z0.031
X26.119
X26.081 Y20.008
X26.048 Y20.03
X26.026 Y20.062
X26.019 Y20.1
X26.026 Y20.139
X26.048 Y20.171
X26.081 Y20.193
X26.119 Y20.2
X26.153 Z0.027
X26.185 Z0.015
X26.217 Z0.004
X26.251 Z0.
X27.979
X27.983 Z-17.408
X29.273 Z-17.441
X30.6 Z-17.442
X32.016 Z-17.408
X32.021 Z0.
X33.749
X33.783 Z0.004
X33.815 Z0.015
X33.847 Z0.027
X33.881 Z0.031
X34.033
X34.071 Y20.208
X34.103 Y20.23
X34.125 Y20.262
X34.133 Y20.3
X34.125 Y20.339
X34.103 Y20.371
X34.071 Y20.393
X34.033 Y20.4
X33.999 Z0.027
X33.967 Z0.015
X33.935 Z0.004
X33.901 Z0.
X32.117
X32.115 Z-17.44
X30.648 Z-17.478
X29.321 Z-17.477
X27.885 Z-17.44
X27.883 Z0.
X26.099
X26.065 Z0.004
X26.033 Z0.015
X26.001 Z0.027
X25.967 Z0.031
X25.79
X25.751 Y20.408
X25.719 Y20.43
X25.697 Y20.462
X25.69 Y20.5
X25.697 Y20.539
X25.719 Y20.571
X25.751 Y20.593
X25.79 Y20.6
X25.824 Z0.027
X25.856 Z0.015
X25.888 Z0.004
X25.922 Z0.
X27.775
X27.777 Z-17.471
X28.123 Z-17.485
X29.598 Z-17.517
X30.897 Z-17.51
X32.223 Z-17.471
X32.225 Z0.
X34.078
X34.112 Z0.004
X34.144 Z0.015
X34.176 Z0.027
X34.21 Z0.031
X34.409
X34.447 Y20.608
X34.479 Y20.63
X34.501 Y20.662
X34.509 Y20.7
X34.501 Y20.739
X34.479 Y20.771
X34.447 Y20.793
X34.409 Y20.8
X34.375 Z0.027
X34.342 Z0.015
X34.31 Z0.004
X34.276 Z0.
X32.347
X32.345 Z-17.501
X31.037 Z-17.544
X29.795 Z-17.554
X28.39 Z-17.529
X27.655 Z-17.501
X27.653 Z0.
X25.724
X25.69 Z0.004
X25.658 Z0.015
X25.625 Z0.027
X25.591 Z0.031
X25.365
X25.327 Y20.808
X25.294 Y20.83
X25.273 Y20.862
X25.265 Y20.9
X25.273 Y20.939
X25.294 Y20.971
X25.327 Y20.993
X25.365 Y21.
X25.399 Z0.027
X25.431 Z0.015
X25.463 Z0.004
X25.497 Z0.
X27.526
Z-17.53
X28.373 Z-17.564
X29.763 Z-17.59
X31.116 Z-17.578
X32.474 Z-17.53
Z0.
X34.503
X34.537 Z0.004
X34.569 Z0.015
X34.601 Z0.027
X34.635 Z0.031
X34.913
X34.951 Y21.008
X34.983 Y21.03
X35.005 Y21.062
X35.013 Y21.1
X35.005 Y21.139
X34.983 Y21.171
X34.951 Y21.193
X34.913 Y21.2
X34.879 Z0.027
X34.847 Z0.015
X34.814 Z0.004
X34.781 Z0.
X32.625
X32.619 Z-17.558
X31.239 Z-17.611
X30.017 Z-17.627
X28.722 Z-17.61
X27.381 Z-17.558
X27.375 Z0.
X25.219
X25.186 Z0.004
X25.153 Z0.015
X25.121 Z0.027
X25.087 Z0.031
X24.753
X24.715 Y21.208
X24.682 Y21.23
X24.661 Y21.262
X24.653 Y21.3
X24.661 Y21.339
X24.682 Y21.371
X24.715 Y21.393
X24.753 Y21.4
X24.787 Z0.027
X24.819 Z0.015
X24.851 Z0.004
X24.885 Z0.
X27.222
Z-17.584
X27.364 Z-17.592
X28.737 Z-17.647
X30.032 Z-17.663
X31.377 Z-17.644
X32.778 Z-17.584
Z0.
X35.115
X35.149 Z0.004
X35.181 Z0.015
X35.213 Z0.027
X35.247 Z0.031
X35.674
X35.713 Y21.408
X35.745 Y21.43
X35.767 Y21.462
X35.774 Y21.5
X35.767 Y21.539
X35.745 Y21.571
X35.713 Y21.593
X35.674 Y21.6
X35.64 Z0.027
X35.608 Z0.015
X35.576 Z0.004
X35.542 Z0.
X32.96
X32.956 Z-17.608
X31.554 Z-17.674
X30.205 Z-17.699
X28.973 Z-17.688
X27.643 Z-17.641
X27.044 Z-17.608
X27.04 Z0.
X24.458
G3 X24.158 Z0.3 I0. K0.3
G1 Z6.
X12.313 Y16.201
Z2.
Z0.3
G3 X12.013 Z0. I-0.3 K0.
G1 X9.872
X9.838 Z0.004
X9.806 Z0.015
X9.774 Z0.027
X9.74 Z0.031
X9.326
X9.288 Y16.208
X9.255 Y16.23
X9.233 Y16.262
X9.226 Y16.301
X9.233 Y16.339
X9.255 Y16.371
X9.288 Y16.393
X9.326 Y16.401
X9.36 Z0.027
X9.392 Z0.015
X9.424 Z0.004
X9.458 Z0.
X12.445
X12.479 Z0.004
X12.511 Z0.015
X12.543 Z0.027
X12.577 Z0.031
X12.923
X12.962 Y16.408
X12.994 Y16.43
X13.016 Y16.462
X13.023 Y16.501
X13.016 Y16.539
X12.994 Y16.571
X12.962 Y16.593
X12.923 Y16.601
X12.89 Z0.027
X12.857 Z0.015
X12.825 Z0.004
X12.791 Z0.
X9.154
X9.12 Z0.004
X9.088 Z0.015
X9.056 Z0.027
X9.022 Z0.031
X8.781
X8.743 Y16.608
X8.711 Y16.63
X8.689 Y16.662
X8.681 Y16.701
X8.689 Y16.739
X8.711 Y16.771
X8.743 Y16.793
X8.781 Y16.801
X8.815 Z0.027
X8.847 Z0.015
X8.879 Z0.004
X8.913 Z0.
X13.138
X13.172 Z0.004
X13.204 Z0.015
X13.236 Z0.027
X13.27 Z0.031
X13.616
X13.655 Y16.808
X13.687 Y16.83
X13.709 Y16.862
X13.716 Y16.901
X13.709 Y16.939
X13.687 Y16.971
X13.655 Y16.993
X13.616 Y17.001
X13.582 Z0.027
X13.55 Z0.015
X13.518 Z0.004
X13.484 Z0.
X8.714
X8.68 Z0.004
X8.648 Z0.015
X8.616 Z0.027
X8.582 Z0.031
X8.417
X8.378 Y17.008
X8.346 Y17.03
X8.324 Y17.062
X8.317 Y17.101
X8.324 Y17.139
X8.346 Y17.171
X8.378 Y17.193
X8.417 Y17.201
X8.45 Z0.027
X8.483 Z0.015
X8.515 Z0.004
X8.549 Z0.
X13.831
X13.865 Z0.004
X13.897 Z0.015
X13.929 Z0.027
X13.963 Z0.031
X14.309
X14.347 Y17.208
X14.38 Y17.23
X14.401 Y17.262
X14.409 Y17.3
X14.401 Y17.339
X14.38 Y17.371
X14.347 Y17.393
X14.309 Y17.4
X14.275 Z0.027
X14.243 Z0.015
X14.211 Z0.004
X14.177 Z0.
X8.415
X8.381 Z0.004
X8.348 Z0.015
X8.316 Z0.027
X8.282 Z0.031
X8.167
X8.128 Y17.408
X8.096 Y17.43
X8.074 Y17.462
X8.067 Y17.5
X8.074 Y17.539
X8.096 Y17.571
X8.128 Y17.593
X8.167 Y17.6
X8.2 Z0.027
X8.233 Z0.015
X8.265 Z0.004
X8.299 Z0.
X10.412
X10.417 Z-15.013
X11.474 Z-15.174
Z0.
X14.523
X14.557 Z0.004
X14.589 Z0.015
X14.622 Z0.027
X14.655 Z0.031
X15.002
X15.04 Y17.608
X15.073 Y17.63
X15.094 Y17.662
X15.102 Y17.7
X15.094 Y17.739
X15.073 Y17.771
X15.04 Y17.793
X15.002 Y17.8
X14.968 Z0.027
X14.936 Z0.015
X14.904 Z0.004
X14.87 Z0.
X11.87
Z-15.254
X10.054 Z-14.976
X10.051 Z0.
X8.198
X8.164 Z0.004
X8.132 Z0.015
X8.1 Z0.027
X8.066 Z0.031
X7.991
X7.953 Y17.808
X7.921 Y17.83
X7.899 Y17.862
X7.891 Y17.9
X7.899 Y17.939
X7.921 Y17.971
X7.953 Y17.993
X7.991 Y18.
X8.025 Z0.027
X8.057 Z0.015
X8.09 Z0.004
X8.123 Z0.
X9.834
Z-14.961
X12.216 Z-15.327
Z0.
X15.216
X15.25 Z0.004
X15.282 Z0.015
X15.314 Z0.027
X15.348 Z0.031
X15.695
X15.733 Y18.008
X15.765 Y18.03
X15.787 Y18.062
X15.795 Y18.1
X15.787 Y18.139
X15.765 Y18.171
X15.733 Y18.193
X15.695 Y18.2
X15.661 Z0.027
X15.629 Z0.015
X15.597 Z0.004
X15.563 Z0.
X12.563
Z-15.399
X9.684 Z-14.956
X9.68 Z0.
X8.06
X8.026 Z0.004
X7.994 Z0.015
X7.962 Z0.027
X7.928 Z0.031
X7.878
X7.84 Y18.208
X7.807 Y18.23
X7.786 Y18.262
X7.778 Y18.3
X7.786 Y18.339
X7.807 Y18.371
X7.84 Y18.393
X7.878 Y18.4
X7.912 Z0.027
X7.944 Z0.015
X7.976 Z0.004
X8.01 Z0.
X9.575
X9.576 Z-14.957
X12.909 Z-15.472
Z0.
X15.909
X15.943 Z0.004
X15.975 Z0.015
X16.007 Z0.027
X16.041 Z0.031
X16.387
X16.426 Y18.408
X16.458 Y18.43
X16.48 Y18.462
X16.487 Y18.5
X16.48 Y18.539
X16.458 Y18.571
X16.426 Y18.593
X16.387 Y18.6
X16.354 Z0.027
X16.321 Z0.015
X16.289 Z0.004
X16.255 Z0.
X13.255
Z-15.544
X9.506 Z-14.963
Z0.
X7.979
X7.945 Z0.004
X7.913 Z0.015
X7.881 Z0.027
X7.847 Z0.031
X7.823
X7.785 Y18.608
X7.753 Y18.63
X7.731 Y18.662
X7.723 Y18.7
X7.731 Y18.739
X7.753 Y18.771
X7.785 Y18.793
X7.823 Y18.8
X7.857 Z0.027
X7.889 Z0.015
X7.921 Z0.004
X7.955 Z0.
X9.463
X9.466 Z-14.974
X13.602 Z-15.617
Z0.
X16.602
X16.636 Z0.004
X16.668 Z0.015
X16.7 Z0.027
X16.734 Z0.031
X17.08
X17.119 Y18.808
X17.151 Y18.83
X17.173 Y18.862
X17.18 Y18.9
X17.173 Y18.939
X17.151 Y18.971
X17.119 Y18.993
X17.08 Y19.
X17.046 Z0.027
X17.014 Z0.015
X16.982 Z0.004
X16.948 Z0.
X13.948
Z-15.689
X9.789 Z-15.044
X9.452 Z-14.99
Z0.
X7.952
X7.918 Z0.004
X7.886 Z0.015
X7.853 Z0.027
X7.82 Z0.031
X7.781 Y19.008
X7.749 Y19.03
X7.727 Y19.062
X7.72 Y19.1
X7.727 Y19.139
X7.749 Y19.171
X7.781 Y19.193
X7.82 Y19.2
X7.826
X7.86 Z0.027
X7.892 Z0.015
X7.924 Z0.004
X7.958 Z0.
X9.464
X9.465 Z-15.009
X10.172 Z-15.122
X14.295 Z-15.762
Z0.
X17.295
X17.329 Z0.004
X17.361 Z0.015
X17.393 Z0.027
X17.427 Z0.031
X17.773
X17.811 Y19.208
X17.844 Y19.23
X17.865 Y19.262
X17.873 Y19.3
X17.865 Y19.339
X17.844 Y19.371
X17.811 Y19.393
X17.773 Y19.4
X17.739 Z0.027
X17.707 Z0.015
X17.675 Z0.004
X17.641 Z0.
X14.641
Z-15.834
X10.556 Z-15.201
X9.505 Z-15.032
X9.504 Z0.
X7.977
X7.943 Z0.004
X7.911 Z0.015
X7.878 Z0.027
X7.845 Z0.031
X7.806 Y19.408
X7.774 Y19.43
X7.752 Y19.462
X7.745 Y19.5
X7.752 Y19.539
X7.774 Y19.571
X7.806 Y19.593
X7.845 Y19.6
X7.881
X7.915 Z0.027
X7.947 Z0.015
X7.979 Z0.004
X8.013 Z0.
X9.578
Z-15.06
X10.938 Z-15.279
X14.987 Z-15.907
Z0.
X17.987
X18.021 Z0.004
X18.053 Z0.015
X18.086 Z0.027
X18.119 Z0.031
X18.466
X18.504 Y19.608
X18.537 Y19.63
X18.558 Y19.662
X18.566 Y19.7
X18.558 Y19.739
X18.537 Y19.771
X18.504 Y19.793
X18.466 Y19.8
X18.432 Z0.027
X18.4 Z0.015
X18.368 Z0.004
X18.334 Z0.
X15.334
Z-15.979
X11.321 Z-15.358
X9.684 Z-15.094
X9.681 Z0.
X8.058
X8.024 Z0.004
X7.992 Z0.015
X7.959 Z0.027
X7.926 Z0.031
X7.887 Y19.808
X7.855 Y19.83
X7.833 Y19.862
X7.826 Y19.9
X7.833 Y19.939
X7.855 Y19.971
X7.887 Y19.993
X7.926 Y20.
X7.991
X8.025 Z0.027
X8.057 Z0.015
X8.089 Z0.004
X8.123 Z0.
X9.834
X9.835 Z-15.135
X11.701 Z-15.436
X15.68 Z-16.052
Z0.
X18.68
X18.714 Z0.004
X18.746 Z0.015
X18.778 Z0.027
X18.812 Z0.031
X19.159
X19.197 Y20.008
X19.229 Y20.03
X19.251 Y20.062
X19.259 Y20.1
X19.251 Y20.139
X19.229 Y20.171
X19.197 Y20.193
X19.159 Y20.2
X19.125 Z0.027
X19.093 Z0.015
X19.061 Z0.004
X19.027 Z0.
X16.027
Z-16.124
X12.102 Z-15.517
X10.053 Z-15.186
Z0.
X8.203
X8.169 Z0.004
X8.137 Z0.015
X8.105 Z0.027
X8.071 Z0.031
X8.032 Y20.208
X8. Y20.23
X7.978 Y20.262
X7.971 Y20.3
X7.978 Y20.339
X8. Y20.371
X8.032 Y20.393
X8.071 Y20.4
X8.162
X8.196 Z0.027
X8.228 Z0.015
X8.261 Z0.004
X8.294 Z0.
X10.373
Z-15.255
X12.505 Z-15.599
X16.373 Z-16.197
Z0.
X19.373
X19.407 Z0.004
X19.439 Z0.015
X19.471 Z0.027
X19.505 Z0.031
X19.851
X19.89 Y20.408
X19.922 Y20.43
X19.944 Y20.462
X19.951 Y20.5
X19.944 Y20.539
X19.922 Y20.571
X19.89 Y20.593
X19.851 Y20.6
X19.818 Z0.027
X19.785 Z0.015
X19.753 Z0.004
X19.719 Z0.
X16.719
Z-16.269
X12.905 Z-15.68
X10.719 Z-15.327
Z0.
X8.415
X8.381 Z0.004
X8.349 Z0.015
X8.317 Z0.027
X8.283 Z0.031
X8.244 Y20.608
X8.212 Y20.63
X8.19 Y20.662
X8.183 Y20.7
X8.19 Y20.739
X8.212 Y20.771
X8.244 Y20.793
X8.283 Y20.8
X8.421
X8.455 Z0.027
X8.487 Z0.015
X8.52 Z0.004
X8.553 Z0.
X11.066
Z-15.4
X13.306 Z-15.762
X17.066 Z-16.341
Z0.
X20.066
X20.1 Z0.004
X20.132 Z0.015
X20.164 Z0.027
X20.198 Z0.031
X20.544
X20.583 Y20.808
X20.615 Y20.83
X20.637 Y20.862
X20.644 Y20.9
X20.637 Y20.939
X20.615 Y20.971
X20.583 Y20.993
X20.544 Y21.
X20.51 Z0.027
X20.478 Z0.015
X20.446 Z0.004
X20.412 Z0.
X17.412
Z-16.414
X13.688 Z-15.84
X11.412 Z-15.472
Z0.
X8.715
X8.681 Z0.004
X8.649 Z0.015
X8.617 Z0.027
X8.583 Z0.031
X8.545 Y21.008
X8.513 Y21.03
X8.491 Y21.062
X8.483 Y21.1
X8.491 Y21.139
X8.513 Y21.171
X8.545 Y21.193
X8.583 Y21.2
X8.776
X8.81 Z0.027
X8.842 Z0.015
X8.874 Z0.004
X8.908 Z0.
X11.758
X11.759 Z-15.545
X14.09 Z-15.922
X17.759 Z-16.486
Z0.
X20.759
X20.793 Z0.004
X20.825 Z0.015
X20.857 Z0.027
X20.891 Z0.031
X21.25
X21.289 Y21.208
X21.321 Y21.23
X21.343 Y21.262
X21.35 Y21.3
X21.343 Y21.339
X21.321 Y21.371
X21.289 Y21.393
X21.25 Y21.4
X21.216 Z0.027
X21.184 Z0.015
X21.152 Z0.004
X21.118 Z0.
X18.105
Z-16.559
X14.472 Z-16.
X12.105 Z-15.617
X12.104 Z0.
X9.15
X9.116 Z0.004
X9.084 Z0.015
X9.052 Z0.027
X9.018 Z0.031
X8.979 Y21.408
X8.947 Y21.43
X8.925 Y21.462
X8.918 Y21.5
X8.925 Y21.539
X8.947 Y21.571
X8.979 Y21.593
X9.018 Y21.6
X9.319
X9.353 Z0.027
X9.385 Z0.015
X9.417 Z0.004
X9.451 Z0.
X12.451
Z-15.69
X14.855 Z-16.078
X18.451 Z-16.631
Z0.
X21.555
X21.589 Z0.004
X21.621 Z0.015
X21.653 Z0.027
X21.687 Z0.031
X22.383
X22.422 Y21.608
X22.454 Y21.63
X22.476 Y21.662
X22.483 Y21.7
X22.476 Y21.739
X22.454 Y21.771
X22.422 Y21.793
X22.383 Y21.8
X22.349 Z0.027
X22.317 Z0.015
X22.285 Z0.004
X22.251 Z0.
X18.798
Z-16.703
X15.276 Z-16.163
X12.798 Z-15.762
X12.797 Z0.
X9.798
G17 G3 X9.348 Y21.35 I0. J-0.45
G1 Y16.651
G3 X9.798 Y16.201 I0.45 J0.
G1 X47.987
X50.128
X50.162 Z0.004
X50.194 Z0.015
X50.226 Z0.027
X50.26 Z0.031
X50.674
X50.712 Y16.208
X50.745 Y16.23
X50.766 Y16.262
X50.774 Y16.301
X50.766 Y16.339
X50.745 Y16.371
X50.712 Y16.393
X50.674 Y16.401
X50.64 Z0.027
X50.608 Z0.015
X50.576 Z0.004
X50.542 Z0.
X47.555
X47.521 Z0.004
X47.489 Z0.015
X47.457 Z0.027
X47.423 Z0.031
X47.077
X47.038 Y16.408
X47.006 Y16.43
X46.984 Y16.462
X46.977 Y16.501
X46.984 Y16.539
X47.006 Y16.571
X47.038 Y16.593
X47.077 Y16.601
X47.11 Z0.027
X47.143 Z0.015
X47.175 Z0.004
X47.209 Z0.
X50.846
X50.88 Z0.004
X50.912 Z0.015
X50.944 Z0.027
X50.978 Z0.031
X51.219
X51.257 Y16.608
X51.289 Y16.63
X51.311 Y16.662
X51.319 Y16.701
X51.311 Y16.739
X51.289 Y16.771
X51.257 Y16.793
X51.219 Y16.801
X51.185 Z0.027
X51.153 Z0.015
X51.121 Z0.004
X51.087 Z0.
X46.862
X46.828 Z0.004
X46.796 Z0.015
X46.764 Z0.027
X46.73 Z0.031
X46.384
X46.345 Y16.808
X46.313 Y16.83
X46.291 Y16.862
X46.284 Y16.901
X46.291 Y16.939
X46.313 Y16.971
X46.345 Y16.993
X46.384 Y17.001
X46.418 Z0.027
X46.45 Z0.015
X46.482 Z0.004
X46.516 Z0.
X51.286
X51.32 Z0.004
X51.352 Z0.015
X51.384 Z0.027
X51.418 Z0.031
X51.584
X51.622 Y17.008
X51.654 Y17.03
X51.676 Y17.062
X51.684 Y17.101
X51.676 Y17.139
X51.654 Y17.171
X51.622 Y17.193
X51.584 Y17.201
X51.55 Z0.027
X51.517 Z0.015
X51.485 Z0.004
X51.451 Z0.
X46.169
X46.135 Z0.004
X46.103 Z0.015
X46.071 Z0.027
X46.037 Z0.031
X45.691
X45.653 Y17.208
X45.62 Y17.23
X45.599 Y17.262
X45.591 Y17.3
X45.599 Y17.339
X45.62 Y17.371
X45.653 Y17.393
X45.691 Y17.4
X45.725 Z0.027
X45.757 Z0.015
X45.789 Z0.004
X45.823 Z0.
X51.585
X51.619 Z0.004
X51.652 Z0.015
X51.684 Z0.027
X51.718 Z0.031
X51.833
X51.872 Y17.408
X51.904 Y17.43
X51.926 Y17.462
X51.933 Y17.5
X51.926 Y17.539
X51.904 Y17.571
X51.872 Y17.593
X51.833 Y17.6
X51.8 Z0.027
X51.767 Z0.015
X51.735 Z0.004
X51.701 Z0.
X49.583
Z-15.013
X48.526 Z-15.174
Z0.
X45.477
X45.443 Z0.004
X45.411 Z0.015
X45.378 Z0.027
X45.345 Z0.031
X44.998
X44.96 Y17.608
X44.927 Y17.63
X44.906 Y17.662
X44.898 Y17.7
X44.906 Y17.739
X44.927 Y17.771
X44.96 Y17.793
X44.998 Y17.8
X45.032 Z0.027
X45.064 Z0.015
X45.096 Z0.004
X45.13 Z0.
X48.13
Z-15.254
X49.946 Z-14.976
Z0.
X51.802
X51.836 Z0.004
X51.868 Z0.015
X51.9 Z0.027
X51.934 Z0.031
X52.009
X52.047 Y17.808
X52.079 Y17.83
X52.101 Y17.862
X52.109 Y17.9
X52.101 Y17.939
X52.079 Y17.971
X52.047 Y17.993
X52.009 Y18.
X51.975 Z0.027
X51.943 Z0.015
X51.91 Z0.004
X51.877 Z0.
X50.166
Z-14.961
X47.784 Z-15.327
Z0.
X44.784
X44.75 Z0.004
X44.718 Z0.015
X44.686 Z0.027
X44.652 Z0.031
X44.305
X44.267 Y18.008
X44.235 Y18.03
X44.213 Y18.062
X44.205 Y18.1
X44.213 Y18.139
X44.235 Y18.171
X44.267 Y18.193
X44.305 Y18.2
X44.339 Z0.027
X44.371 Z0.015
X44.403 Z0.004
X44.437 Z0.
X47.433
X47.437 Z-15.399
X50.316 Z-14.956
Z0.
X51.94
X51.974 Z0.004
X52.006 Z0.015
X52.038 Z0.027
X52.072 Z0.031
X52.122
X52.16 Y18.208
X52.193 Y18.23
X52.214 Y18.262
X52.222 Y18.3
X52.214 Y18.339
X52.193 Y18.371
X52.16 Y18.393
X52.122 Y18.4
X52.088 Z0.027
X52.056 Z0.015
X52.024 Z0.004
X51.99 Z0.
X50.425
X50.424 Z-14.957
X47.091 Z-15.472
X47.09 Z0.
X44.091
X44.057 Z0.004
X44.025 Z0.015
X43.993 Z0.027
X43.959 Z0.031
X43.613
X43.574 Y18.408
X43.542 Y18.43
X43.52 Y18.462
X43.513 Y18.5
X43.52 Y18.539
X43.542 Y18.571
X43.574 Y18.593
X43.613 Y18.6
X43.646 Z0.027
X43.679 Z0.015
X43.711 Z0.004
X43.745 Z0.
X46.744
X46.745 Z-15.544
X50.493 Z-14.963
X50.494 Z0.
X52.021
X52.055 Z0.004
X52.087 Z0.015
X52.119 Z0.027
X52.153 Z0.031
X52.177
X52.215 Y18.608
X52.247 Y18.63
X52.269 Y18.662
X52.277 Y18.7
X52.269 Y18.739
X52.247 Y18.771
X52.215 Y18.793
X52.177 Y18.8
X52.143 Z0.027
X52.111 Z0.015
X52.079 Z0.004
X52.045 Z0.
X50.535
Z-14.974
X46.398 Z-15.617
X46.396 Z0.
X43.398
X43.364 Z0.004
X43.332 Z0.015
X43.3 Z0.027
X43.266 Z0.031
X42.92
X42.881 Y18.808
X42.849 Y18.83
X42.827 Y18.862
X42.82 Y18.9
X42.827 Y18.939
X42.849 Y18.971
X42.881 Y18.993
X42.92 Y19.
X42.954 Z0.027
X42.986 Z0.015
X43.018 Z0.004
X43.052 Z0.
X46.052
Z-15.689
X46.301 Z-15.652
X50.548 Z-14.99
Z0.
X52.048
X52.082 Z0.004
X52.114 Z0.015
X52.147 Z0.027
X52.18 Z0.031
X52.219 Y19.008
X52.251 Y19.03
X52.273 Y19.062
X52.28 Y19.1
X52.273 Y19.139
X52.251 Y19.171
X52.219 Y19.193
X52.18 Y19.2
X52.174
X52.14 Z0.027
X52.108 Z0.015
X52.076 Z0.004
X52.042 Z0.
X50.536
X50.535 Z-15.009
X46.279 Z-15.675
X45.705 Z-15.762
Z0.
X42.705
X42.671 Z0.004
X42.639 Z0.015
X42.607 Z0.027
X42.573 Z0.031
X42.227
X42.189 Y19.208
X42.156 Y19.23
X42.135 Y19.262
X42.127 Y19.3
X42.135 Y19.339
X42.156 Y19.371
X42.189 Y19.393
X42.227 Y19.4
X42.261 Z0.027
X42.293 Z0.015
X42.325 Z0.004
X42.359 Z0.
X45.359
Z-15.834
X46.207 Z-15.706
X50.495 Z-15.032
Z0.
X52.023
X52.057 Z0.004
X52.089 Z0.015
X52.122 Z0.027
X52.156 Z0.031
X52.194 Y19.408
X52.226 Y19.43
X52.248 Y19.462
X52.256 Y19.5
X52.248 Y19.539
X52.226 Y19.571
X52.194 Y19.593
X52.156 Y19.6
X52.119
X52.085 Z0.027
X52.053 Z0.015
X52.021 Z0.004
X51.987 Z0.
X50.422
Z-15.06
X46.116 Z-15.74
X45.013 Z-15.907
Z0.
X42.013
X41.979 Z0.004
X41.947 Z0.015
X41.914 Z0.027
X41.881 Z0.031
X41.534
X41.496 Y19.608
X41.463 Y19.63
X41.442 Y19.662
X41.434 Y19.7
X41.442 Y19.739
X41.463 Y19.771
X41.496 Y19.793
X41.534 Y19.8
X41.568 Z0.027
X41.6 Z0.015
X41.632 Z0.004
X41.666 Z0.
X44.665
X44.666 Z-15.979
X45.98 Z-15.78
X50.313 Z-15.094
X50.316 Z0.
X51.943
X51.976 Z0.004
X52.009 Z0.015
X52.041 Z0.027
X52.075 Z0.031
X52.113 Y19.808
X52.145 Y19.83
X52.167 Y19.862
X52.175 Y19.9
X52.167 Y19.939
X52.145 Y19.971
X52.113 Y19.993
X52.075 Y20.
X52.009
X51.975 Z0.027
X51.943 Z0.015
X51.911 Z0.004
X51.877 Z0.
X50.165
Z-15.135
X45.845 Z-15.82
X44.32 Z-16.052
X44.316 Z0.
X41.32
X41.286 Z0.004
X41.254 Z0.015
X41.222 Z0.027
X41.188 Z0.031
X40.841
X40.803 Y20.008
X40.771 Y20.03
X40.749 Y20.062
X40.741 Y20.1
X40.749 Y20.139
X40.771 Y20.171
X40.803 Y20.193
X40.841 Y20.2
X40.875 Z0.027
X40.907 Z0.015
X40.939 Z0.004
X40.973 Z0.
X43.973
Z-16.124
X45.603 Z-15.877
X49.947 Z-15.186
X49.948 Z0.
X51.797
X51.831 Z0.004
X51.863 Z0.015
X51.896 Z0.027
X51.929 Z0.031
X51.968 Y20.208
X52. Y20.23
X52.022 Y20.262
X52.029 Y20.3
X52.022 Y20.339
X52. Y20.371
X51.968 Y20.393
X51.929 Y20.4
X51.838
X51.804 Z0.027
X51.772 Z0.015
X51.74 Z0.004
X51.706 Z0.
X49.627
Z-15.255
X45.317 Z-15.94
X43.627 Z-16.197
X43.626 Z0.
X40.627
X40.593 Z0.004
X40.561 Z0.015
X40.529 Z0.027
X40.495 Z0.031
X40.149
X40.11 Y20.408
X40.078 Y20.43
X40.056 Y20.462
X40.049 Y20.5
X40.056 Y20.539
X40.078 Y20.571
X40.11 Y20.593
X40.149 Y20.6
X40.182 Z0.027
X40.215 Z0.015
X40.247 Z0.004
X40.281 Z0.
X43.281
Z-16.269
X45.017 Z-16.006
X49.28 Z-15.327
X49.281 Z0.
X51.585
X51.619 Z0.004
X51.651 Z0.015
X51.683 Z0.027
X51.717 Z0.031
X51.756 Y20.608
X51.788 Y20.63
X51.81 Y20.662
X51.817 Y20.7
X51.81 Y20.739
X51.788 Y20.771
X51.756 Y20.793
X51.717 Y20.8
X51.579
X51.545 Z0.027
X51.513 Z0.015
X51.481 Z0.004
X51.447 Z0.
X48.934
Z-15.4
X44.71 Z-16.073
X42.934 Z-16.341
Z0.
X39.934
X39.9 Z0.004
X39.868 Z0.015
X39.836 Z0.027
X39.802 Z0.031
X39.456
X39.417 Y20.808
X39.385 Y20.83
X39.363 Y20.862
X39.356 Y20.9
X39.363 Y20.939
X39.385 Y20.971
X39.417 Y20.993
X39.456 Y21.
X39.49 Z0.027
X39.522 Z0.015
X39.554 Z0.004
X39.588 Z0.
X42.588
Z-16.414
X44.417 Z-16.137
X48.587 Z-15.472
X48.588 Z0.
X51.285
X51.319 Z0.004
X51.351 Z0.015
X51.383 Z0.027
X51.417 Z0.031
X51.455 Y21.008
X51.487 Y21.03
X51.509 Y21.062
X51.517 Y21.1
X51.509 Y21.139
X51.487 Y21.171
X51.455 Y21.193
X51.417 Y21.2
X51.224
X51.19 Z0.027
X51.158 Z0.015
X51.126 Z0.004
X51.092 Z0.
X48.242
X48.241 Z-15.545
X44.11 Z-16.204
X42.241 Z-16.486
Z0.
X39.241
X39.207 Z0.004
X39.175 Z0.015
X39.143 Z0.027
X39.109 Z0.031
X38.75
X38.711 Y21.208
X38.679 Y21.23
X38.657 Y21.262
X38.65 Y21.3
X38.657 Y21.339
X38.679 Y21.371
X38.711 Y21.393
X38.75 Y21.4
X38.784 Z0.027
X38.816 Z0.015
X38.848 Z0.004
X38.882 Z0.
X41.891
X41.895 Z-16.559
X43.799 Z-16.271
X47.895 Z-15.617
Z0.
X50.85
X50.884 Z0.004
X50.916 Z0.015
X50.949 Z0.027
X50.982 Z0.031
X51.021 Y21.408
X51.053 Y21.43
X51.075 Y21.462
X51.082 Y21.5
X51.075 Y21.539
X51.053 Y21.571
X51.021 Y21.593
X50.982 Y21.6
X50.681
X50.647 Z0.027
X50.615 Z0.015
X50.583 Z0.004
X50.549 Z0.
X47.549
X47.548 Z-15.69
X43.489 Z-16.338
X41.549 Z-16.631
Z0.
X38.445
X38.411 Z0.004
X38.379 Z0.015
X38.347 Z0.027
X38.313 Z0.031
X37.617
X37.578 Y21.608
X37.546 Y21.63
X37.524 Y21.662
X37.517 Y21.7
X37.524 Y21.739
X37.546 Y21.771
X37.578 Y21.793
X37.617 Y21.8
X37.651 Z0.027
X37.683 Z0.015
X37.715 Z0.004
X37.749 Z0.
X41.202
Z-16.703
X43.182 Z-16.404
X47.202 Z-15.762
Z0.
X50.203
X50.217 Z0.001
G18 G2 X50.62 Z0.493 I-0.045 K0.448
G1 X50.571 Z0.985
G2 X50.078 Z1.388 I-0.448 K-0.045
G1 X36.257 Z0.001
X36.242 Z0.
X33.147
Z-17.63
X31.756 Z-17.703
X30.55 Z-17.733
X29.223 Z-17.73
X27.911 Z-17.689
X26.853 Z-17.63
X26.852 Z0.
X23.758
X10.144
X10.106 Y21.808
X10.073 Y21.83
X10.052 Y21.862
X10.044 Y21.9
X10.052 Y21.939
X10.073 Y21.971
X10.106 Y21.993
X10.144 Y22.
X13.144
Z-15.835
X15.674 Z-16.244
X19.144 Z-16.775
Z0.
X26.628
X26.637 Z-17.649
X28.019 Z-17.729
X29.312 Z-17.767
X30.639 Z-17.768
X31.97 Z-17.729
X33.363 Z-17.649
X33.369 Z0.
X40.856
Z-16.775
X42.887 Z-16.469
X46.856 Z-15.835
Z0.
X49.856
X49.89 Z0.004
X49.922 Z0.015
X49.954 Z0.027
X49.988 Z0.031
X50.026 Y22.008
X50.059 Y22.03
X50.081 Y22.062
X50.088 Y22.1
X50.081 Y22.139
X50.059 Y22.171
X50.026 Y22.193
X49.988 Y22.2
X49.642
X49.608 Z0.027
X49.576 Z0.015
X49.544 Z0.004
X49.51 Z0.
X46.51
X46.509 Z-15.907
X42.561 Z-16.539
X40.509 Z-16.848
Z0.
X33.602
Z-17.665
X32.209 Z-17.753
X30.917 Z-17.799
X29.696 Z-17.808
X28.365 Z-17.778
X27.008 Z-17.708
X26.398 Z-17.665
X26.393 Z0.
X19.491
X19.49 Z-16.848
X16.094 Z-16.328
X13.491 Z-15.907
X13.49 Z0.
X10.49
X10.457 Z0.004
X10.424 Z0.015
X10.392 Z0.027
X10.358 Z0.031
X10.32 Y22.208
X10.288 Y22.23
X10.266 Y22.262
X10.258 Y22.3
X10.266 Y22.339
X10.288 Y22.371
X10.32 Y22.393
X10.358 Y22.4
X10.705
X10.739 Z0.027
X10.771 Z0.015
X10.803 Z0.004
X10.837 Z0.
X13.836
X13.837 Z-15.98
X16.513 Z-16.413
X19.837 Z-16.92
Z0.
X26.117
X26.124 Z-17.676
X27.575 Z-17.777
X28.893 Z-17.831
X30.116 Z-17.845
X31.179 Z-17.829
X32.427 Z-17.777
X33.876 Z-17.676
X33.88 Z0.
X40.161
X40.163 Z-16.92
X42.255 Z-16.605
X46.163 Z-15.98
Z0.
X49.163
X49.197 Z0.004
X49.229 Z0.015
X49.261 Z0.027
X49.295 Z0.031
X49.334 Y22.408
X49.366 Y22.43
X49.388 Y22.462
X49.395 Y22.5
X49.388 Y22.539
X49.366 Y22.571
X49.334 Y22.593
X49.295 Y22.6
X48.949
X48.915 Z0.027
X48.883 Z0.015
X48.851 Z0.004
X48.817 Z0.
X45.817
Z-16.052
X41.968 Z-16.669
X39.817 Z-16.992
X39.813 Z0.
X34.193
X34.186 Z-17.681
X32.709 Z-17.794
X31.388 Z-17.858
X30.213 Z-17.881
X29.014 Z-17.869
X27.727 Z-17.82
X26.315 Z-17.724
X25.814 Z-17.681
X25.807 Z0.
X20.183
Z-16.992
X16.931 Z-16.497
X14.183 Z-16.052
X14.182 Z0.
X11.183
X11.149 Z0.004
X11.117 Z0.015
X11.085 Z0.027
X11.051 Z0.031
X11.013 Y22.608
X10.981 Y22.63
X10.959 Y22.662
X10.951 Y22.7
X10.959 Y22.739
X10.981 Y22.771
X11.013 Y22.793
X11.051 Y22.8
X11.398
X11.432 Z0.027
X11.464 Z0.015
X11.496 Z0.004
X11.53 Z0.
X14.529
X14.53 Z-16.125
X17.392 Z-16.587
X20.551 Z-17.067
X20.561 Z0.
X25.446
X25.448 Z-17.678
X26.729 Z-17.789
X28.075 Z-17.872
X29.332 Z-17.912
X30.558 Z-17.914
X31.725 Z-17.881
X33.054 Z-17.805
X34.55 Z-17.679
X34.554 Z0.
X39.439
X39.449 Z-17.067
X41.661 Z-16.735
X45.47 Z-16.125
Z0.
X48.471
X48.504 Z0.004
X48.537 Z0.015
X48.569 Z0.027
X48.603 Z0.031
X48.641 Y22.808
X48.673 Y22.83
X48.695 Y22.862
X48.703 Y22.9
X48.695 Y22.939
X48.673 Y22.971
X48.641 Y22.993
X48.603 Y23.
X48.256
X48.222 Z0.027
X48.19 Z0.015
X48.158 Z0.004
X48.124 Z0.
X45.124
Z-16.197
X41.355 Z-16.802
X38.992 Z-17.155
X38.983 Z0.
X35.003
Z-17.663
X33.471 Z-17.806
X32.125 Z-17.897
X30.899 Z-17.943
X29.785 Z-17.954
X28.483 Z-17.925
X27.18 Z-17.855
X25.718 Z-17.735
X24.997 Z-17.663
Z0.
X21.017
X21.006 Z-17.155
X17.992 Z-16.7
X14.876 Z-16.197
X14.875 Z0.
X11.876
X11.842 Z0.004
X11.81 Z0.015
X11.778 Z0.027
X11.744 Z0.031
X11.706 Y23.008
X11.673 Y23.03
X11.652 Y23.062
X11.644 Y23.1
X11.652 Y23.139
X11.673 Y23.171
X11.706 Y23.193
X11.744 Y23.2
X12.09
X12.124 Z0.027
X12.156 Z0.015
X12.189 Z0.004
X12.222 Z0.
X15.221
X15.223 Z-16.269
X18.871 Z-16.856
X21.623 Z-17.265
X21.636 Z0.
X24.366
X24.374 Z-17.623
X24.748 Z-17.665
X26.335 Z-17.823
X27.728 Z-17.924
X28.981 Z-17.977
X30.119 Z-17.99
X31.296 Z-17.969
X32.58 Z-17.905
X33.963 Z-17.796
X35.626 Z-17.623
X35.634 Z0.
X38.364
X38.374 Z-17.266
X41.048 Z-16.868
X44.778 Z-16.269
Z0.
X47.778
X47.812 Z0.004
X47.844 Z0.015
X47.876 Z0.027
X47.91 Z0.031
X47.948 Y23.208
X47.98 Y23.23
X48.002 Y23.262
X48.01 Y23.3
X48.002 Y23.339
X47.98 Y23.371
X47.948 Y23.393
X47.91 Y23.4
X47.563
X47.529 Z0.027
X47.497 Z0.015
X47.465 Z0.004
X47.431 Z0.
X44.431
Z-16.342
X40.742 Z-16.935
X38.06 Z-17.333
X36. Z-17.606
X34.303 Z-17.795
X32.877 Z-17.918
X31.625 Z-17.991
X30.48 Z-18.024
X29.343 Z-18.021
X28.172 Z-17.982
X26.837 Z-17.896
X25.355 Z-17.76
X23.591 Z-17.555
X21.453 Z-17.264
X18.449 Z-16.808
X15.569 Z-16.342
X15.568 Z0.
X12.569
X12.535 Z0.004
X12.503 Z0.015
X12.471 Z0.027
X12.437 Z0.031
X12.399 Y23.408
X12.366 Y23.43
X12.344 Y23.462
X12.337 Y23.5
X12.344 Y23.539
X12.366 Y23.571
X12.399 Y23.593
X12.437 Y23.6
X12.783
X12.817 Z0.027
X12.849 Z0.015
X12.881 Z0.004
X12.915 Z0.
X15.915
Z-16.414
X18.322 Z-16.806
X21.457 Z-17.286
X23.537 Z-17.573
X25.334 Z-17.787
X26.806 Z-17.927
X28.138 Z-18.015
X29.313 Z-18.057
X30.419 Z-18.061
X31.456 Z-18.034
X32.706 Z-17.964
X34.121 Z-17.843
X35.773 Z-17.66
X37.794 Z-17.393
X40.416 Z-17.004
X44.084 Z-16.414
X44.085 Z0.
X47.085
X47.119 Z0.004
X47.151 Z0.015
X47.183 Z0.027
X47.217 Z0.031
X47.255 Y23.608
X47.288 Y23.63
X47.309 Y23.662
X47.317 Y23.7
X47.309 Y23.739
X47.288 Y23.771
X47.255 Y23.793
X47.217 Y23.8
X46.871
X46.837 Z0.027
X46.805 Z0.015
X46.772 Z0.004
X46.739 Z0.
X43.738
Z-16.487
X40.11 Z-17.071
X37.527 Z-17.454
X35.547 Z-17.715
X33.907 Z-17.895
X32.533 Z-18.009
X31.355 Z-18.073
X30.388 Z-18.098
X29.296 Z-18.092
X28.143 Z-18.05
X26.833 Z-17.961
X25.357 Z-17.819
X23.566 Z-17.603
X21.468 Z-17.31
X18.304 Z-16.82
X16.262 Z-16.487
X16.261 Z0.
X13.262
X13.228 Z0.004
X13.196 Z0.015
X13.164 Z0.027
X13.13 Z0.031
X13.091 Y23.808
X13.059 Y23.83
X13.037 Y23.862
X13.03 Y23.9
X13.037 Y23.939
X13.059 Y23.971
X13.091 Y23.993
X13.13 Y24.
X13.476
X13.51 Z0.027
X13.542 Z0.015
X13.574 Z0.004
X13.608 Z0.
X16.607
X16.608 Z-16.559
X18.584 Z-16.882
X21.706 Z-17.366
X23.779 Z-17.656
X25.39 Z-17.852
X26.872 Z-17.997
X28.147 Z-18.086
X29.266 Z-18.128
X30.34 Z-18.135
X31.247 Z-18.113
X32.401 Z-18.052
X33.722 Z-17.943
X35.32 Z-17.769
X37.281 Z-17.511
X39.804 Z-17.137
X43.392 Z-16.559
Z0.
X46.392
X46.426 Z0.004
X46.458 Z0.015
X46.49 Z0.027
X46.524 Z0.031
X46.562 Y24.008
X46.595 Y24.03
X46.617 Y24.062
X46.624 Y24.1
X46.617 Y24.138
X46.595 Y24.171
X46.562 Y24.193
X46.524 Y24.2
X46.178
X46.144 Z0.027
X46.112 Z0.015
X46.08 Z0.004
X46.046 Z0.
X43.046
Z-16.631
X39.498 Z-17.204
X37.015 Z-17.572
X35.118 Z-17.821
X33.538 Z-17.992
X32.223 Z-18.098
X31.047 Z-18.156
X30.109 Z-18.172
X29.01 Z-18.157
X27.842 Z-18.102
X26.559 Z-18.001
X24.996 Z-17.834
X23.107 Z-17.589
X20.702 Z-17.234
X17.292 Z-16.687
X16.955 Z-16.631
X16.953 Z0.
X13.954
X13.921 Z0.004
X13.888 Z0.015
X13.856 Z0.027
X13.822 Z0.031
X13.784 Y24.208
X13.752 Y24.23
X13.73 Y24.262
X13.722 Y24.3
X13.73 Y24.338
X13.752 Y24.371
X13.784 Y24.393
X13.822 Y24.4
X14.169
X14.203 Z0.027
X14.235 Z0.015
X14.267 Z0.004
X14.301 Z0.
X17.3
X17.301 Z-16.704
X19.756 Z-17.105
X22.658 Z-17.548
X24.687 Z-17.824
X26.279 Z-18.005
X27.615 Z-18.12
X28.784 Z-18.185
X29.914 Z-18.208
X30.934 Z-18.195
X32.089 Z-18.14
X33.351 Z-18.041
X34.892 Z-17.875
X36.749 Z-17.632
X39.173 Z-17.273
X42.699 Z-16.704
Z0.
X45.699
X45.733 Z0.004
X45.765 Z0.015
X45.797 Z0.027
X45.831 Z0.031
X45.87 Y24.408
X45.902 Y24.43
X45.924 Y24.462
X45.931 Y24.5
X45.924 Y24.538
X45.902 Y24.571
X45.87 Y24.593
X45.831 Y24.6
X45.485
X45.451 Z0.027
X45.419 Z0.015
X45.387 Z0.004
X45.353 Z0.
X42.353
X42.352 Z-16.776
X38.867 Z-17.339
X36.483 Z-17.693
X34.665 Z-17.93
X33.165 Z-18.089
X31.909 Z-18.186
X30.794 Z-18.234
X29.848 Z-18.245
X28.716 Z-18.218
X27.562 Z-18.15
X26.218 Z-18.028
X24.6 Z-17.839
X22.657 Z-17.57
X19.687 Z-17.111
X17.647 Z-16.776
X17.646 Z0.
X14.647
X14.613 Z0.004
X14.581 Z0.015
X14.549 Z0.027
X14.515 Z0.031
X14.477 Y24.608
X14.445 Y24.629
X14.423 Y24.662
X14.415 Y24.7
X14.423 Y24.738
X14.445 Y24.771
X14.477 Y24.793
X14.515 Y24.8
X14.862
X14.896 Z0.027
X14.928 Z0.015
X14.96 Z0.004
X14.994 Z0.
X17.993
X17.994 Z-16.848
X19.748 Z-17.137
X22.695 Z-17.597
X24.654 Z-17.871
X26.269 Z-18.063
X27.596 Z-18.186
X28.723 Z-18.253
X29.814 Z-18.281
X30.693 Z-18.273
X31.771 Z-18.228
X32.977 Z-18.138
X34.438 Z-17.984
X36.217 Z-17.753
X38.542 Z-17.409
X42.006 Z-16.848
Z0.
X45.007
X45.04 Z0.004
X45.073 Z0.015
X45.105 Z0.027
X45.139 Z0.031
X45.177 Y24.808
X45.209 Y24.829
X45.231 Y24.862
X45.239 Y24.9
X45.231 Y24.938
X45.209 Y24.971
X45.177 Y24.993
X45.139 Y25.
X44.792
X44.758 Z0.027
X44.726 Z0.015
X44.694 Z0.004
X44.66 Z0.
X41.66
Z-16.921
X38.237 Z-17.475
X35.951 Z-17.814
X34.21 Z-18.039
X32.821 Z-18.183
X31.632 Z-18.271
X30.607 Z-18.311
X29.579 Z-18.315
X28.551 Z-18.281
X27.383 Z-18.201
X26.038 Z-18.067
X24.521 Z-17.879
X22.332 Z-17.563
X19.328 Z-17.084
X18.34 Z-16.92
X18.339 Z0.
X15.34
X15.306 Z0.004
X15.274 Z0.015
X15.242 Z0.027
X15.208 Z0.031
X15.17 Y25.008
X15.137 Y25.029
X15.116 Y25.062
X15.108 Y25.1
X15.116 Y25.138
X15.137 Y25.171
X15.17 Y25.193
X15.208 Y25.2
X15.554
X15.588 Z0.027
X15.62 Z0.015
X15.653 Z0.004
X15.686 Z0.
X18.686
Z-16.993
X21.756 Z-17.493
X24.129 Z-17.848
X25.857 Z-18.074
X27.269 Z-18.223
X28.423 Z-18.309
X29.428 Z-18.348
X30.454 Z-18.35
X31.436 Z-18.316
X32.598 Z-18.235
X33.957 Z-18.096
X35.664 Z-17.877
X37.913 Z-17.544
X41.314 Z-16.993
Z0.
X44.314
X44.348 Z0.004
X44.38 Z0.015
X44.412 Z0.027
X44.446 Z0.031
X44.484 Y25.208
X44.516 Y25.229
X44.538 Y25.262
X44.546 Y25.3
X44.538 Y25.338
X44.516 Y25.371
X44.484 Y25.393
X44.446 Y25.4
X44.099
X44.065 Z0.027
X44.033 Z0.015
X44.001 Z0.004
X43.967 Z0.
X40.994
X40.982 Z-17.062
X37.607 Z-17.611
X35.42 Z-17.934
X33.756 Z-18.147
X32.443 Z-18.28
X31.348 Z-18.356
X30.438 Z-18.387
X29.43 Z-18.384
X28.418 Z-18.343
X27.278 Z-18.255
X25.857 Z-18.102
X24.081 Z-17.864
X21.44 Z-17.46
X19.014 Z-17.062
X19.006 Z0.
X16.033
X15.999 Z0.004
X15.967 Z0.015
X15.935 Z0.027
X15.901 Z0.031
X15.863 Y25.408
X15.83 Y25.429
X15.808 Y25.462
X15.801 Y25.5
X15.808 Y25.538
X15.83 Y25.571
X15.863 Y25.593
X15.901 Y25.6
X16.247
X16.281 Z0.027
X16.313 Z0.015
X16.345 Z0.004
X16.379 Z0.
X19.296
X19.299 Z-17.124
X21.454 Z-17.479
X24.129 Z-17.893
X25.915 Z-18.135
X27.289 Z-18.288
X28.438 Z-18.378
X29.441 Z-18.42
X30.315 Z-18.425
X31.204 Z-18.397
X32.296 Z-18.325
X33.561 Z-18.198
X35.182 Z-17.991
X37.327 Z-17.673
X40.7 Z-17.124
X40.704 Z0.
X43.621
X43.655 Z0.004
X43.687 Z0.015
X43.719 Z0.027
X43.753 Z0.031
X43.791 Y25.608
X43.824 Y25.629
X43.845 Y25.662
X43.853 Y25.7
X43.845 Y25.738
X43.824 Y25.771
X43.791 Y25.793
X43.753 Y25.8
X43.407
X43.373 Z0.027
X43.341 Z0.015
X43.308 Z0.004
X43.275 Z0.
X40.453
X40.452 Z-17.179
X37.05 Z-17.735
X34.926 Z-18.05
X33.344 Z-18.251
X32.118 Z-18.372
X31.066 Z-18.439
X30.181 Z-18.463
X29.247 Z-18.451
X28.266 Z-18.401
X27.082 Z-18.297
X25.656 Z-18.129
X23.85 Z-17.873
X21.151 Z-17.446
X19.548 Z-17.179
X19.547 Z0.
X16.726
X16.692 Z0.004
X16.66 Z0.015
X16.628 Z0.027
X16.594 Z0.031
X16.555 Y25.808
X16.523 Y25.829
X16.501 Y25.862
X16.494 Y25.9
X16.501 Y25.938
X16.523 Y25.971
X16.555 Y25.993
X16.594 Y26.
X16.94
X16.974 Z0.027
X17.006 Z0.015
X17.038 Z0.004
X17.072 Z0.
X19.769
X19.771 Z-17.23
X20.894 Z-17.419
X23.739 Z-17.876
X25.673 Z-18.156
X27.109 Z-18.33
X28.244 Z-18.433
X29.218 Z-18.486
X30.13 Z-18.499
X30.963 Z-18.479
X31.953 Z-18.418
X33.162 Z-18.3
X34.699 Z-18.105
X36.779 Z-17.796
X40.228 Z-17.231
X40.231 Z0.
X42.928
X42.962 Z0.004
X42.994 Z0.015
X43.026 Z0.027
X43.06 Z0.031
X43.098 Y26.008
X43.131 Y26.029
X43.153 Y26.062
X43.16 Y26.1
X43.153 Y26.138
X43.131 Y26.171
X43.098 Y26.193
X43.06 Y26.2
X42.714
X42.68 Z0.027
X42.648 Z0.015
X42.616 Z0.004
X42.582 Z0.
X40.026
X40.025 Z-17.278
X36.53 Z-17.853
X34.474 Z-18.159
X32.983 Z-18.349
X31.827 Z-18.461
X31.249 Z-18.5
Z0.
X28.751
Z-18.5
X27.707 Z-18.42
X26.447 Z-18.281
X24.752 Z-18.049
X22.237 Z-17.655
X19.975 Z-17.278
X19.973 Z0.
X17.418
X17.385 Z0.004
X17.352 Z0.015
X17.32 Z0.027
X17.286 Z0.031
X17.248 Y26.208
X17.216 Y26.229
X17.194 Y26.262
X17.186 Y26.3
X17.194 Y26.338
X17.216 Y26.371
X17.248 Y26.393
X17.286 Y26.4
X17.633
X17.667 Z0.027
X17.699 Z0.015
X17.731 Z0.004
X17.765 Z0.
X20.153
X20.157 Z-17.322
X23.567 Z-17.887
X25.652 Z-18.2
X27.108 Z-18.388
X28.257 Z-18.5
Z0.
X31.743
Z-18.5
X32.862 Z-18.391
X34.297 Z-18.208
X36.36 Z-17.899
X39.843 Z-17.322
X39.847 Z0.
X42.235
X42.269 Z0.004
X42.301 Z0.015
X42.333 Z0.027
X42.367 Z0.031
X42.406 Y26.408
X42.438 Y26.429
X42.46 Y26.462
X42.467 Y26.5
X42.46 Y26.538
X42.438 Y26.571
X42.406 Y26.593
X42.367 Y26.6
X42.033
X41.999 Z0.027
X41.967 Z0.015
X41.935 Z0.004
X41.901 Z0.
X39.68
X39.677 Z-17.362
X36.2 Z-17.942
X34.133 Z-18.254
X32.732 Z-18.434
X32.107 Z-18.5
Z0.
X27.893
Z-18.5
X26.663 Z-18.361
X25.111 Z-18.144
X22.662 Z-17.756
X20.322 Z-17.362
X20.32 Z0.
X18.099
X18.066 Z0.004
X18.033 Z0.015
X18.001 Z0.027
X17.967 Z0.031
X17.929 Y26.608
X17.897 Y26.629
X17.875 Y26.662
X17.867 Y26.7
X17.875 Y26.738
X17.897 Y26.771
X17.929 Y26.793
X17.967 Y26.8
X18.263
X18.297 Z0.027
X18.329 Z0.015
X18.361 Z0.004
X18.395 Z0.
X20.469
X20.471 Z-17.4
X21.028 Z-17.495
X24.339 Z-18.045
X26.26 Z-18.332
X27.607 Z-18.5
Z0.
X32.392
X32.393 Z-18.5
X32.584 Z-18.479
X33.954 Z-18.302
X36.044 Z-17.984
X39.528 Z-17.4
X39.531 Z0.
X41.605
X41.639 Z0.004
X41.671 Z0.015
X41.703 Z0.027
X41.737 Z0.031
X41.775 Y26.808
X41.808 Y26.829
X41.829 Y26.862
X41.837 Y26.9
X41.829 Y26.938
X41.808 Y26.971
X41.775 Y26.992
X41.737 Y27.
X41.486
X41.453 Z0.027
X41.42 Z0.015
X41.388 Z0.004
X41.354 Z0.
X39.395
X39.39 Z-17.435
X35.879 Z-18.027
X33.747 Z-18.354
X32.642 Z-18.5
X32.641 Z0.
X27.358
Z-18.5
X25.879 Z-18.301
X23.629 Z-17.946
X20.609 Z-17.435
X20.603 Z0.
X18.646
X18.612 Z0.004
X18.58 Z0.015
X18.548 Z0.027
X18.514 Z0.031
X18.475 Y27.008
X18.443 Y27.029
X18.421 Y27.062
X18.414 Y27.1
X18.421 Y27.138
X18.443 Y27.171
X18.475 Y27.192
X18.514 Y27.2
X18.719
X18.753 Z0.027
X18.785 Z0.015
X18.817 Z0.004
X18.851 Z0.
X20.729
X20.733 Z-17.467
X23.2 Z-17.89
X25.692 Z-18.292
X27.142 Z-18.5
X27.146 Z0.
X32.854
Z-18.5
X33.59 Z-18.399
X35.681 Z-18.075
X39.264 Z-17.468
X39.268 Z0.
X41.149
X41.183 Z0.004
X41.215 Z0.015
X41.247 Z0.027
X41.281 Z0.031
X41.319 Y27.208
X41.352 Y27.229
X41.374 Y27.262
X41.381 Y27.3
X41.374 Y27.338
X41.352 Y27.371
X41.319 Y27.392
X41.281 Y27.4
X41.099
X41.065 Z0.027
X41.033 Z0.015
X41. Z0.004
X40.967 Z0.
X39.159
X39.156 Z-17.497
X35.478 Z-18.124
X33.446 Z-18.442
X33.034 Z-18.5
Z0.
X26.966
Z-18.5
X25.179 Z-18.231
X22.015 Z-17.7
X20.844 Z-17.497
X20.838 Z0.
X19.034
X19. Z0.004
X18.968 Z0.015
X18.935 Z0.027
X18.902 Z0.031
X18.863 Y27.408
X18.831 Y27.429
X18.809 Y27.462
X18.802 Y27.5
X18.809 Y27.538
X18.831 Y27.571
X18.863 Y27.592
X18.902 Y27.6
X19.067
X19.101 Z0.027
X19.133 Z0.015
X19.165 Z0.004
X19.199 Z0.
X20.949
Z-17.525
X21.042 Z-17.541
X24.82 Z-18.189
X26.801 Z-18.5
Z0.
X33.199
Z-18.5
X33.31 Z-18.484
X35.411 Z-18.151
X39.051 Z-17.525
Z0.
X40.801
X40.835 Z0.004
X40.867 Z0.015
X40.899 Z0.027
X40.933 Z0.031
X40.971 Y27.608
X41.004 Y27.629
X41.026 Y27.662
X41.033 Y27.7
X41.026 Y27.738
X41.004 Y27.771
X40.971 Y27.792
X40.933 Y27.8
X40.797
X40.763 Z0.027
X40.731 Z0.015
X40.699 Z0.004
X40.665 Z0.
X38.964
X38.958 Z-17.55
X35.193 Z-18.202
X33.336 Z-18.5
Z0.
X26.664
Z-18.5
X24.376 Z-18.129
X21.039 Z-17.55
X21.036 Z0.
X19.335
X19.301 Z0.004
X19.269 Z0.015
X19.237 Z0.027
X19.203 Z0.031
X19.165 Y27.808
X19.133 Y27.829
X19.111 Y27.862
X19.103 Y27.9
X19.111 Y27.938
X19.133 Y27.971
X19.165 Y27.992
X19.203 Y28.
X19.328
X19.362 Z0.027
X19.394 Z0.015
X19.426 Z0.004
X19.46 Z0.
X21.12
X21.122 Z-17.573
X23.901 Z-18.06
X26.538 Z-18.5
Z0.
X33.461
X33.462 Z-18.5
X34.828 Z-18.277
X38.877 Z-17.573
X38.88 Z0.
X40.54
X40.574 Z0.004
X40.606 Z0.015
X40.638 Z0.027
X40.672 Z0.031
X40.71 Y28.008
X40.743 Y28.029
X40.765 Y28.062
X40.772 Y28.1
X40.765 Y28.138
X40.743 Y28.171
X40.71 Y28.192
X40.672 Y28.2
X40.563
X40.529 Z0.027
X40.497 Z0.015
X40.465 Z0.004
X40.431 Z0.
X38.805
X38.802 Z-17.594
X34.394 Z-18.364
X33.568 Z-18.5
X33.563 Z0.
X26.432
Z-18.5
X23.335 Z-17.972
X21.197 Z-17.594
X21.195 Z0.
X19.569
X19.535 Z0.004
X19.503 Z0.015
X19.471 Z0.027
X19.437 Z0.031
X19.399 Y28.208
X19.366 Y28.229
X19.344 Y28.262
X19.337 Y28.3
X19.344 Y28.338
X19.366 Y28.371
X19.399 Y28.392
X19.437 Y28.4
X19.529
X19.563 Z0.027
X19.595 Z0.015
X19.627 Z0.004
X19.661 Z0.
X21.257
X21.26 Z-17.612
X22.484 Z-17.83
X26.338 Z-18.5
Z0.
X33.662
Z-18.5
X34.111 Z-18.425
X38.74 Z-17.612
X38.743 Z0.
X40.339
X40.373 Z0.004
X40.405 Z0.015
X40.437 Z0.027
X40.471 Z0.031
X40.509 Y28.408
X40.542 Y28.429
X40.563 Y28.462
X40.571 Y28.5
X40.563 Y28.538
X40.542 Y28.571
X40.509 Y28.592
X40.471 Y28.6
X40.387
X40.353 Z0.027
X40.321 Z0.015
X40.289 Z0.004
X40.255 Z0.
X38.682
X38.679 Z-17.629
X33.781 Z-18.494
X33.746 Z-18.5
Z0.
X26.254
Z-18.5
X21.402 Z-17.643
X21.319 Z-17.628
X21.317 Z0.
X19.745
X19.711 Z0.004
X19.679 Z0.015
X19.647 Z0.027
X19.613 Z0.031
X19.575 Y28.608
X19.543 Y28.629
X19.521 Y28.662
X19.513 Y28.7
X19.521 Y28.738
X19.543 Y28.771
X19.575 Y28.792
X19.613 Y28.8
X19.679
X19.712 Z0.027
X19.745 Z0.015
X19.777 Z0.004
X19.811 Z0.
X21.362
X21.366 Z-17.642
X26.189 Z-18.5
Z0.
X33.81
X33.811 Z-18.5
X38.633 Z-17.642
X38.636 Z0.
X40.189
X40.223 Z0.004
X40.255 Z0.015
X40.288 Z0.027
X40.321 Z0.031
X40.36 Y28.808
X40.392 Y28.829
X40.414 Y28.862
X40.421 Y28.9
X40.414 Y28.938
X40.392 Y28.971
X40.36 Y28.992
X40.321 Y29.
X40.26
X40.226 Z0.027
X40.194 Z0.015
X40.162 Z0.004
X40.128 Z0.
X38.596
X38.592 Z-17.654
X33.873 Z-18.5
Z0.
X26.127
Z-18.5
X21.407 Z-17.654
X21.404 Z0.
X19.872
X19.838 Z0.004
X19.806 Z0.015
X19.774 Z0.027
X19.74 Z0.031
X19.702 Y29.008
X19.67 Y29.029
X19.648 Y29.062
X19.64 Y29.1
X19.648 Y29.138
X19.67 Y29.171
X19.702 Y29.192
X19.74 Y29.2
X19.782
X19.816 Z0.027
X19.848 Z0.015
X19.88 Z0.004
X19.914 Z0.
X21.441
Z-17.664
X26.086 Z-18.5
Z0.
X33.911
X33.915 Z-18.5
X38.558 Z-17.664
X38.559 Z0.
X40.086
X40.12 Z0.004
X40.152 Z0.015
X40.184 Z0.027
X40.218 Z0.031
X40.256 Y29.208
X40.289 Y29.229
X40.31 Y29.262
X40.318 Y29.3
X40.31 Y29.338
X40.289 Y29.371
X40.256 Y29.392
X40.218 Y29.4
X40.178
X40.144 Z0.027
X40.111 Z0.015
X40.079 Z0.004
X40.045 Z0.
X38.538
X38.534 Z-17.672
X33.953 Z-18.5
Z0.
X26.047
Z-18.5
X21.465 Z-17.671
X21.462 Z0.
X19.955
X19.921 Z0.004
X19.889 Z0.015
X19.856 Z0.027
X19.823 Z0.031
X19.784 Y29.408
X19.752 Y29.429
X19.73 Y29.462
X19.723 Y29.5
X19.73 Y29.538
X19.752 Y29.571
X19.784 Y29.592
X19.823 Y29.6
X19.843
X19.877 Z0.027
X19.909 Z0.015
X19.941 Z0.004
X19.975 Z0.
X21.481
X21.484 Z-17.673
X26.022 Z-18.5
Z0.
X33.978
Z-18.5
X38.515 Z-17.677
X38.518 Z0.
X40.025
X40.059 Z0.004
X40.091 Z0.015
X40.123 Z0.027
X40.157 Z0.031
X40.195 Y29.608
X40.228 Y29.629
X40.249 Y29.662
X40.257 Y29.7
X40.249 Y29.738
X40.228 Y29.771
X40.195 Y29.792
X40.157 Y29.8
X40.137
X40.103 Z0.027
X40.071 Z0.015
X40.039 Z0.004
X40.005 Z0.
X38.505
Z-17.68
X33.99 Z-18.5
X33.989 Z0.
X26.01
Z-18.5
X21.495 Z-17.68
Z0.
X19.995
X19.961 Z0.004
X19.929 Z0.015
X19.897 Z0.027
X19.863 Z0.031
X19.825 Y29.808
X19.792 Y29.829
X19.771 Y29.862
X19.763 Y29.9
X19.771 Y29.938
X19.792 Y29.971
X19.825 Y29.992
X19.863 Y30.
X19.897 Z0.027
X19.929 Z0.015
X19.961 Z0.004
X19.995 Z0.
X21.494
X21.5 Z-17.682
X26. Z-18.5
Z0.
X33.996
X34. Z-18.5
X38.499 Z-17.682
X38.505 Z0.
X40.005
X40.039 Z0.004
X40.071 Z0.015
X40.103 Z0.027
X40.137 Z0.031
X40.175 Y30.008
X40.208 Y30.029
X40.229 Y30.062
X40.237 Y30.1
X40.229 Y30.138
X40.208 Y30.171
X40.175 Y30.192
X40.137 Y30.2
X40.103 Z0.027
X40.071 Z0.015
X40.039 Z0.004
X40.005 Z0.
X38.505
Z-17.68
X33.99 Z-18.5
Z0.
X26.01
X26.009 Z-18.5
X21.495 Z-17.68
X21.494 Z0.
X19.995
X19.961 Z0.004
X19.929 Z0.015
X19.897 Z0.027
X19.863 Z0.031
X19.843
X19.805 Y30.208
X19.772 Y30.229
X19.751 Y30.262
X19.743 Y30.3
X19.751 Y30.338
X19.772 Y30.371
X19.805 Y30.392
X19.843 Y30.4
X19.877 Z0.027
X19.909 Z0.015
X19.941 Z0.004
X19.975 Z0.
X21.481
X21.484 Z-17.673
X26.022 Z-18.5
Z0.
X33.978
Z-18.5
X38.515 Z-17.677
X38.518 Z0.
X40.025
X40.059 Z0.004
X40.091 Z0.015
X40.123 Z0.027
X40.157 Z0.031
X40.177
X40.216 Y30.408
X40.248 Y30.429
X40.27 Y30.462
X40.277 Y30.5
X40.27 Y30.538
X40.248 Y30.571
X40.216 Y30.592
X40.177 Y30.6
X40.144 Z0.027
X40.111 Z0.015
X40.079 Z0.004
X40.045 Z0.
X38.538
X38.534 Z-17.672
X33.953 Z-18.5
Z0.
X26.047
Z-18.5
X21.465 Z-17.671
X21.462 Z0.
X19.955
X19.921 Z0.004
X19.889 Z0.015
X19.856 Z0.027
X19.823 Z0.031
X19.782
X19.744 Y30.608
X19.711 Y30.629
X19.69 Y30.662
X19.682 Y30.7
X19.69 Y30.738
X19.711 Y30.771
X19.744 Y30.792
X19.782 Y30.8
X19.816 Z0.027
X19.848 Z0.015
X19.88 Z0.004
X19.914 Z0.
X21.441
Z-17.664
X26.085 Z-18.5
Z0.
X33.911
X33.915 Z-18.5
X38.558 Z-17.664
X38.559 Z0.
X40.086
X40.12 Z0.004
X40.152 Z0.015
X40.184 Z0.027
X40.218 Z0.031
X40.26
X40.298 Y30.808
X40.33 Y30.829
X40.352 Y30.862
X40.36 Y30.9
X40.352 Y30.938
X40.33 Y30.971
X40.298 Y30.992
X40.26 Y31.
X40.226 Z0.027
X40.194 Z0.015
X40.162 Z0.004
X40.128 Z0.
X38.596
X38.592 Z-17.654
X33.873 Z-18.5
Z0.
X26.127
Z-18.5
X21.407 Z-17.654
X21.404 Z0.
X19.872
X19.838 Z0.004
X19.806 Z0.015
X19.774 Z0.027
X19.74 Z0.031
X19.679
X19.64 Y31.008
X19.608 Y31.029
X19.586 Y31.062
X19.579 Y31.1
X19.586 Y31.138
X19.608 Y31.171
X19.64 Y31.192
X19.679 Y31.2
X19.713 Z0.027
X19.745 Z0.015
X19.777 Z0.004
X19.811 Z0.
X21.363
X21.366 Z-17.642
X26.189 Z-18.5
Z0.
X33.81
X33.811 Z-18.5
X38.633 Z-17.642
X38.636 Z0.
X40.189
X40.223 Z0.004
X40.255 Z0.015
X40.288 Z0.027
X40.321 Z0.031
X40.387
X40.425 Y31.208
X40.457 Y31.229
X40.479 Y31.262
X40.487 Y31.3
X40.479 Y31.338
X40.457 Y31.371
X40.425 Y31.392
X40.387 Y31.4
X40.353 Z0.027
X40.321 Z0.015
X40.289 Z0.004
X40.255 Z0.
X38.682
X38.681 Z-17.628
X33.775 Z-18.495
X33.746 Z-18.5
Z0.
X26.254
Z-18.5
X21.4 Z-17.643
X21.319 Z-17.628
X21.317 Z0.
X19.745
X19.712 Z0.004
X19.679 Z0.015
X19.647 Z0.027
X19.613 Z0.031
X19.529
X19.491 Y31.408
X19.458 Y31.429
X19.437 Y31.462
X19.429 Y31.5
X19.437 Y31.538
X19.458 Y31.571
X19.491 Y31.592
X19.529 Y31.6
X19.563 Z0.027
X19.595 Z0.015
X19.627 Z0.004
X19.661 Z0.
X21.257
X21.26 Z-17.612
X22.494 Z-17.832
X26.338 Z-18.5
Z0.
X33.661
X33.662 Z-18.5
X34.107 Z-18.426
X38.74 Z-17.612
X38.743 Z0.
X40.339
X40.373 Z0.004
X40.405 Z0.015
X40.437 Z0.027
X40.471 Z0.031
X40.563
X40.601 Y31.608
X40.634 Y31.629
X40.656 Y31.662
X40.663 Y31.7
X40.656 Y31.738
X40.634 Y31.771
X40.601 Y31.792
X40.563 Y31.8
X40.529 Z0.027
X40.497 Z0.015
X40.465 Z0.004
X40.431 Z0.
X38.805
X38.802 Z-17.594
X34.39 Z-18.365
X33.568 Z-18.5
Z0.
X26.432
Z-18.5
X23.447 Z-17.992
X21.197 Z-17.594
X21.194 Z0.
X19.569
X19.535 Z0.004
X19.503 Z0.015
X19.471 Z0.027
X19.437 Z0.031
X19.328
X19.29 Y31.808
X19.257 Y31.829
X19.235 Y31.862
X19.228 Y31.9
X19.235 Y31.938
X19.257 Y31.971
X19.29 Y31.992
X19.328 Y32.
X19.362 Z0.027
X19.394 Z0.015
X19.426 Z0.004
X19.46 Z0.
X21.12
X21.122 Z-17.573
X23.898 Z-18.059
X26.538 Z-18.5
Z0.
X33.462
Z-18.5
X34.645 Z-18.307
X38.877 Z-17.573
X38.88 Z0.
X40.54
X40.574 Z0.004
X40.606 Z0.015
X40.638 Z0.027
X40.672 Z0.031
X40.797
X40.835 Y32.008
X40.867 Y32.029
X40.889 Y32.062
X40.897 Y32.1
X40.889 Y32.138
X40.867 Y32.171
X40.835 Y32.192
X40.797 Y32.2
X40.763 Z0.027
X40.731 Z0.015
X40.699 Z0.004
X40.665 Z0.
X38.964
X38.96 Z-17.55
X34.919 Z-18.247
X33.336 Z-18.5
X33.335 Z0.
X26.664
Z-18.5
X24.373 Z-18.129
X21.039 Z-17.55
X21.035 Z0.
X19.335
X19.301 Z0.004
X19.269 Z0.015
X19.237 Z0.027
X19.203 Z0.031
X19.067
X19.029 Y32.208
X18.996 Y32.229
X18.975 Y32.262
X18.967 Y32.3
X18.975 Y32.338
X18.996 Y32.371
X19.029 Y32.392
X19.067 Y32.4
X19.101 Z0.027
X19.133 Z0.015
X19.165 Z0.004
X19.199 Z0.
X20.949
Z-17.525
X21.24 Z-17.576
X24.82 Z-18.189
X26.801 Z-18.5
Z0.
X33.199
Z-18.5
X33.225 Z-18.496
X35.226 Z-18.181
X39.051 Z-17.525
Z0.
X40.801
X40.835 Z0.004
X40.867 Z0.015
X40.899 Z0.027
X40.933 Z0.031
X41.098
X41.137 Y32.408
X41.169 Y32.429
X41.191 Y32.462
X41.198 Y32.5
X41.191 Y32.538
X41.169 Y32.571
X41.137 Y32.592
X41.098 Y32.6
X41.065 Z0.027
X41.032 Z0.015
X41. Z0.004
X40.966 Z0.
X39.159
X39.156 Z-17.497
X35.474 Z-18.125
X33.442 Z-18.443
X33.034 Z-18.5
Z0.
X26.966
Z-18.5
X25.158 Z-18.228
X21.976 Z-17.693
X20.844 Z-17.497
X20.841 Z0.
X19.034
X19. Z0.004
X18.968 Z0.015
X18.935 Z0.027
X18.902 Z0.031
X18.719
X18.681 Y32.607
X18.648 Y32.629
X18.627 Y32.662
X18.619 Y32.7
X18.627 Y32.738
X18.648 Y32.771
X18.681 Y32.792
X18.719 Y32.8
X18.753 Z0.027
X18.785 Z0.015
X18.817 Z0.004
X18.851 Z0.
X20.732
X20.733 Z-17.467
X22.873 Z-17.835
X25.539 Z-18.269
X27.142 Z-18.5
X27.146 Z0.
X32.854
Z-18.5
X33.606 Z-18.397
X35.696 Z-18.073
X39.266 Z-17.467
X39.268 Z0.
X41.149
X41.183 Z0.004
X41.215 Z0.015
X41.247 Z0.027
X41.281 Z0.031
X41.486
X41.525 Y32.807
X41.557 Y32.829
X41.579 Y32.862
X41.586 Y32.9
X41.579 Y32.938
X41.557 Y32.971
X41.525 Y32.992
X41.486 Y33.
X41.452 Z0.027
X41.42 Z0.015
X41.388 Z0.004
X41.354 Z0.
X39.395
X39.391 Z-17.435
X35.881 Z-18.027
X33.749 Z-18.354
X32.642 Z-18.5
Z0.
X27.358
Z-18.5
X25.883 Z-18.301
X23.651 Z-17.95
X20.609 Z-17.435
X20.603 Z0.
X18.646
X18.612 Z0.004
X18.58 Z0.015
X18.548 Z0.027
X18.514 Z0.031
X18.263
X18.225 Y33.007
X18.192 Y33.029
X18.171 Y33.062
X18.163 Y33.1
X18.171 Y33.138
X18.192 Y33.171
X18.225 Y33.192
X18.263 Y33.2
X18.297 Z0.027
X18.329 Z0.015
X18.361 Z0.004
X18.395 Z0.
X20.469
X20.471 Z-17.4
X21.029 Z-17.495
X24.342 Z-18.045
X26.266 Z-18.333
X27.607 Z-18.5
Z0.
X32.393
Z-18.5
X32.566 Z-18.481
X33.943 Z-18.303
X36.044 Z-17.984
X39.528 Z-17.4
X39.531 Z0.
X41.605
X41.639 Z0.004
X41.671 Z0.015
X41.703 Z0.027
X41.737 Z0.031
X42.033
X42.071 Y33.207
X42.103 Y33.229
X42.125 Y33.262
X42.133 Y33.3
X42.125 Y33.338
X42.103 Y33.371
X42.071 Y33.392
X42.033 Y33.4
X41.999 Z0.027
X41.967 Z0.015
X41.934 Z0.004
X41.9 Z0.
X39.68
X39.678 Z-17.362
X36.199 Z-17.942
X34.136 Z-18.253
X32.739 Z-18.433
X32.107 Z-18.5
Z0.
X27.893
Z-18.5
X26.666 Z-18.361
X24.922 Z-18.116
X22.377 Z-17.709
X20.322 Z-17.362
X20.319 Z0.
X18.099
X18.066 Z0.004
X18.033 Z0.015
X18.001 Z0.027
X17.967 Z0.031
X17.633
X17.595 Y33.407
X17.562 Y33.429
X17.54 Y33.462
X17.533 Y33.5
X17.54 Y33.538
X17.562 Y33.571
X17.595 Y33.592
X17.633 Y33.6
X17.667 Z0.027
X17.699 Z0.015
X17.731 Z0.004
X17.765 Z0.
X20.153
X20.157 Z-17.322
X23.517 Z-17.879
X25.637 Z-18.198
X27.108 Z-18.388
X28.257 Z-18.5
Z0.
X31.743
Z-18.5
X31.796 Z-18.496
X32.951 Z-18.381
X34.321 Z-18.204
X36.359 Z-17.899
X39.843 Z-17.322
X39.847 Z0.
X42.235
X42.269 Z0.004
X42.301 Z0.015
X42.333 Z0.027
X42.367 Z0.031
X42.714
X42.752 Y33.607
X42.784 Y33.629
X42.806 Y33.662
X42.814 Y33.7
X42.806 Y33.738
X42.784 Y33.771
X42.752 Y33.792
X42.714 Y33.8
X42.68 Z0.027
X42.648 Z0.015
X42.615 Z0.004
X42.582 Z0.
X40.026
X40.025 Z-17.278
X36.53 Z-17.854
X34.478 Z-18.159
X32.99 Z-18.348
X31.836 Z-18.46
X31.249 Z-18.5
Z0.
X28.751
Z-18.5
X27.707 Z-18.42
X26.426 Z-18.278
X24.711 Z-18.043
X22.185 Z-17.647
X19.975 Z-17.278
X19.974 Z0.
X17.418
X17.385 Z0.004
X17.352 Z0.015
X17.32 Z0.027
X17.286 Z0.031
X16.94
X16.902 Y33.807
X16.869 Y33.829
X16.848 Y33.862
X16.84 Y33.9
X16.848 Y33.938
X16.869 Y33.971
X16.902 Y33.992
X16.94 Y34.
X16.974 Z0.027
X17.006 Z0.015
X17.038 Z0.004
X17.072 Z0.
X19.769
X19.772 Z-17.23
X20.83 Z-17.408
X23.707 Z-17.871
X25.657 Z-18.154
X27.113 Z-18.33
X28.253 Z-18.433
X29.229 Z-18.487
X30.16 Z-18.499
X30.976 Z-18.478
X31.964 Z-18.417
X33.17 Z-18.299
X34.702 Z-18.104
X36.779 Z-17.796
X40.228 Z-17.231
X40.231 Z0.
X42.928
X42.962 Z0.004
X42.994 Z0.015
X43.026 Z0.027
X43.06 Z0.031
X43.406
X43.445 Y34.007
X43.477 Y34.029
X43.499 Y34.062
X43.506 Y34.1
X43.499 Y34.138
X43.477 Y34.171
X43.445 Y34.192
X43.406 Y34.2
X43.372 Z0.027
X43.34 Z0.015
X43.308 Z0.004
X43.274 Z0.
X40.453
X40.452 Z-17.179
X37.05 Z-17.735
X34.95 Z-18.046
X33.457 Z-18.238
X32.203 Z-18.365
X31.166 Z-18.434
X30.263 Z-18.462
X29.403 Z-18.455
X28.41 Z-18.41
X27.291 Z-18.319
X25.914 Z-18.162
X24.016 Z-17.898
X21.341 Z-17.477
X19.548 Z-17.179
X19.545 Z0.
X16.726
X16.692 Z0.004
X16.66 Z0.015
X16.628 Z0.027
X16.594 Z0.031
X16.247
X16.209 Y34.207
X16.177 Y34.229
X16.155 Y34.262
X16.147 Y34.3
X16.155 Y34.338
X16.177 Y34.371
X16.209 Y34.392
X16.247 Y34.4
X16.281 Z0.027
X16.313 Z0.015
X16.345 Z0.004
X16.379 Z0.
X19.296
X19.299 Z-17.124
X21.573 Z-17.499
X24.237 Z-17.909
X25.994 Z-18.145
X27.377 Z-18.296
X28.498 Z-18.382
X29.474 Z-18.421
X30.345 Z-18.425
X31.221 Z-18.397
X32.305 Z-18.324
X33.568 Z-18.197
X35.185 Z-17.99
X37.327 Z-17.673
X40.701 Z-17.124
X40.704 Z0.
X43.621
X43.655 Z0.004
X43.687 Z0.015
X43.719 Z0.027
X43.753 Z0.031
X44.099
X44.137 Y34.407
X44.17 Y34.429
X44.192 Y34.462
X44.199 Y34.5
X44.192 Y34.538
X44.17 Y34.571
X44.137 Y34.592
X44.099 Y34.6
X44.065 Z0.027
X44.033 Z0.015
X44.001 Z0.004
X43.967 Z0.
X40.994
X40.982 Z-17.062
X37.607 Z-17.611
X35.423 Z-17.934
X33.788 Z-18.144
X32.485 Z-18.276
X31.364 Z-18.355
X30.344 Z-18.389
X29.451 Z-18.384
X28.458 Z-18.345
X27.324 Z-18.259
X25.913 Z-18.108
X24.175 Z-17.877
X21.636 Z-17.492
X19.014 Z-17.062
X19.005 Z0.
X16.033
X15.999 Z0.004
X15.967 Z0.015
X15.935 Z0.027
X15.901 Z0.031
X15.554
X15.516 Y34.607
X15.484 Y34.629
X15.462 Y34.662
X15.454 Y34.7
X15.462 Y34.738
X15.484 Y34.771
X15.516 Y34.792
X15.554 Y34.8
X15.588 Z0.027
X15.62 Z0.015
X15.653 Z0.004
X15.686 Z0.
X18.685
X18.687 Z-16.993
X22.042 Z-17.537
X24.304 Z-17.873
X26.005 Z-18.092
X27.366 Z-18.231
X28.52 Z-18.314
X29.532 Z-18.35
X30.498 Z-18.349
X31.506 Z-18.313
X32.641 Z-18.231
X33.991 Z-18.092
X35.689 Z-17.873
X37.912 Z-17.544
X41.313 Z-16.993
Z0.
X44.314
X44.347 Z0.004
X44.38 Z0.015
X44.412 Z0.027
X44.446 Z0.031
X44.792
X44.83 Y34.807
X44.863 Y34.829
X44.884 Y34.862
X44.892 Y34.9
X44.884 Y34.938
X44.863 Y34.971
X44.83 Y34.992
X44.792 Y35.
X44.758 Z0.027
X44.726 Z0.015
X44.694 Z0.004
X44.66 Z0.
X41.66
X41.659 Z-16.921
X38.237 Z-17.475
X35.955 Z-17.813
X34.219 Z-18.038
X32.83 Z-18.182
X31.644 Z-18.27
X30.656 Z-18.31
X29.653 Z-18.316
X28.595 Z-18.283
X27.429 Z-18.205
X26.099 Z-18.074
X24.382 Z-17.86
X22.188 Z-17.54
X19.103 Z-17.047
X18.34 Z-16.921
X18.337 Z0.
X15.34
X15.306 Z0.004
X15.274 Z0.015
X15.242 Z0.027
X15.208 Z0.031
X14.862
X14.823 Y35.007
X14.791 Y35.029
X14.769 Y35.062
X14.762 Y35.1
X14.769 Y35.138
X14.791 Y35.17
X14.823 Y35.192
X14.862 Y35.2
X14.895 Z0.027
X14.928 Z0.015
X14.96 Z0.004
X14.994 Z0.
X17.994
Z-16.848
X19.651 Z-17.121
X22.611 Z-17.584
X24.778 Z-17.887
X26.368 Z-18.074
X27.69 Z-18.193
X28.811 Z-18.257
X29.901 Z-18.281
X30.822 Z-18.27
X31.789 Z-18.227
X32.987 Z-18.137
X34.445 Z-17.983
X36.212 Z-17.754
X38.542 Z-17.409
X42.006 Z-16.848
Z0.
X45.006
X45.04 Z0.004
X45.072 Z0.015
X45.104 Z0.027
X45.138 Z0.031
X45.485
X45.523 Y35.207
X45.555 Y35.229
X45.577 Y35.262
X45.585 Y35.3
X45.577 Y35.338
X45.555 Y35.37
X45.523 Y35.392
X45.485 Y35.4
X45.451 Z0.027
X45.419 Z0.015
X45.387 Z0.004
X45.353 Z0.
X42.353
X42.352 Z-16.776
X38.876 Z-17.338
X36.492 Z-17.691
X34.683 Z-17.928
X33.19 Z-18.087
X31.944 Z-18.184
X30.88 Z-18.232
X29.992 Z-18.245
X28.967 Z-18.228
X27.837 Z-18.169
X26.553 Z-18.062
X25.011 Z-17.89
X23.069 Z-17.63
X20.314 Z-17.211
X17.647 Z-16.776
Z0.
X14.647
X14.613 Z0.004
X14.581 Z0.015
X14.549 Z0.027
X14.515 Z0.031
X14.169
X14.131 Y35.407
X14.098 Y35.429
X14.076 Y35.462
X14.069 Y35.5
X14.076 Y35.538
X14.098 Y35.57
X14.131 Y35.592
X14.169 Y35.6
X14.203 Z0.027
X14.235 Z0.015
X14.267 Z0.004
X14.301 Z0.
X17.301
Z-16.704
X20.444 Z-17.213
X23.036 Z-17.602
X24.96 Z-17.857
X26.5 Z-18.026
X27.808 Z-18.134
X28.961 Z-18.192
X29.99 Z-18.208
X30.988 Z-18.193
X32.118 Z-18.138
X33.37 Z-18.039
X34.906 Z-17.874
X36.755 Z-17.632
X39.179 Z-17.272
X42.699 Z-16.704
Z0.
X45.699
X45.733 Z0.004
X45.765 Z0.015
X45.797 Z0.027
X45.831 Z0.031
X46.178
X46.216 Y35.607
X46.248 Y35.629
X46.27 Y35.661
X46.278 Y35.7
X46.27 Y35.738
X46.248 Y35.77
X46.216 Y35.792
X46.178 Y35.8
X46.144 Z0.027
X46.112 Z0.015
X46.079 Z0.004
X46.046 Z0.
X43.045
Z-16.631
X39.484 Z-17.206
X37. Z-17.574
X35.111 Z-17.822
X33.528 Z-17.993
X32.21 Z-18.099
X31.031 Z-18.156
X30.05 Z-18.172
X28.968 Z-18.156
X27.777 Z-18.098
X26.449 Z-17.991
X24.863 Z-17.819
X22.943 Z-17.566
X20.428 Z-17.192
X16.955 Z-16.631
X16.954 Z0.
X13.954
X13.921 Z0.004
X13.888 Z0.015
X13.856 Z0.027
X13.822 Z0.031
X13.476
X13.438 Y35.807
X13.405 Y35.829
X13.384 Y35.861
X13.376 Y35.9
X13.384 Y35.938
X13.405 Y35.97
X13.438 Y35.992
X13.476 Y36.
X13.51 Z0.027
X13.542 Z0.015
X13.574 Z0.004
X13.608 Z0.
X16.604
X16.608 Z-16.559
X17.809 Z-16.757
X21.049 Z-17.268
X23.439 Z-17.611
X25.293 Z-17.841
X26.781 Z-17.989
X28.062 Z-18.081
X29.193 Z-18.126
X30.191 Z-18.136
X31.197 Z-18.115
X32.41 Z-18.051
X33.731 Z-17.943
X35.327 Z-17.768
X37.281 Z-17.512
X39.804 Z-17.137
X43.391 Z-16.559
X43.392 Z0.
X46.392
X46.426 Z0.004
X46.458 Z0.015
X46.49 Z0.027
X46.524 Z0.031
X46.87
X46.909 Y36.007
X46.941 Y36.029
X46.963 Y36.061
X46.97 Y36.1
X46.963 Y36.138
X46.941 Y36.17
X46.909 Y36.192
X46.87 Y36.2
X46.836 Z0.027
X46.804 Z0.015
X46.772 Z0.004
X46.738 Z0.
X43.738
Z-16.487
X40.11 Z-17.071
X37.527 Z-17.454
X35.53 Z-17.717
X33.916 Z-17.894
X32.546 Z-18.008
X31.316 Z-18.075
X30.262 Z-18.099
X29.157 Z-18.089
X28.005 Z-18.043
X26.712 Z-17.951
X25.211 Z-17.803
X23.359 Z-17.575
X20.951 Z-17.233
X17.694 Z-16.722
X16.262 Z-16.487
Z0.
X13.262
X13.228 Z0.004
X13.196 Z0.015
X13.163 Z0.027
X13.13 Z0.031
X12.783
X12.745 Y36.207
X12.712 Y36.229
X12.691 Y36.261
X12.683 Y36.3
X12.691 Y36.338
X12.712 Y36.37
X12.745 Y36.392
X12.783 Y36.4
X12.817 Z0.027
X12.849 Z0.015
X12.881 Z0.004
X12.915 Z0.
X15.915
Z-16.414
X17.604 Z-16.691
X20.881 Z-17.202
X23.312 Z-17.544
X25.163 Z-17.769
X26.694 Z-17.917
X28.025 Z-18.01
X29.206 Z-18.054
X30.259 Z-18.063
X31.477 Z-18.033
X32.675 Z-17.966
X34.099 Z-17.845
X35.756 Z-17.662
X37.793 Z-17.393
X40.416 Z-17.004
X44.084 Z-16.414
X44.085 Z0.
X47.085
X47.119 Z0.004
X47.151 Z0.015
X47.183 Z0.027
X47.217 Z0.031
X47.563
X47.601 Y36.407
X47.634 Y36.429
X47.656 Y36.461
X47.663 Y36.5
X47.656 Y36.538
X47.634 Y36.57
X47.601 Y36.592
X47.563 Y36.6
X47.529 Z0.027
X47.497 Z0.015
X47.465 Z0.004
X47.431 Z0.
X44.431
Z-16.342
X40.742 Z-16.935
X38.06 Z-17.333
X35.983 Z-17.608
X34.284 Z-17.797
X32.852 Z-17.92
X31.597 Z-17.992
X30.532 Z-18.023
X29.322 Z-18.021
X28.132 Z-17.98
X26.807 Z-17.894
X25.305 Z-17.754
X23.508 Z-17.544
X21.225 Z-17.231
X18.084 Z-16.751
X15.569 Z-16.342
Z0.
X12.569
X12.535 Z0.004
X12.503 Z0.015
X12.471 Z0.027
X12.437 Z0.031
X12.09
X12.052 Y36.607
X12.02 Y36.629
X11.998 Y36.661
X11.99 Y36.7
X11.998 Y36.738
X12.02 Y36.77
X12.052 Y36.792
X12.09 Y36.8
X12.124 Z0.027
X12.156 Z0.015
X12.189 Z0.004
X12.222 Z0.
X15.222
X15.223 Z-16.269
X18.872 Z-16.856
X21.626 Z-17.266
X21.636 Z0.
X24.366
X24.374 Z-17.623
X24.688 Z-17.658
X26.292 Z-17.819
X27.671 Z-17.92
X28.953 Z-17.976
X30.077 Z-17.99
X31.285 Z-17.969
X32.571 Z-17.905
X33.957 Z-17.797
X35.624 Z-17.623
X35.634 Z0.
X38.364
X38.374 Z-17.266
X41.048 Z-16.868
X44.777 Z-16.27
Z0.
X47.778
X47.811 Z0.004
X47.844 Z0.015
X47.876 Z0.027
X47.91 Z0.031
X48.256
X48.294 Y36.807
X48.327 Y36.829
X48.348 Y36.861
X48.356 Y36.9
X48.348 Y36.938
X48.327 Y36.97
X48.294 Y36.992
X48.256 Y37.
X48.222 Z0.027
X48.19 Z0.015
X48.158 Z0.004
X48.124 Z0.
X45.124
X45.123 Z-16.197
X41.354 Z-16.802
X38.992 Z-17.155
X38.983 Z0.
X35.003
X35.001 Z-17.663
X33.447 Z-17.808
X32.087 Z-17.899
X30.846 Z-17.945
X29.642 Z-17.953
X28.408 Z-17.922
X27.093 Z-17.849
X25.629 Z-17.727
X24.997 Z-17.663
Z0.
X21.017
X21.008 Z-17.155
X17.992 Z-16.7
X14.876 Z-16.197
X14.873 Z0.
X11.876
X11.842 Z0.004
X11.81 Z0.015
X11.778 Z0.027
X11.744 Z0.031
X11.398
X11.359 Y37.007
X11.327 Y37.029
X11.305 Y37.061
X11.298 Y37.1
X11.305 Y37.138
X11.327 Y37.17
X11.359 Y37.192
X11.398 Y37.2
X11.431 Z0.027
X11.464 Z0.015
X11.496 Z0.004
X11.53 Z0.
X14.53
Z-16.125
X17.392 Z-16.587
X20.551 Z-17.067
X20.561 Z0.
X25.446
X25.448 Z-17.678
X26.762 Z-17.792
X28.125 Z-17.874
X29.349 Z-17.913
X30.487 Z-17.915
X31.708 Z-17.882
X33.04 Z-17.806
X34.552 Z-17.678
X34.554 Z-0.002
X39.439 Z0.
X39.449 Z-17.067
X41.661 Z-16.735
X45.47 Z-16.125
Z0.
X48.47
X48.504 Z0.004
X48.536 Z0.015
X48.568 Z0.027
X48.602 Z0.031
X48.949
X48.987 Y37.207
X49.019 Y37.229
X49.041 Y37.261
X49.049 Y37.3
X49.041 Y37.338
X49.019 Y37.37
X48.987 Y37.392
X48.949 Y37.4
X48.915 Z0.027
X48.883 Z0.015
X48.851 Z0.004
X48.817 Z0.
X45.817
X45.816 Z-16.052
X41.967 Z-16.669
X39.817 Z-16.992
X39.812 Z0.
X34.193
X34.185 Z-17.681
X32.705 Z-17.795
X31.387 Z-17.858
X30.19 Z-17.881
X29.013 Z-17.869
X27.771 Z-17.822
X26.351 Z-17.727
X25.814 Z-17.681
X25.807 Z0.
X20.183
Z-16.992
X16.931 Z-16.497
X14.183 Z-16.052
X14.182 Z0.
X11.183
X11.149 Z0.004
X11.117 Z0.015
X11.085 Z0.027
X11.051 Z0.031
X10.705
X10.666 Y37.407
X10.634 Y37.429
X10.612 Y37.461
X10.605 Y37.5
X10.612 Y37.538
X10.634 Y37.57
X10.666 Y37.592
X10.705 Y37.6
X10.739 Z0.027
X10.771 Z0.015
X10.803 Z0.004
X10.837 Z0.
X13.837
Z-15.98
X16.513 Z-16.413
X19.837 Z-16.92
Z0.
X26.117
X26.124 Z-17.676
X27.348 Z-17.764
X28.719 Z-17.826
X29.957 Z-17.845
X31.186 Z-17.829
X32.428 Z-17.777
X33.876 Z-17.676
X33.88 Z0.
X40.161
X40.163 Z-16.92
X42.255 Z-16.605
X46.163 Z-15.98
Z0.
X49.163
X49.197 Z0.004
X49.229 Z0.015
X49.261 Z0.027
X49.295 Z0.031
X49.642
X49.68 Y37.607
X49.712 Y37.629
X49.734 Y37.661
X49.742 Y37.7
X49.734 Y37.738
X49.712 Y37.77
X49.68 Y37.792
X49.642 Y37.8
X49.608 Z0.027
X49.576 Z0.015
X49.543 Z0.004
X49.51 Z0.
X46.509
Z-15.907
X42.58 Z-16.536
X40.509 Z-16.848
X40.508 Z0.
X33.603
X33.602 Z-17.665
X32.209 Z-17.753
X30.913 Z-17.799
X29.686 Z-17.808
X28.347 Z-17.778
X26.953 Z-17.705
X26.398 Z-17.665
X26.396 Z0.
X19.491
Z-16.848
X16.094 Z-16.328
X13.49 Z-15.907
Z0.
X10.49
X10.456 Z0.004
X10.424 Z0.015
X10.392 Z0.027
X10.358 Z0.031
X10.012
X9.974 Y37.807
X9.941 Y37.829
X9.92 Y37.861
X9.912 Y37.9
X9.92 Y37.938
X9.941 Y37.97
X9.974 Y37.992
X10.012 Y38.
X10.046 Z0.027
X10.078 Z0.015
X10.11 Z0.004
X10.144 Z0.
X13.144
Z-15.835
X15.674 Z-16.244
X19.144 Z-16.775
Z0.
X26.631
X26.637 Z-17.649
X28.03 Z-17.729
X29.33 Z-17.768
X30.658
X32. Z-17.728
X33.363 Z-17.649
X33.369 Z0.
X40.856
Z-16.775
X42.887 Z-16.469
X46.855 Z-15.835
X46.856 Z0.
X49.856
X49.89 Z0.004
X49.922 Z0.015
X49.954 Z0.027
X49.988 Z0.031
X50.334
X50.373 Y38.007
X50.405 Y38.029
X50.427 Y38.061
X50.434 Y38.1
X50.427 Y38.138
X50.405 Y38.17
X50.373 Y38.192
X50.334 Y38.2
X50.3 Z0.027
X50.268 Z0.015
X50.236 Z0.004
X50.202 Z0.
X47.202
Z-15.762
X43.182 Z-16.404
X41.202 Z-16.703
Z0.
X37.749
X36.242
X33.147
Z-17.63
X31.763 Z-17.702
X30.35 Z-17.735
X29.068 Z-17.726
X27.759 Z-17.682
X26.853 Z-17.63
X26.852 Z0.
X23.758
X22.251
X18.798
Z-16.703
X15.276 Z-16.163
X12.798 Z-15.762
Z0.
X9.798
X9.764 Z0.004
X9.732 Z0.015
X9.699 Z0.027
X9.666 Z0.031
X9.319
X9.281 Y38.207
X9.248 Y38.229
X9.227 Y38.261
X9.219 Y38.3
X9.227 Y38.338
X9.248 Y38.37
X9.281 Y38.392
X9.319 Y38.4
X9.353 Z0.027
X9.385 Z0.015
X9.417 Z0.004
X9.451 Z0.
X12.451
Z-15.69
X14.855 Z-16.078
X18.451 Z-16.631
Z0.
X21.555
X21.589 Z0.004
X21.621 Z0.015
X21.653 Z0.027
X21.687 Z0.031
X21.726 Y38.407
X21.758 Y38.429
X21.78 Y38.461
X21.787 Y38.5
X21.78 Y38.538
X21.758 Y38.57
X21.726 Y38.592
X21.687 Y38.6
X21.25
X21.216 Z0.027
X21.184 Z0.015
X21.152 Z0.004
X21.118 Z0.
X18.105
Z-16.559
X14.472 Z-16.
X12.105 Z-15.617
X12.104 Z0.
X9.15
X9.116 Z0.004
X9.084 Z0.015
X9.051 Z0.027
X9.018 Z0.031
X8.776
X8.738 Y38.607
X8.706 Y38.629
X8.684 Y38.661
X8.676 Y38.7
X8.684 Y38.738
X8.706 Y38.77
X8.738 Y38.792
X8.776 Y38.8
X8.81 Z0.027
X8.842 Z0.015
X8.874 Z0.004
X8.908 Z0.
X11.758
Z-15.545
X14.09 Z-15.922
X17.759 Z-16.486
Z0.
X20.759
X20.793 Z0.004
X20.825 Z0.015
X20.857 Z0.027
X20.891 Z0.031
X20.929 Y38.807
X20.961 Y38.829
X20.983 Y38.861
X20.991 Y38.9
X20.983 Y38.938
X20.961 Y38.97
X20.929 Y38.992
X20.891 Y39.
X20.544
X20.51 Z0.027
X20.478 Z0.015
X20.446 Z0.004
X20.412 Z0.
X17.412
Z-16.414
X13.688 Z-15.84
X11.412 Z-15.472
Z0.
X8.715
X8.681 Z0.004
X8.649 Z0.015
X8.617 Z0.027
X8.583 Z0.031
X8.421
X8.383 Y39.007
X8.351 Y39.029
X8.329 Y39.061
X8.321 Y39.1
X8.329 Y39.138
X8.351 Y39.17
X8.383 Y39.192
X8.421 Y39.2
X8.455 Z0.027
X8.487 Z0.015
X8.519 Z0.004
X8.553 Z0.
X11.066
Z-15.4
X13.306 Z-15.762
X17.066 Z-16.341
Z0.
X20.066
X20.1 Z0.004
X20.132 Z0.015
X20.164 Z0.027
X20.198 Z0.031
X20.236 Y39.207
X20.269 Y39.229
X20.29 Y39.261
X20.298 Y39.3
X20.29 Y39.338
X20.269 Y39.37
X20.236 Y39.392
X20.198 Y39.4
X19.851
X19.818 Z0.027
X19.785 Z0.015
X19.753 Z0.004
X19.719 Z0.
X16.719
Z-16.269
X12.905 Z-15.68
X10.719 Z-15.327
Z0.
X8.415
X8.381 Z0.004
X8.349 Z0.015
X8.316 Z0.027
X8.283 Z0.031
X8.162
X8.124 Y39.407
X8.092 Y39.429
X8.07 Y39.461
X8.062 Y39.5
X8.07 Y39.538
X8.092 Y39.57
X8.124 Y39.592
X8.162 Y39.6
X8.196 Z0.027
X8.228 Z0.015
X8.26 Z0.004
X8.294 Z0.
X10.373
Z-15.255
X12.505 Z-15.599
X16.373 Z-16.197
Z0.
X19.373
X19.407 Z0.004
X19.439 Z0.015
X19.471 Z0.027
X19.505 Z0.031
X19.543 Y39.607
X19.576 Y39.629
X19.597 Y39.661
X19.605 Y39.7
X19.597 Y39.738
X19.576 Y39.77
X19.543 Y39.792
X19.505 Y39.8
X19.159
X19.125 Z0.027
X19.093 Z0.015
X19.061 Z0.004
X19.027 Z0.
X16.027
Z-16.124
X12.102 Z-15.517
X10.053 Z-15.186
X10.052 Z0.
X8.203
X8.169 Z0.004
X8.137 Z0.015
X8.104 Z0.027
X8.071 Z0.031
X7.991
X7.953 Y39.807
X7.921 Y39.829
X7.899 Y39.861
X7.891 Y39.9
X7.899 Y39.938
X7.921 Y39.97
X7.953 Y39.992
X7.991 Y40.
X8.025 Z0.027
X8.057 Z0.015
X8.089 Z0.004
X8.123 Z0.
X9.83
X9.835 Z-15.135
X11.701 Z-15.436
X15.68 Z-16.052
Z0.
X18.68
X18.714 Z0.004
X18.746 Z0.015
X18.778 Z0.027
X18.812 Z0.031
X18.851 Y40.007
X18.883 Y40.029
X18.905 Y40.061
X18.912 Y40.1
X18.905 Y40.138
X18.883 Y40.17
X18.851 Y40.192
X18.812 Y40.2
X18.466
X18.432 Z0.027
X18.4 Z0.015
X18.368 Z0.004
X18.334 Z0.
X15.334
Z-15.979
X11.321 Z-15.358
X9.684 Z-15.094
X9.681 Z0.
X8.057
X8.024 Z0.004
X7.991 Z0.015
X7.959 Z0.027
X7.925 Z0.031
X7.881
X7.843 Y40.207
X7.81 Y40.229
X7.788 Y40.261
X7.781 Y40.3
X7.788 Y40.338
X7.81 Y40.37
X7.843 Y40.392
X7.881 Y40.4
X7.915 Z0.027
X7.947 Z0.015
X7.979 Z0.004
X8.013 Z0.
X9.578
Z-15.06
X10.938 Z-15.279
X14.987 Z-15.907
Z0.
X17.987
X18.021 Z0.004
X18.053 Z0.015
X18.086 Z0.027
X18.119 Z0.031
X18.158 Y40.407
X18.19 Y40.429
X18.212 Y40.461
X18.219 Y40.5
X18.212 Y40.538
X18.19 Y40.57
X18.158 Y40.592
X18.119 Y40.6
X17.773
X17.739 Z0.027
X17.707 Z0.015
X17.675 Z0.004
X17.641 Z0.
X14.641
Z-15.834
X10.556 Z-15.201
X9.505 Z-15.032
X9.503 Z0.
X7.977
X7.943 Z0.004
X7.911 Z0.015
X7.878 Z0.027
X7.845 Z0.031
X7.826
X7.787 Y40.607
X7.755 Y40.629
X7.733 Y40.661
X7.726 Y40.7
X7.733 Y40.738
X7.755 Y40.77
X7.787 Y40.792
X7.826 Y40.8
X7.86 Z0.027
X7.892 Z0.015
X7.924 Z0.004
X7.958 Z0.
X9.464
X9.465 Z-15.009
X10.172 Z-15.122
X14.295 Z-15.762
Z0.
X17.295
X17.329 Z0.004
X17.361 Z0.015
X17.393 Z0.027
X17.427 Z0.031
X17.465 Y40.807
X17.497 Y40.829
X17.519 Y40.861
X17.527 Y40.9
X17.519 Y40.938
X17.497 Y40.97
X17.465 Y40.992
X17.427 Y41.
X17.08
X17.046 Z0.027
X17.014 Z0.015
X16.982 Z0.004
X16.948 Z0.
X13.948
Z-15.689
X9.789 Z-15.044
X9.452 Z-14.99
Z0.
X7.952
X7.918 Z0.004
X7.886 Z0.015
X7.853 Z0.027
X7.82 Z0.031
X7.781 Y41.007
X7.749 Y41.029
X7.727 Y41.061
X7.72 Y41.1
X7.727 Y41.138
X7.749 Y41.17
X7.781 Y41.192
X7.82 Y41.2
X7.823
X7.857 Z0.027
X7.889 Z0.015
X7.921 Z0.004
X7.955 Z0.
X9.463
X9.465 Z-14.974
X13.602 Z-15.617
Z0.
X16.602
X16.636 Z0.004
X16.668 Z0.015
X16.7 Z0.027
X16.734 Z0.031
X16.772 Y41.207
X16.805 Y41.229
X16.826 Y41.261
X16.834 Y41.3
X16.826 Y41.338
X16.805 Y41.37
X16.772 Y41.392
X16.734 Y41.4
X16.387
X16.354 Z0.027
X16.321 Z0.015
X16.289 Z0.004
X16.255 Z0.
X13.255
Z-15.544
X9.506 Z-14.963
Z0.
X7.979
X7.945 Z0.004
X7.913 Z0.015
X7.881 Z0.027
X7.847 Z0.031
X7.809 Y41.407
X7.776 Y41.429
X7.754 Y41.461
X7.747 Y41.5
X7.754 Y41.538
X7.776 Y41.57
X7.809 Y41.592
X7.847 Y41.6
X7.878
X7.912 Z0.027
X7.944 Z0.015
X7.976 Z0.004
X8.01 Z0.
X9.575
X9.576 Z-14.957
X12.909 Z-15.472
Z0.
X15.909
X15.943 Z0.004
X15.975 Z0.015
X16.007 Z0.027
X16.041 Z0.031
X16.079 Y41.607
X16.112 Y41.629
X16.133 Y41.661
X16.141 Y41.7
X16.133 Y41.738
X16.112 Y41.77
X16.079 Y41.792
X16.041 Y41.8
X15.695
X15.661 Z0.027
X15.629 Z0.015
X15.597 Z0.004
X15.563 Z0.
X12.563
Z-15.399
X9.684 Z-14.956
X9.68 Z0.
X8.06
X8.026 Z0.004
X7.994 Z0.015
X7.962 Z0.027
X7.928 Z0.031
X7.889 Y41.807
X7.857 Y41.829
X7.835 Y41.861
X7.828 Y41.9
X7.835 Y41.938
X7.857 Y41.97
X7.889 Y41.992
X7.928 Y42.
X7.991
X8.025 Z0.027
X8.057 Z0.015
X8.09 Z0.004
X8.123 Z0.
X9.834
Z-14.961
X12.216 Z-15.327
Z0.
X15.216
X15.25 Z0.004
X15.282 Z0.015
X15.314 Z0.027
X15.348 Z0.031
X15.387 Y42.007
X15.419 Y42.029
X15.441 Y42.061
X15.448 Y42.1
X15.441 Y42.138
X15.419 Y42.17
X15.387 Y42.192
X15.348 Y42.2
X15.002
X14.968 Z0.027
X14.936 Z0.015
X14.904 Z0.004
X14.87 Z0.
X11.87
Z-15.254
X10.054 Z-14.976
X10.051 Z0.
X8.198
X8.164 Z0.004
X8.132 Z0.015
X8.1 Z0.027
X8.066 Z0.031
X8.027 Y42.207
X7.995 Y42.229
X7.973 Y42.261
X7.966 Y42.299
X7.973 Y42.338
X7.995 Y42.37
X8.027 Y42.392
X8.066 Y42.399
X8.167
X8.2 Z0.027
X8.233 Z0.015
X8.265 Z0.004
X8.299 Z0.
X10.412
X10.417 Z-15.013
X11.474 Z-15.174
Z0.
X14.523
X14.557 Z0.004
X14.589 Z0.015
X14.622 Z0.027
X14.655 Z0.031
X14.694 Y42.407
X14.726 Y42.429
X14.748 Y42.461
X14.755 Y42.499
X14.748 Y42.538
X14.726 Y42.57
X14.694 Y42.592
X14.655 Y42.599
X14.309
X14.275 Z0.027
X14.243 Z0.015
X14.211 Z0.004
X14.177 Z0.
X8.414
X8.381 Z0.004
X8.348 Z0.015
X8.316 Z0.027
X8.282 Z0.031
X8.244 Y42.607
X8.212 Y42.629
X8.19 Y42.661
X8.182 Y42.699
X8.19 Y42.738
X8.212 Y42.77
X8.244 Y42.792
X8.282 Y42.799
X8.417
X8.45 Z0.027
X8.483 Z0.015
X8.515 Z0.004
X8.549 Z0.
X13.831
X13.865 Z0.004
X13.897 Z0.015
X13.929 Z0.027
X13.963 Z0.031
X14.001 Y42.807
X14.033 Y42.829
X14.055 Y42.861
X14.063 Y42.899
X14.055 Y42.938
X14.033 Y42.97
X14.001 Y42.992
X13.963 Y42.999
X13.616
X13.582 Z0.027
X13.55 Z0.015
X13.518 Z0.004
X13.484 Z0.
X8.714
X8.68 Z0.004
X8.648 Z0.015
X8.616 Z0.027
X8.582 Z0.031
X8.544 Y43.007
X8.512 Y43.029
X8.49 Y43.061
X8.482 Y43.099
X8.49 Y43.138
X8.512 Y43.17
X8.544 Y43.192
X8.582 Y43.199
X8.781
X8.815 Z0.027
X8.847 Z0.015
X8.879 Z0.004
X8.913 Z0.
X13.138
X13.172 Z0.004
X13.204 Z0.015
X13.236 Z0.027
X13.27 Z0.031
X13.308 Y43.207
X13.341 Y43.229
X13.362 Y43.261
X13.37 Y43.299
X13.362 Y43.338
X13.341 Y43.37
X13.308 Y43.392
X13.27 Y43.399
X12.923
X12.89 Z0.027
X12.857 Z0.015
X12.825 Z0.004
X12.791 Z0.
X9.154
X9.12 Z0.004
X9.088 Z0.015
X9.056 Z0.027
X9.022 Z0.031
X8.984 Y43.407
X8.951 Y43.429
X8.93 Y43.461
X8.922 Y43.499
X8.93 Y43.538
X8.951 Y43.57
X8.984 Y43.592
X9.022 Y43.599
X9.326
X9.36 Z0.027
X9.392 Z0.015
X9.424 Z0.004
X9.458 Z0.
X12.445
X12.479 Z0.004
X12.511 Z0.015
X12.543 Z0.027
X12.577 Z0.031
X12.615 Y43.607
X12.647 Y43.629
X12.669 Y43.661
X12.677 Y43.699
X12.669 Y43.738
X12.647 Y43.77
X12.615 Y43.792
X12.577 Y43.799
X12.145
X12.111 Z0.027
X12.079 Z0.015
X12.047 Z0.004
X12.013 Z0.
X9.872
G17 G3 X9.422 Y43.349 I0. J-0.45
G1 Y38.85
G3 X9.872 Y38.4 I0.45 J0.
G1 X24.458
X27.04
X27.044 Z-17.608
X27.733 Z-17.645
X29.047 Z-17.69
X30.304 Z-17.699
X31.512 Z-17.676
X32.956 Z-17.608
X32.96 Z0.
X35.542
X35.576 Z0.004
X35.608 Z0.015
X35.64 Z0.027
X35.674 Z0.031
X35.713 Y38.407
X35.745 Y38.429
X35.767 Y38.461
X35.774 Y38.5
X35.767 Y38.538
X35.745 Y38.57
X35.713 Y38.592
X35.674 Y38.6
X35.247
X35.213 Z0.027
X35.181 Z0.015
X35.149 Z0.004
X35.115 Z0.
X32.778
Z-17.584
X31.384 Z-17.643
X30.202 Z-17.663
X28.97 Z-17.652
X27.615 Z-17.605
X27.222 Z-17.584
Z0.
X24.885
X24.851 Z0.004
X24.819 Z0.015
X24.787 Z0.027
X24.753 Z0.031
X24.715 Y38.607
X24.682 Y38.629
X24.661 Y38.661
X24.653 Y38.7
X24.661 Y38.738
X24.682 Y38.77
X24.715 Y38.792
X24.753 Y38.8
X25.087
X25.121 Z0.027
X25.153 Z0.015
X25.185 Z0.004
X25.219 Z0.
X27.375
X27.381 Z-17.558
X28.75 Z-17.611
X30.019 Z-17.627
X31.294 Z-17.61
X32.619 Z-17.558
X32.625 Z0.
X34.781
X34.815 Z0.004
X34.847 Z0.015
X34.879 Z0.027
X34.913 Z0.031
X34.951 Y38.807
X34.983 Y38.829
X35.005 Y38.861
X35.013 Y38.9
X35.005 Y38.938
X34.983 Y38.97
X34.951 Y38.992
X34.913 Y39.
X34.635
X34.601 Z0.027
X34.569 Z0.015
X34.537 Z0.004
X34.503 Z0.
X32.474
Z-17.53
X31.137 Z-17.577
X29.955 Z-17.59
X28.634 Z-17.572
X27.526 Z-17.53
Z0.
X25.497
X25.463 Z0.004
X25.431 Z0.015
X25.399 Z0.027
X25.365 Z0.031
X25.327 Y39.007
X25.294 Y39.029
X25.273 Y39.061
X25.265 Y39.1
X25.273 Y39.138
X25.294 Y39.17
X25.327 Y39.192
X25.365 Y39.2
X25.591
X25.625 Z0.027
X25.657 Z0.015
X25.69 Z0.004
X25.723 Z0.
X27.653
X27.655 Z-17.501
X28.451 Z-17.531
X29.809 Z-17.554
X31.04 Z-17.544
X32.345 Z-17.501
X32.347 Z0.
X34.277
X34.31 Z0.004
X34.343 Z0.015
X34.375 Z0.027
X34.409 Z0.031
X34.447 Y39.207
X34.479 Y39.229
X34.501 Y39.261
X34.509 Y39.3
X34.501 Y39.338
X34.479 Y39.37
X34.447 Y39.392
X34.409 Y39.4
X34.21
X34.176 Z0.027
X34.144 Z0.015
X34.112 Z0.004
X34.078 Z0.
X32.225
X32.223 Z-17.471
X30.761 Z-17.513
X29.433 Z-17.515
X28.119 Z-17.484
X27.777 Z-17.471
X27.775 Z0.
X25.922
X25.888 Z0.004
X25.856 Z0.015
X25.824 Z0.027
X25.79 Z0.031
X25.751 Y39.407
X25.719 Y39.429
X25.697 Y39.461
X25.69 Y39.5
X25.697 Y39.538
X25.719 Y39.57
X25.751 Y39.592
X25.79 Y39.6
X25.967
X26.001 Z0.027
X26.033 Z0.015
X26.065 Z0.004
X26.099 Z0.
X27.882
X27.885 Z-17.44
X29.215 Z-17.476
X30.732 Z-17.477
X32.115 Z-17.44
X32.117 Z0.
X33.901
X33.935 Z0.004
X33.967 Z0.015
X33.999 Z0.027
X34.033 Z0.031
X34.071 Y39.607
X34.103 Y39.629
X34.125 Y39.661
X34.133 Y39.7
X34.125 Y39.738
X34.103 Y39.77
X34.071 Y39.792
X34.033 Y39.8
X33.881
X33.847 Z0.027
X33.815 Z0.015
X33.783 Z0.004
X33.749 Z0.
X32.021
X32.016 Z-17.408
X30.471 Z-17.443
X29.066 Z-17.437
X27.983 Z-17.408
X27.979 Z0.
X26.251
X26.217 Z0.004
X26.185 Z0.015
X26.153 Z0.027
X26.119 Z0.031
X26.081 Y39.807
X26.048 Y39.829
X26.026 Y39.861
X26.019 Y39.9
X26.026 Y39.938
X26.048 Y39.97
X26.081 Y39.992
X26.119 Y40.
X26.251
X26.285 Z0.027
X26.318 Z0.015
X26.35 Z0.004
X26.384 Z0.
X28.072
X28.073 Z-17.376
X29.036 Z-17.401
X30.538 Z-17.406
X31.927 Z-17.376
Z0.
X33.616
X33.65 Z0.004
X33.682 Z0.015
X33.715 Z0.027
X33.749 Z0.031
X33.787 Y40.007
X33.819 Y40.029
X33.841 Y40.061
X33.848 Y40.1
X33.841 Y40.138
X33.819 Y40.17
X33.787 Y40.192
X33.749 Y40.2
X33.626
X33.592 Z0.027
X33.56 Z0.015
X33.528 Z0.004
X33.494 Z0.
X31.853
X31.85 Z-17.343
X30.368 Z-17.371
X28.896 Z-17.362
X28.15 Z-17.343
X28.146 Z0.
X26.506
X26.472 Z0.004
X26.44 Z0.015
X26.408 Z0.027
X26.374 Z0.031
X26.335 Y40.207
X26.303 Y40.229
X26.281 Y40.261
X26.274 Y40.3
X26.281 Y40.338
X26.303 Y40.37
X26.335 Y40.392
X26.374 Y40.4
X26.472
X26.505 Z0.027
X26.538 Z0.015
X26.57 Z0.004
X26.604 Z0.
X28.22
X28.222 Z-17.309
X28.912 Z-17.326
X30.397 Z-17.335
X31.778 Z-17.309
X31.78 Z0.
X33.396
X33.43 Z0.004
X33.462 Z0.015
X33.495 Z0.027
X33.528 Z0.031
X33.567 Y40.407
X33.599 Y40.429
X33.621 Y40.461
X33.628 Y40.5
X33.621 Y40.538
X33.599 Y40.57
X33.567 Y40.592
X33.528 Y40.6
X33.436
X33.402 Z0.027
X33.37 Z0.015
X33.337 Z0.004
X33.304 Z0.
X31.718
X31.716 Z-17.275
X30.278 Z-17.299
X28.894 Z-17.289
X28.283 Z-17.275
X28.282 Z0.
X26.696
X26.663 Z0.004
X26.63 Z0.015
X26.598 Z0.027
X26.564 Z0.031
X26.526 Y40.607
X26.494 Y40.629
X26.472 Y40.661
X26.464 Y40.7
X26.472 Y40.738
X26.494 Y40.77
X26.526 Y40.792
X26.564 Y40.8
X26.637
X26.671 Z0.027
X26.703 Z0.015
X26.735 Z0.004
X26.769 Z0.
X28.333
X28.336 Z-17.24
X28.77 Z-17.251
X30.199 Z-17.263
X31.663 Z-17.24
X31.667 Z0.
X33.231
X33.265 Z0.004
X33.297 Z0.015
X33.329 Z0.027
X33.363 Z0.031
X33.401 Y40.807
X33.433 Y40.829
X33.455 Y40.861
X33.463 Y40.9
X33.455 Y40.938
X33.433 Y40.97
X33.401 Y40.992
X33.363 Y41.
X33.296
X33.262 Z0.027
X33.23 Z0.015
X33.198 Z0.004
X33.164 Z0.
X31.617
Z-17.206
X30.273 Z-17.226
X28.76 Z-17.214
X28.383 Z-17.205
Z0.
X26.836
X26.802 Z0.004
X26.77 Z0.015
X26.738 Z0.027
X26.704 Z0.031
X26.666 Y41.007
X26.633 Y41.029
X26.612 Y41.061
X26.604 Y41.1
X26.612 Y41.138
X26.633 Y41.17
X26.666 Y41.192
X26.704 Y41.2
X26.755
X26.789 Z0.027
X26.821 Z0.015
X26.853 Z0.004
X26.887 Z0.
X28.418
X28.419 Z-17.17
X28.732 Z-17.178
X30.189 Z-17.19
X31.58 Z-17.17
X31.582 Z0.
X33.113
X33.147 Z0.004
X33.179 Z0.015
X33.211 Z0.027
X33.245 Z0.031
X33.283 Y41.207
X33.316 Y41.229
X33.337 Y41.261
X33.345 Y41.3
X33.337 Y41.338
X33.316 Y41.37
X33.283 Y41.392
X33.245 Y41.4
X33.201
X33.167 Z0.027
X33.135 Z0.015
X33.103 Z0.004
X33.069 Z0.
X31.552
X31.548 Z-17.135
X30.079 Z-17.154
X28.65 Z-17.14
X28.452 Z-17.135
X28.448 Z0.
X26.931
X26.897 Z0.004
X26.865 Z0.015
X26.833 Z0.027
X26.799 Z0.031
X26.761 Y41.407
X26.728 Y41.429
X26.706 Y41.461
X26.699 Y41.5
X26.706 Y41.538
X26.728 Y41.57
X26.761 Y41.592
X26.799 Y41.6
X26.829
X26.863 Z0.027
X26.895 Z0.015
X26.927 Z0.004
X26.961 Z0.
X28.475
Z-17.1
X28.633 Z-17.103
X30.063 Z-17.118
X31.522 Z-17.1
X31.525 Z0.
X33.039
X33.073 Z0.004
X33.105 Z0.015
X33.137 Z0.027
X33.171 Z0.031
X33.209 Y41.607
X33.242 Y41.629
X33.263 Y41.661
X33.271 Y41.7
X33.263 Y41.738
X33.242 Y41.77
X33.209 Y41.792
X33.171 Y41.8
X33.148
X33.114 Z0.027
X33.082 Z0.015
X33.05 Z0.004
X33.016 Z0.
X31.514
X31.51 Z-17.064
X29.974 Z-17.081
X28.49 Z-17.064
X28.486 Z0.
X26.984
X26.95 Z0.004
X26.918 Z0.015
X26.886 Z0.027
X26.852 Z0.031
X26.813 Y41.807
X26.781 Y41.829
X26.759 Y41.861
X26.752 Y41.9
X26.759 Y41.938
X26.781 Y41.97
X26.813 Y41.992
X26.852 Y42.
X26.862
X26.896 Z0.027
X26.928 Z0.015
X26.96 Z0.004
X26.994 Z0.
X28.496
X28.497 Z-17.028
X29.968 Z-17.045
X31.503 Z-17.028
X31.504 Z0.
X33.006
X33.04 Z0.004
X33.072 Z0.015
X33.104 Z0.027
X33.138 Z0.031
X33.177 Y42.007
X33.209 Y42.029
X33.231 Y42.061
X33.238 Y42.1
X33.231 Y42.138
X33.209 Y42.17
X33.177 Y42.192
X33.138 Y42.2
X33.132
X33.098 Z0.027
X33.066 Z0.015
X33.034 Z0.004
X33. Z0.
X31.5
Z-16.992
X29.974 Z-17.009
X28.5 Z-16.992
Z0.
X27.
X26.966 Z0.004
X26.934 Z0.015
X26.902 Z0.027
X26.868 Z0.031
X26.83 Y42.207
X26.797 Y42.229
X26.776 Y42.261
X26.768 Y42.299
X26.776 Y42.338
X26.797 Y42.37
X26.83 Y42.392
X26.868 Y42.399
X26.902 Z0.027
X26.934 Z0.015
X26.966 Z0.004
X27. Z0.
X28.5
Z-16.956
X29.963 Z-16.972
X31.5 Z-16.956
Z0.
X33.
X33.034 Z0.004
X33.066 Z0.015
X33.098 Z0.027
X33.132 Z0.031
X33.17 Y42.407
X33.203 Y42.429
X33.224 Y42.461
X33.232 Y42.499
X33.224 Y42.538
X33.203 Y42.57
X33.17 Y42.592
X33.132 Y42.599
X33.098 Z0.027
X33.066 Z0.015
X33.034 Z0.004
X33. Z0.
X31.5
Z-16.92
X29.963 Z-16.936
X28.5 Z-16.92
Z0.
X27.
X26.966 Z0.004
X26.934 Z0.015
X26.902 Z0.027
X26.868 Z0.031
X26.83 Y42.607
X26.797 Y42.629
X26.776 Y42.661
X26.768 Y42.699
X26.776 Y42.738
X26.797 Y42.77
X26.83 Y42.792
X26.868 Y42.799
X26.902 Z0.027
X26.934 Z0.015
X26.966 Z0.004
X27. Z0.
X28.5
Z-16.884
X29.94 Z-16.9
X31.5 Z-16.884
Z0.
X33.
X33.034 Z0.004
X33.066 Z0.015
X33.098 Z0.027
X33.132 Z0.031
X33.17 Y42.807
X33.203 Y42.829
X33.224 Y42.861
X33.232 Y42.899
X33.224 Y42.938
X33.203 Y42.97
X33.17 Y42.992
X33.132 Y42.999
X33.098 Z0.027
X33.066 Z0.015
X33.034 Z0.004
X33. Z0.
X31.5
Z-16.848
X29.94 Z-16.863
X28.5 Z-16.848
Z0.
X27.
X26.966 Z0.004
X26.934 Z0.015
X26.902 Z0.027
X26.868 Z0.031
X26.83 Y43.007
X26.797 Y43.029
X26.776 Y43.061
X26.768 Y43.099
X26.776 Y43.138
X26.797 Y43.17
X26.83 Y43.192
X26.868 Y43.199
X26.902 Z0.027
X26.934 Z0.015
X26.966 Z0.004
X27. Z0.
X28.5
Z-16.812
X29.925 Z-16.827
X31.5 Z-16.812
Z0.
X33.
X33.034 Z0.004
X33.066 Z0.015
X33.098 Z0.027
X33.132 Z0.031
X33.17 Y43.207
X33.203 Y43.229
X33.224 Y43.261
X33.232 Y43.299
X33.224 Y43.338
X33.203 Y43.37
X33.17 Y43.392
X33.132 Y43.399
X33.098 Z0.027
X33.066 Z0.015
X33.034 Z0.004
X33. Z0.
X31.5
Z-16.776
X29.925 Z-16.791
X28.5 Z-16.776
Z0.
X27.
X26.966 Z0.004
X26.934 Z0.015
X26.902 Z0.027
X26.868 Z0.031
X26.83 Y43.407
X26.797 Y43.429
X26.776 Y43.461
X26.768 Y43.499
X26.776 Y43.538
X26.797 Y43.57
X26.83 Y43.592
X26.868 Y43.599
X26.902 Z0.027
X26.934 Z0.015
X26.966 Z0.004
X27. Z0.
X28.5
Z-16.739
X29.81 Z-16.754
X31.5 Z-16.739
Z0.
X33.
X33.034 Z0.004
X33.066 Z0.015
X33.098 Z0.027
X33.132 Z0.031
X33.17 Y43.607
X33.203 Y43.629
X33.224 Y43.661
X33.232 Y43.699
X33.224 Y43.738
X33.203 Y43.77
X33.17 Y43.792
X33.132 Y43.799
X33.098 Z0.027
X33.066 Z0.015
X33.034 Z0.004
X33. Z0.
X31.5
Z-16.703
X29.81 Z-16.718
X28.5 Z-16.703
Z0.
X27.
X26.966 Z0.004
X26.934 Z0.015
X26.902 Z0.027
X26.868 Z0.031
X26.83 Y43.807
X26.797 Y43.829
X26.776 Y43.861
X26.768 Y43.899
X26.776 Y43.938
X26.797 Y43.97
X26.83 Y43.992
X26.868 Y43.999
X26.902 Z0.027
X26.934 Z0.015
X26.966 Z0.004
X27. Z0.
X28.5
Z-16.667
X29.81 Z-16.681
X31.5 Z-16.667
Z0.
X33.
X33.034 Z0.004
X33.066 Z0.015
X33.098 Z0.027
X33.132 Z0.031
X33.17 Y44.007
X33.203 Y44.029
X33.224 Y44.061
X33.232 Y44.099
X33.224 Y44.138
X33.203 Y44.17
X33.17 Y44.192
X33.132 Y44.199
X33.098 Z0.027
X33.066 Z0.015
X33.034 Z0.004
X33. Z0.
X31.5
Z-16.631
X29.81 Z-16.645
X28.5 Z-16.631
Z0.
X27.
X26.966 Z0.004
X26.934 Z0.015
X26.902 Z0.027
X26.868 Z0.031
X26.83 Y44.207
X26.797 Y44.229
X26.776 Y44.261
X26.768 Y44.299
X26.776 Y44.338
X26.797 Y44.37
X26.83 Y44.392
X26.868 Y44.399
X26.902 Z0.027
X26.934 Z0.015
X26.966 Z0.004
X27. Z0.
X28.5
Z-16.595
X29.81 Z-16.609
X31.5 Z-16.595
Z0.
X33.
X33.034 Z0.004
X33.066 Z0.015
X33.098 Z0.027
X33.132 Z0.031
X33.17 Y44.407
X33.203 Y44.429
X33.224 Y44.461
X33.232 Y44.499
X33.224 Y44.538
X33.203 Y44.57
X33.17 Y44.592
X33.132 Y44.599
X33.098 Z0.027
X33.066 Z0.015
X33.034 Z0.004
X33. Z0.
X31.5
Z-16.559
X29.81 Z-16.572
X28.5 Z-16.559
Z0.
X27.
X26.966 Z0.004
X26.934 Z0.015
X26.902 Z0.027
X26.868 Z0.031
X26.83 Y44.607
X26.797 Y44.629
X26.776 Y44.661
X26.768 Y44.699
X26.776 Y44.738
X26.797 Y44.77
X26.83 Y44.792
X26.868 Y44.799
X26.902 Z0.027
X26.934 Z0.015
X26.966 Z0.004
X27. Z0.
X28.5
Z-16.523
X29.81 Z-16.536
X31.5 Z-16.523
Z0.
X33.
X33.034 Z0.004
X33.066 Z0.015
X33.098 Z0.027
X33.132 Z0.031
X33.17 Y44.807
X33.203 Y44.829
X33.224 Y44.861
X33.232 Y44.899
X33.224 Y44.938
X33.203 Y44.97
X33.17 Y44.992
X33.132 Y44.999
X33.098 Z0.027
X33.066 Z0.015
X33.034 Z0.004
X33. Z0.
X31.5
Z-16.486
X29.81 Z-16.5
X28.5 Z-16.486
Z0.
X27.
X26.966 Z0.004
X26.934 Z0.015
X26.902 Z0.027
X26.868 Z0.031
X26.83 Y45.007
X26.797 Y45.029
X26.776 Y45.061
X26.768 Y45.099
X26.776 Y45.138
X26.797 Y45.17
X26.83 Y45.192
X26.868 Y45.199
X26.902 Z0.027
X26.934 Z0.015
X26.966 Z0.004
X27. Z0.
X28.5
Z-16.45
X29.81 Z-16.463
X31.5 Z-16.45
Z0.
X33.
X33.034 Z0.004
X33.066 Z0.015
X33.098 Z0.027
X33.132 Z0.031
X33.17 Y45.207
X33.203 Y45.229
X33.224 Y45.261
X33.232 Y45.299
X33.224 Y45.338
X33.203 Y45.37
X33.17 Y45.392
X33.132 Y45.399
X33.098 Z0.027
X33.066 Z0.015
X33.034 Z0.004
X33. Z0.
X31.5
Z-16.414
X29.81 Z-16.427
X28.5 Z-16.414
X28.497 Z0.
X27.
X26.966 Z0.004
X26.934 Z0.015
X26.902 Z0.027
X26.868 Z0.031
X26.83 Y45.407
X26.797 Y45.429
X26.776 Y45.461
X26.768 Y45.499
X26.776 Y45.538
X26.797 Y45.57
X26.83 Y45.592
X26.868 Y45.599
X26.902 Z0.027
X26.934 Z0.015
X26.966 Z0.004
X27. Z0.
X28.497
X28.5 Z-16.378
X29.81 Z-16.391
X31.5 Z-16.378
Z0.
X33.
X33.034 Z0.004
X33.066 Z0.015
X33.098 Z0.027
X33.132 Z0.031
X33.17 Y45.607
X33.203 Y45.629
X33.224 Y45.661
X33.232 Y45.699
X33.224 Y45.738
X33.203 Y45.77
X33.17 Y45.792
X33.132 Y45.799
X33.098 Z0.027
X33.066 Z0.015
X33.034 Z0.004
X33. Z0.
X31.5
Z-16.342
X29.81 Z-16.354
X28.5 Z-16.342
X28.497 Z0.
X27.
X26.966 Z0.004
X26.934 Z0.015
X26.902 Z0.027
X26.868 Z0.031
X26.83 Y45.807
X26.797 Y45.829
X26.776 Y45.861
X26.768 Y45.899
X26.776 Y45.938
X26.797 Y45.97
X26.83 Y45.992
X26.868 Y45.999
X26.902 Z0.027
X26.934 Z0.015
X26.966 Z0.004
X27. Z0.
X28.497
X28.5 Z-16.305
X29.81 Z-16.318
X31.5 Z-16.305
Z0.
X33.
X33.034 Z0.004
X33.066 Z0.015
X33.098 Z0.027
X33.132 Z0.031
X33.17 Y46.007
X33.203 Y46.029
X33.224 Y46.061
X33.232 Y46.099
