%
(1001)
(Machine)
(  vendor: Autodesk)
(  description: Generic Cutting Machine)
G90 G94
G17
G21

(2D Profile3)
G53
G0 S50 M4
G0 X131.824 Y90.361
G1 X131.77 Y90.331 F1000
G1 X131.694 Y90.286
G1 X131.626 Y90.244
G1 X131.566 Y90.204
G1 X131.514 Y90.166
G1 X131.472 Y90.132
G1 X131.439 Y90.1
G1 X131.415 Y90.071
G1 X131.402 Y90.046
G1 X131.399 Y90.024
G1 X131.41 Y89.998
G1 X131.44 Y89.96
G1 X131.488 Y89.911
G1 X131.554 Y89.852
G1 X131.636 Y89.782
G1 X131.735 Y89.702
G1 X131.849 Y89.614
G1 X131.977 Y89.516
G1 X132.12 Y89.41
G1 X132.277 Y89.295
G1 X132.446 Y89.173
G1 X132.628 Y89.044
G1 X132.822 Y88.909
G1 X133.026 Y88.767
G1 X133.241 Y88.619
G1 X133.466 Y88.466
G1 X133.7 Y88.308
G1 X133.942 Y88.145
G1 X134.193 Y87.979
G1 X134.451 Y87.809
G1 X134.715 Y87.635
G1 X134.985 Y87.46
G1 X135.261 Y87.281
G1 X135.542 Y87.101
G1 X136.235 Y86.647
G1 X136.933 Y86.17
G1 X137.632 Y85.672
G1 X138.331 Y85.155
G1 X139.027 Y84.62
G1 X139.718 Y84.072
G1 X140.403 Y83.511
G1 X141.078 Y82.939
G1 X141.741 Y82.36
G1 X142.39 Y81.775
G1 X143.024 Y81.186
G1 X143.639 Y80.596
G1 X144.234 Y80.006
G1 X144.805 Y79.42
G1 X145.352 Y78.838
G1 X145.872 Y78.263
G1 X146.362 Y77.698
G1 X146.82 Y77.145
G1 X147.245 Y76.605
G1 X147.633 Y76.081
G1 X147.983 Y75.575
G1 X148.292 Y75.09
G1 X148.558 Y74.627
G1 X148.78 Y74.189
G1 X149.054 Y73.562
G1 X149.291 Y72.94
G1 X149.492 Y72.323
G1 X149.657 Y71.712
G1 X149.786 Y71.109
G1 X149.88 Y70.515
G1 X149.939 Y69.931
G1 X149.963 Y69.358
G1 X149.952 Y68.797
G1 X149.907 Y68.249
G1 X149.828 Y67.716
G1 X149.715 Y67.199
G1 X149.569 Y66.698
G1 X149.389 Y66.215
G1 X149.177 Y65.752
G1 X148.932 Y65.308
G1 X148.655 Y64.886
G1 X148.346 Y64.486
G1 X148.006 Y64.111
G1 X147.634 Y63.759
G1 X147.436 Y63.593
G1 X147.23 Y63.434
G1 X147.017 Y63.282
G1 X146.797 Y63.136
G1 X146.568 Y62.997
G1 X146.332 Y62.866
G1 X146.089 Y62.742
G1 X145.837 Y62.626
G1 X145.482 Y62.477
G1 X145.123 Y62.344
G1 X144.763 Y62.229
G1 X144.399 Y62.129
G1 X144.033 Y62.046
G1 X143.663 Y61.98
G1 X143.289 Y61.931
G1 X142.911 Y61.897
G1 X142.528 Y61.881
G1 X142.141 Y61.882
G1 X141.749 Y61.899
G1 X141.351 Y61.933
G1 X140.947 Y61.983
G1 X140.537 Y62.051
G1 X140.121 Y62.135
G1 X139.698 Y62.237
G1 X139.268 Y62.355
G1 X138.831 Y62.49
G1 X138.386 Y62.643
G1 X137.932 Y62.812
G1 X137.471 Y62.999
G1 X137 Y63.202
G1 X136.521 Y63.423
G1 X136.032 Y63.661
G1 X135.834 Y63.76
G1 X135.638 Y63.858
G1 X135.446 Y63.953
G1 X135.257 Y64.046
G1 X135.073 Y64.137
G1 X134.893 Y64.225
G1 X134.718 Y64.31
G1 X134.549 Y64.393
G1 X134.386 Y64.472
G1 X134.229 Y64.547
G1 X134.08 Y64.619
G1 X133.938 Y64.687
G1 X133.803 Y64.75
G1 X133.677 Y64.81
G1 X133.56 Y64.864
G1 X133.453 Y64.914
G1 X133.355 Y64.959
G1 X133.267 Y64.999
G1 X133.19 Y65.033
G1 X133.124 Y65.061
G1 X133.07 Y65.084
G1 X133.027 Y65.1
G1 X132.998 Y65.11
G1 X132.981 Y65.113
G1 X132.971 Y65.098
G1 X132.961 Y65.052
G1 X132.952 Y64.977
G1 X132.942 Y64.873
G1 X132.933 Y64.742
G1 X132.924 Y64.585
G1 X132.916 Y64.403
G1 X132.907 Y64.196
G1 X132.899 Y63.966
G1 X132.892 Y63.714
G1 X132.884 Y63.441
G1 X132.877 Y63.147
G1 X132.871 Y62.835
G1 X132.865 Y62.504
G1 X132.859 Y62.156
G1 X132.854 Y61.792
G1 X132.849 Y61.413
G1 X132.845 Y61.019
G1 X132.841 Y60.613
G1 X132.838 Y60.194
G1 X132.836 Y59.765
G1 X132.834 Y59.326
G1 X132.833 Y58.877
G1 X132.832 Y58.421
G1 X132.83 Y57.796
G1 X132.825 Y57.187
G1 X132.817 Y56.593
G1 X132.805 Y56.013
G1 X132.789 Y55.444
G1 X132.769 Y54.886
G1 X132.746 Y54.335
G1 X132.718 Y53.791
G1 X132.686 Y53.253
G1 X132.649 Y52.717
G1 X132.608 Y52.184
G1 X132.562 Y51.651
G1 X132.511 Y51.117
G1 X132.455 Y50.579
G1 X132.394 Y50.037
G1 X132.327 Y49.488
G1 X132.255 Y48.932
G1 X132.178 Y48.366
G1 X132.095 Y47.789
G1 X132.005 Y47.199
G1 X131.91 Y46.594
G1 X131.809 Y45.974
G1 X131.701 Y45.336
G1 X131.586 Y44.678
G1 X131.403 Y43.647
G1 X131.225 Y42.658
G1 X131.051 Y41.709
G1 X130.881 Y40.801
G1 X130.715 Y39.932
G1 X130.554 Y39.102
G1 X130.396 Y38.31
G1 X130.242 Y37.556
G1 X130.092 Y36.839
G1 X129.945 Y36.158
G1 X129.801 Y35.512
G1 X129.66 Y34.901
G1 X129.523 Y34.325
G1 X129.388 Y33.782
G1 X129.255 Y33.272
G1 X129.125 Y32.795
G1 X128.998 Y32.349
G1 X128.872 Y31.934
G1 X128.749 Y31.549
G1 X128.627 Y31.194
G1 X128.507 Y30.868
G1 X128.389 Y30.571
G1 X128.272 Y30.301
G1 X128.156 Y30.058
G1 X128.065 Y29.893
G1 X127.96 Y29.731
G1 X127.839 Y29.571
G1 X127.704 Y29.413
G1 X127.554 Y29.258
G1 X127.391 Y29.105
G1 X127.215 Y28.954
G1 X127.025 Y28.807
G1 X126.608 Y28.519
G1 X126.144 Y28.243
G1 X125.633 Y27.98
G1 X125.081 Y27.73
G1 X124.489 Y27.493
G1 X123.86 Y27.271
G1 X123.198 Y27.064
G1 X122.504 Y26.873
G1 X121.783 Y26.699
G1 X121.036 Y26.543
G1 X120.266 Y26.404
G1 X119.477 Y26.285
G1 X118.671 Y26.185
G1 X117.85 Y26.105
G1 X117.019 Y26.047
G1 X116.18 Y26.01
G1 X115.334 Y25.996
G1 X114.487 Y26.005
G1 X113.639 Y26.038
G1 X112.794 Y26.096
G1 X112.07 Y26.164
G1 X111.389 Y26.243
G1 X110.752 Y26.334
G1 X110.155 Y26.438
G1 X109.598 Y26.558
G1 X109.08 Y26.693
G1 X108.599 Y26.846
G1 X108.153 Y27.018
G1 X107.742 Y27.21
G1 X107.363 Y27.423
G1 X107.015 Y27.658
G1 X106.697 Y27.917
G1 X106.408 Y28.201
G1 X106.145 Y28.512
G1 X105.908 Y28.851
G1 X105.695 Y29.218
G1 X105.505 Y29.615
G1 X105.336 Y30.044
G1 X105.187 Y30.506
G1 X105.056 Y31.002
G1 X104.942 Y31.533
G1 X104.843 Y32.101
G1 X104.759 Y32.707
G1 X104.687 Y33.352
G1 X104.36 Y36.65
G1 X100.297 Y36.572
G1 X96.234 Y36.495
G1 X95.854 Y33.496
G1 X95.789 Y33.01
G1 X95.723 Y32.552
G1 X95.653 Y32.12
G1 X95.58 Y31.713
G1 X95.503 Y31.331
G1 X95.422 Y30.971
G1 X95.335 Y30.634
G1 X95.242 Y30.317
G1 X95.143 Y30.02
G1 X95.036 Y29.741
G1 X94.923 Y29.48
G1 X94.801 Y29.235
G1 X94.67 Y29.006
G1 X94.53 Y28.79
G1 X94.379 Y28.588
G1 X94.218 Y28.397
G1 X94.047 Y28.217
G1 X93.863 Y28.047
G1 X93.667 Y27.886
G1 X93.458 Y27.732
G1 X93.235 Y27.584
G1 X92.999 Y27.442
G1 X92.747 Y27.304
G1 X92.481 Y27.169
G1 X92.186 Y27.039
G1 X91.848 Y26.917
G1 X91.471 Y26.802
G1 X91.058 Y26.695
G1 X90.612 Y26.596
G1 X90.135 Y26.504
G1 X89.63 Y26.421
G1 X89.101 Y26.347
G1 X88.551 Y26.28
G1 X87.982 Y26.223
G1 X87.398 Y26.175
G1 X86.801 Y26.135
G1 X86.194 Y26.105
G1 X85.581 Y26.084
G1 X84.964 Y26.073
G1 X84.347 Y26.071
G1 X83.732 Y26.08
G1 X83.122 Y26.098
G1 X82.521 Y26.127
G1 X81.931 Y26.166
G1 X81.355 Y26.216
G1 X80.796 Y26.277
G1 X80.258 Y26.349
G1 X79.743 Y26.431
G1 X79.3 Y26.515
G1 X78.862 Y26.609
G1 X78.429 Y26.713
G1 X78.002 Y26.826
G1 X77.582 Y26.948
G1 X77.17 Y27.079
G1 X76.767 Y27.218
G1 X76.374 Y27.364
G1 X75.992 Y27.518
G1 X75.621 Y27.678
G1 X75.263 Y27.844
G1 X74.919 Y28.015
G1 X74.589 Y28.192
G1 X74.275 Y28.373
G1 X73.977 Y28.559
G1 X73.697 Y28.748
G1 X73.435 Y28.94
G1 X73.192 Y29.135
G1 X72.969 Y29.332
G1 X72.768 Y29.531
G1 X72.588 Y29.731
G1 X72.431 Y29.932
G1 X72.299 Y30.133
G1 X72.191 Y30.334
G1 X72.068 Y30.618
G1 X71.936 Y30.968
G1 X71.796 Y31.383
G1 X71.649 Y31.858
G1 X71.494 Y32.39
G1 X71.334 Y32.976
G1 X71.167 Y33.612
G1 X70.997 Y34.294
G1 X70.822 Y35.02
G1 X70.644 Y35.786
G1 X70.464 Y36.588
G1 X70.282 Y37.423
G1 X70.099 Y38.288
G1 X69.916 Y39.178
G1 X69.734 Y40.091
G1 X69.553 Y41.023
G1 X69.373 Y41.97
G1 X69.197 Y42.93
G1 X69.024 Y43.898
G1 X68.855 Y44.872
G1 X68.692 Y45.847
G1 X68.534 Y46.821
G1 X68.382 Y47.789
G1 X68.238 Y48.749
G1 X68.152 Y49.345
G1 X68.071 Y49.93
G1 X67.994 Y50.505
G1 X67.922 Y51.069
G1 X67.854 Y51.624
G1 X67.792 Y52.17
G1 X67.733 Y52.708
G1 X67.68 Y53.239
G1 X67.63 Y53.763
G1 X67.585 Y54.281
G1 X67.545 Y54.793
G1 X67.508 Y55.301
G1 X67.477 Y55.804
G1 X67.449 Y56.304
G1 X67.425 Y56.801
G1 X67.406 Y57.296
G1 X67.391 Y57.789
G1 X67.379 Y58.281
G1 X67.372 Y58.773
G1 X67.369 Y59.265
G1 X67.37 Y59.759
G1 X67.374 Y60.254
G1 X67.383 Y60.751
G1 X67.395 Y61.252
G1 X67.407 Y61.705
G1 X67.416 Y62.14
G1 X67.424 Y62.555
G1 X67.429 Y62.951
G1 X67.432 Y63.327
G1 X67.433 Y63.684
G1 X67.431 Y64.021
G1 X67.428 Y64.339
G1 X67.422 Y64.636
G1 X67.414 Y64.914
G1 X67.404 Y65.171
G1 X67.391 Y65.409
G1 X67.377 Y65.625
G1 X67.36 Y65.822
G1 X67.341 Y65.998
G1 X67.32 Y66.153
G1 X67.297 Y66.288
G1 X67.272 Y66.402
G1 X67.245 Y66.495
G1 X67.215 Y66.567
G1 X67.184 Y66.617
G1 X67.15 Y66.647
G1 X67.114 Y66.655
G1 X67.076 Y66.642
G1 X67.039 Y66.619
G1 X66.993 Y66.59
G1 X66.938 Y66.555
G1 X66.876 Y66.515
G1 X66.807 Y66.47
G1 X66.73 Y66.42
G1 X66.646 Y66.365
G1 X66.556 Y66.306
G1 X66.46 Y66.243
G1 X66.358 Y66.176
G1 X66.252 Y66.105
G1 X66.14 Y66.031
G1 X66.023 Y65.954
G1 X65.903 Y65.874
G1 X65.779 Y65.792
G1 X65.652 Y65.707
G1 X65.522 Y65.62
G1 X65.389 Y65.531
G1 X65.254 Y65.441
G1 X65.117 Y65.35
G1 X64.979 Y65.257
G1 X64.84 Y65.163
G1 X64.7 Y65.069
G1 X64.56 Y64.975
G1 X64.239 Y64.766
G1 X63.903 Y64.559
G1 X63.552 Y64.355
G1 X63.187 Y64.155
G1 X62.812 Y63.958
G1 X62.427 Y63.766
G1 X62.033 Y63.578
G1 X61.634 Y63.397
G1 X61.229 Y63.222
G1 X60.822 Y63.054
G1 X60.413 Y62.894
G1 X60.004 Y62.742
G1 X59.598 Y62.598
G1 X59.194 Y62.464
G1 X58.796 Y62.34
G1 X58.405 Y62.226
G1 X58.022 Y62.123
G1 X57.649 Y62.032
G1 X57.288 Y61.954
G1 X56.941 Y61.888
G1 X56.608 Y61.836
G1 X56.292 Y61.798
G1 X55.995 Y61.775
G1 X55.717 Y61.767
G1 X55.417 Y61.777
G1 X55.108 Y61.805
G1 X54.793 Y61.851
G1 X54.472 Y61.915
G1 X54.148 Y61.995
G1 X53.821 Y62.09
G1 X53.493 Y62.2
G1 X53.166 Y62.324
G1 X52.84 Y62.462
G1 X52.516 Y62.612
G1 X52.198 Y62.774
G1 X51.885 Y62.946
G1 X51.579 Y63.129
G1 X51.281 Y63.321
G1 X50.993 Y63.521
G1 X50.717 Y63.73
G1 X50.452 Y63.945
G1 X50.202 Y64.167
G1 X49.967 Y64.394
G1 X49.748 Y64.626
G1 X49.548 Y64.861
G1 X49.366 Y65.1
G1 X49.206 Y65.341
G1 X49.067 Y65.584
G1 X48.916 Y65.892
G1 X48.779 Y66.208
G1 X48.657 Y66.533
G1 X48.549 Y66.866
G1 X48.457 Y67.206
G1 X48.379 Y67.552
G1 X48.315 Y67.905
G1 X48.266 Y68.263
G1 X48.232 Y68.627
G1 X48.212 Y68.995
G1 X48.207 Y69.367
G1 X48.216 Y69.742
G1 X48.24 Y70.121
G1 X48.278 Y70.502
G1 X48.33 Y70.885
G1 X48.397 Y71.269
G1 X48.478 Y71.654
G1 X48.574 Y72.04
G1 X48.683 Y72.425
G1 X48.808 Y72.81
G1 X48.946 Y73.193
G1 X49.099 Y73.575
G1 X49.266 Y73.954
G1 X49.447 Y74.331
G1 X49.68 Y74.762
G1 X49.958 Y75.219
G1 X50.281 Y75.7
G1 X50.644 Y76.203
G1 X51.047 Y76.725
G1 X51.485 Y77.265
G1 X51.958 Y77.819
G1 X52.463 Y78.386
G1 X52.997 Y78.964
G1 X53.558 Y79.55
G1 X54.143 Y80.141
G1 X54.752 Y80.737
G1 X55.38 Y81.333
G1 X56.026 Y81.929
G1 X56.687 Y82.522
G1 X57.361 Y83.109
G1 X58.046 Y83.688
G1 X58.739 Y84.258
G1 X59.438 Y84.815
G1 X60.141 Y85.358
G1 X60.845 Y85.885
G1 X61.548 Y86.392
G1 X62.247 Y86.878
G1 X62.941 Y87.34
G1 X67.338 Y90.208
G1 X64.817 Y90.968
G1 X63.737 Y91.313
G1 X62.676 Y91.691
G1 X61.636 Y92.1
G1 X60.617 Y92.542
G1 X59.619 Y93.014
G1 X58.643 Y93.518
G1 X57.689 Y94.051
G1 X56.757 Y94.615
G1 X55.849 Y95.209
G1 X54.965 Y95.832
G1 X54.104 Y96.484
G1 X53.269 Y97.165
G1 X52.458 Y97.873
G1 X51.672 Y98.61
G1 X50.913 Y99.374
G1 X50.18 Y100.165
G1 X49.473 Y100.982
G1 X48.794 Y101.826
G1 X48.143 Y102.695
G1 X47.52 Y103.59
G1 X46.926 Y104.51
G1 X46.361 Y105.455
G1 X45.825 Y106.424
G1 X45.32 Y107.416
G1 X44.996 Y108.095
G1 X44.687 Y108.773
G1 X44.393 Y109.451
G1 X44.114 Y110.131
G1 X43.849 Y110.814
G1 X43.599 Y111.501
G1 X43.362 Y112.193
G1 X43.139 Y112.892
G1 X42.93 Y113.6
G1 X42.733 Y114.317
G1 X42.549 Y115.045
G1 X42.377 Y115.785
G1 X42.217 Y116.538
G1 X42.069 Y117.306
G1 X41.932 Y118.091
G1 X41.807 Y118.893
G1 X41.693 Y119.713
G1 X41.589 Y120.554
G1 X41.495 Y121.416
G1 X41.412 Y122.301
G1 X41.338 Y123.21
G1 X41.274 Y124.145
G1 X41.219 Y125.106
G1 X41.172 Y126.095
G1 X41.131 Y127.282
G1 X41.108 Y128.454
G1 X41.103 Y129.611
G1 X41.116 Y130.755
G1 X41.148 Y131.885
G1 X41.198 Y133.003
G1 X41.266 Y134.109
G1 X41.354 Y135.204
G1 X41.46 Y136.29
G1 X41.585 Y137.365
G1 X41.729 Y138.432
G1 X41.892 Y139.491
G1 X42.074 Y140.543
G1 X42.276 Y141.588
G1 X42.497 Y142.627
G1 X42.738 Y143.661
G1 X42.999 Y144.691
G1 X43.28 Y145.718
G1 X43.581 Y146.741
G1 X43.902 Y147.762
G1 X44.243 Y148.782
G1 X44.604 Y149.802
G1 X44.986 Y150.821
G1 X45.389 Y151.841
G1 X46.73 Y155.157
G1 X44.33 Y157.695
G1 X44.163 Y157.875
G1 X43.993 Y158.064
G1 X43.821 Y158.261
G1 X43.647 Y158.467
G1 X43.472 Y158.679
G1 X43.296 Y158.898
G1 X43.12 Y159.122
G1 X42.944 Y159.35
G1 X42.769 Y159.583
G1 X42.596 Y159.819
G1 X42.424 Y160.056
G1 X42.256 Y160.295
G1 X42.09 Y160.535
G1 X41.929 Y160.775
G1 X41.771 Y161.013
G1 X41.619 Y161.25
G1 X41.472 Y161.484
G1 X41.33 Y161.715
G1 X41.196 Y161.942
G1 X41.068 Y162.163
G1 X40.948 Y162.379
G1 X40.837 Y162.588
G1 X40.734 Y162.79
G1 X40.641 Y162.983
G1 X40.502 Y163.283
G1 X40.373 Y163.568
G1 X40.254 Y163.841
G1 X40.144 Y164.105
G1 X40.044 Y164.36
G1 X39.952 Y164.611
G1 X39.869 Y164.859
G1 X39.793 Y165.107
G1 X39.725 Y165.357
G1 X39.665 Y165.612
G1 X39.611 Y165.873
G1 X39.563 Y166.144
G1 X39.522 Y166.426
G1 X39.486 Y166.723
G1 X39.455 Y167.036
G1 X39.43 Y167.368
G1 X39.408 Y167.721
G1 X39.391 Y168.098
G1 X39.377 Y168.501
G1 X39.367 Y168.933
G1 X39.36 Y169.395
G1 X39.355 Y169.89
G1 X39.353 Y170.422
G1 X39.352 Y170.991
G1 X39.353 Y171.56
G1 X39.355 Y172.091
G1 X39.36 Y172.587
G1 X39.367 Y173.049
G1 X39.377 Y173.48
G1 X39.391 Y173.883
G1 X39.408 Y174.26
G1 X39.43 Y174.613
G1 X39.455 Y174.945
G1 X39.486 Y175.258
G1 X39.522 Y175.555
G1 X39.563 Y175.838
G1 X39.611 Y176.108
G1 X39.665 Y176.37
G1 X39.725 Y176.624
G1 X39.793 Y176.874
G1 X39.869 Y177.122
G1 X39.952 Y177.37
G1 X40.044 Y177.621
G1 X40.144 Y177.877
G1 X40.254 Y178.14
G1 X40.373 Y178.413
G1 X40.502 Y178.699
G1 X40.641 Y178.999
G1 X40.876 Y179.479
G1 X41.129 Y179.957
G1 X41.401 Y180.432
G1 X41.689 Y180.903
G1 X41.994 Y181.37
G1 X42.314 Y181.832
G1 X42.648 Y182.287
G1 X42.997 Y182.735
G1 X43.358 Y183.175
G1 X43.731 Y183.607
G1 X44.116 Y184.029
G1 X44.511 Y184.44
G1 X44.915 Y184.84
G1 X45.328 Y185.228
G1 X45.75 Y185.604
G1 X46.178 Y185.965
G1 X46.613 Y186.312
G1 X47.053 Y186.643
G1 X47.497 Y186.958
G1 X47.946 Y187.256
G1 X48.397 Y187.536
G1 X48.851 Y187.797
G1 X49.306 Y188.038
G1 X49.762 Y188.259
G1 X50.076 Y188.403
G1 X50.376 Y188.536
G1 X50.662 Y188.66
G1 X50.938 Y188.775
G1 X51.204 Y188.88
G1 X51.463 Y188.976
G1 X51.716 Y189.065
G1 X51.966 Y189.145
G1 X52.215 Y189.217
G1 X52.464 Y189.283
G1 X52.715 Y189.341
G1 X52.97 Y189.393
G1 X53.231 Y189.438
G1 X53.5 Y189.478
G1 X53.779 Y189.512
G1 X54.07 Y189.542
G1 X54.374 Y189.566
G1 X54.694 Y189.586
G1 X55.032 Y189.602
G1 X55.389 Y189.614
G1 X55.767 Y189.623
G1 X56.168 Y189.629
G1 X56.595 Y189.632
G1 X57.048 Y189.633
G1 X57.518 Y189.632
G1 X57.957 Y189.629
G1 X58.367 Y189.624
G1 X58.752 Y189.615
G1 X59.113 Y189.603
G1 X59.452 Y189.588
G1 X59.772 Y189.568
G1 X60.076 Y189.543
G1 X60.364 Y189.512
G1 X60.64 Y189.476
G1 X60.905 Y189.434
G1 X61.163 Y189.385
G1 X61.415 Y189.329
G1 X61.664 Y189.265
G1 X61.911 Y189.194
G1 X62.16 Y189.113
G1 X62.411 Y189.024
G1 X62.669 Y188.925
G1 X62.934 Y188.816
G1 X63.209 Y188.697
G1 X63.497 Y188.567
G1 X63.799 Y188.425
G1 X64.119 Y188.272
G1 X64.457 Y188.106
G1 X64.673 Y187.997
G1 X64.893 Y187.882
G1 X65.117 Y187.76
G1 X65.345 Y187.633
G1 X65.575 Y187.5
G1 X65.807 Y187.362
G1 X66.039 Y187.221
G1 X66.272 Y187.075
G1 X66.505 Y186.926
G1 X66.736 Y186.775
G1 X66.965 Y186.622
G1 X67.191 Y186.467
G1 X67.414 Y186.31
G1 X67.633 Y186.154
G1 X67.846 Y185.997
G1 X68.054 Y185.84
G1 X68.255 Y185.685
G1 X68.449 Y185.531
G1 X68.635 Y185.379
G1 X68.812 Y185.23
G1 X68.979 Y185.084
G1 X69.136 Y184.941
G1 X69.282 Y184.803
G1 X69.416 Y184.669
G1 X71.278 Y182.758
G1 X73.957 Y184.097
G1 X74.389 Y184.308
G1 X74.845 Y184.52
G1 X75.325 Y184.735
G1 X75.826 Y184.95
G1 X76.346 Y185.167
G1 X76.885 Y185.383
G1 X77.441 Y185.599
G1 X78.012 Y185.814
G1 X78.596 Y186.028
G1 X79.192 Y186.239
G1 X79.798 Y186.448
G1 X80.412 Y186.654
G1 X81.034 Y186.856
G1 X81.661 Y187.054
G1 X82.292 Y187.247
G1 X82.925 Y187.435
G1 X83.558 Y187.618
G1 X84.19 Y187.794
G1 X84.82 Y187.963
G1 X85.445 Y188.125
G1 X86.064 Y188.279
G1 X86.675 Y188.425
G1 X87.278 Y188.561
G1 X87.869 Y188.688
G1 X88.613 Y188.837
G1 X89.363 Y188.974
G1 X90.121 Y189.1
G1 X90.886 Y189.215
G1 X91.657 Y189.319
G1 X92.434 Y189.411
G1 X93.217 Y189.493
G1 X94.005 Y189.563
G1 X94.797 Y189.623
G1 X95.594 Y189.671
G1 X96.395 Y189.709
G1 X97.2 Y189.736
G1 X98.008 Y189.752
G1 X98.818 Y189.758
G1 X99.631 Y189.753
G1 X100.446 Y189.737
G1 X101.262 Y189.711
G1 X102.08 Y189.674
G1 X102.898 Y189.627
G1 X103.716 Y189.569
G1 X104.535 Y189.501
G1 X105.353 Y189.423
G1 X106.171 Y189.334
G1 X106.987 Y189.236
G1 X107.801 Y189.127
G1 X108.614 Y189.008
G1 X109.423 Y188.879
G1 X110.231 Y188.74
G1 X111.034 Y188.591
G1 X111.835 Y188.432
G1 X112.631 Y188.264
G1 X113.423 Y188.085
G1 X114.209 Y187.897
G1 X114.991 Y187.699
G1 X115.767 Y187.492
G1 X116.537 Y187.275
G1 X117.3 Y187.048
G1 X118.057 Y186.812
G1 X118.806 Y186.567
G1 X119.548 Y186.312
G1 X120.282 Y186.048
G1 X121.007 Y185.775
G1 X121.723 Y185.492
G1 X122.43 Y185.2
G1 X123.127 Y184.899
G1 X123.815 Y184.589
G1 X124.492 Y184.27
G1 X125.158 Y183.942
G1 X129.225 Y181.895
G1 X131.274 Y184.191
G1 X131.544 Y184.485
G1 X131.822 Y184.771
G1 X132.108 Y185.051
G1 X132.403 Y185.323
G1 X132.705 Y185.589
G1 X133.015 Y185.847
G1 X133.332 Y186.098
G1 X133.657 Y186.342
G1 X134.325 Y186.807
G1 X135.019 Y187.242
G1 X135.734 Y187.646
G1 X136.47 Y188.019
G1 X137.224 Y188.359
G1 X137.994 Y188.667
G1 X138.777 Y188.942
G1 X139.571 Y189.182
G1 X140.374 Y189.388
G1 X141.184 Y189.559
G1 X141.998 Y189.693
G1 X142.814 Y189.792
G1 X143.631 Y189.853
G1 X144.445 Y189.876
G1 X145.254 Y189.861
G1 X146.056 Y189.807
G1 X146.454 Y189.765
G1 X146.85 Y189.713
G1 X147.242 Y189.651
G1 X147.632 Y189.579
G1 X148.018 Y189.497
G1 X148.4 Y189.404
G1 X148.779 Y189.301
G1 X149.153 Y189.187
G1 X149.644 Y189.023
G1 X150.128 Y188.848
G1 X150.603 Y188.661
G1 X151.071 Y188.462
G1 X151.531 Y188.253
G1 X151.983 Y188.032
G1 X152.426 Y187.801
G1 X152.862 Y187.559
G1 X153.288 Y187.306
G1 X153.707 Y187.043
G1 X154.116 Y186.77
G1 X154.517 Y186.486
G1 X154.909 Y186.193
G1 X155.292 Y185.891
G1 X155.665 Y185.578
G1 X156.03 Y185.256
G1 X156.385 Y184.925
G1 X156.73 Y184.585
G1 X157.066 Y184.237
G1 X157.393 Y183.879
G1 X157.709 Y183.513
G1 X158.015 Y183.138
G1 X158.312 Y182.756
G1 X158.598 Y182.365
G1 X158.874 Y181.966
G1 X159.139 Y181.559
G1 X159.394 Y181.145
G1 X159.638 Y180.724
G1 X159.872 Y180.295
G1 X160.094 Y179.859
G1 X160.306 Y179.417
G1 X160.506 Y178.967
G1 X160.695 Y178.511
G1 X160.873 Y178.049
G1 X161.039 Y177.58
G1 X161.194 Y177.105
G1 X161.337 Y176.624
G1 X161.468 Y176.138
G1 X161.588 Y175.646
G1 X161.695 Y175.148
G1 X161.79 Y174.645
G1 X161.873 Y174.137
G1 X161.943 Y173.624
G1 X162.001 Y173.106
G1 X162.046 Y172.584
G1 X162.078 Y172.057
G1 X162.098 Y171.526
G1 X162.104 Y170.991
G1 X162.09 Y170.168
G1 X162.046 Y169.357
G1 X161.973 Y168.557
G1 X161.871 Y167.77
G1 X161.741 Y166.995
G1 X161.583 Y166.233
G1 X161.396 Y165.485
G1 X161.181 Y164.75
G1 X160.939 Y164.03
G1 X160.67 Y163.324
G1 X160.373 Y162.634
G1 X160.049 Y161.959
G1 X159.698 Y161.301
G1 X159.321 Y160.658
G1 X158.918 Y160.033
G1 X158.488 Y159.425
G1 X158.032 Y158.835
G1 X157.551 Y158.263
G1 X157.044 Y157.71
G1 X156.513 Y157.176
G1 X155.956 Y156.662
G1 X155.374 Y156.167
G1 X154.768 Y155.693
G1 X154.137 Y155.24
G1 X151.564 Y153.468
G1 X152.506 Y150.996
G1 X152.922 Y149.862
G1 X153.322 Y148.692
G1 X153.703 Y147.489
G1 X154.067 Y146.258
G1 X154.411 Y145.003
G1 X154.737 Y143.726
G1 X155.042 Y142.432
G1 X155.328 Y141.124
G1 X155.592 Y139.806
G1 X155.836 Y138.482
G1 X156.057 Y137.154
G1 X156.256 Y135.828
G1 X156.432 Y134.507
G1 X156.584 Y133.194
G1 X156.713 Y131.893
G1 X156.817 Y130.607
G1 X156.897 Y129.341
G1 X156.95 Y128.098
G1 X156.978 Y126.882
G1 X156.979 Y125.696
G1 X156.953 Y124.544
G1 X156.9 Y123.43
G1 X156.818 Y122.357
G1 X156.708 Y121.33
G1 X156.605 Y120.55
G1 X156.491 Y119.779
G1 X156.367 Y119.018
G1 X156.231 Y118.267
G1 X156.084 Y117.524
G1 X155.927 Y116.791
G1 X155.758 Y116.067
G1 X155.578 Y115.353
G1 X155.387 Y114.647
G1 X155.186 Y113.951
G1 X154.973 Y113.263
G1 X154.748 Y112.585
G1 X154.513 Y111.915
G1 X154.267 Y111.255
G1 X154.009 Y110.603
G1 X153.74 Y109.96
G1 X153.459 Y109.326
G1 X153.168 Y108.701
G1 X152.865 Y108.084
G1 X152.55 Y107.476
G1 X152.224 Y106.877
G1 X151.887 Y106.286
G1 X151.538 Y105.704
G1 X151.178 Y105.131
G1 X150.806 Y104.565
G1 X150.423 Y104.008
G1 X150.028 Y103.46
G1 X149.622 Y102.92
G1 X149.204 Y102.388
G1 X148.774 Y101.864
G1 X148.333 Y101.349
G1 X147.88 Y100.842
G1 X147.415 Y100.343
G1 X146.938 Y99.852
G1 X146.45 Y99.368
G1 X145.95 Y98.893
G1 X145.438 Y98.426
G1 X144.914 Y97.967
G1 X144.378 Y97.516
G1 X143.83 Y97.072
G1 X143.27 Y96.636
G1 X142.699 Y96.208
G1 X142.115 Y95.788
G1 X141.519 Y95.375
G1 X140.912 Y94.97
G1 X140.292 Y94.572
G1 X139.66 Y94.182
G1 X139.016 Y93.799
G1 X138.798 Y93.674
G1 X138.575 Y93.547
G1 X138.345 Y93.419
G1 X138.111 Y93.289
G1 X137.872 Y93.16
G1 X137.63 Y93.03
G1 X137.386 Y92.901
G1 X137.139 Y92.773
G1 X136.892 Y92.646
G1 X136.645 Y92.52
G1 X136.399 Y92.396
G1 X136.154 Y92.275
G1 X135.912 Y92.157
G1 X135.673 Y92.041
G1 X135.438 Y91.93
G1 X135.207 Y91.822
G1 X134.983 Y91.719
G1 X134.765 Y91.62
G1 X134.554 Y91.527
G1 X134.351 Y91.44
G1 X134.158 Y91.358
G1 X133.974 Y91.283
G1 X133.8 Y91.214
G1 X133.638 Y91.153
G1 X133.483 Y91.095
G1 X133.331 Y91.037
G1 X133.183 Y90.979
G1 X133.037 Y90.921
G1 X132.896 Y90.863
G1 X132.759 Y90.805
G1 X132.626 Y90.748
G1 X132.499 Y90.692
G1 X132.376 Y90.636
G1 X132.259 Y90.582
G1 X132.148 Y90.529
G1 X132.044 Y90.477
G1 X131.945 Y90.426
G1 X131.854 Y90.378
G1 X131.824 Y90.361
G1 S0
M30
%
