(A)
(T8  D=10. CR=0. - ZMIN=-19.25 - FLAT END MILL)
G90 G94 G91.1 G40 G49 G17
G21
(WHEN USING FUSION 360 FOR PERSONAL USE, THE FEEDRATE OF)
(RAPID MOVES IS REDUCED TO MATCH THE FEEDRATE OF CUTTING)
(MOVES, WHICH CAN INCREASE MACHINING TIME. UNRESTRICTED RAPID)
(MOVES ARE AVAILABLE WITH A FUSION 360 SUBSCRIPTION.)
G28 G91 Z0.
G90

(2D CONTOUR3)
M5
T8 M6
S10000 M3
G54
M8
G0 X152.886 Y820.392
G1 Z7. F3500.
Z-3. F333.
X152.891 Y820.387 Z-3.121 F3500.
X152.907 Y820.371 Z-3.239
X152.932 Y820.346 Z-3.355
X152.967 Y820.311 Z-3.465
X153.011 Y820.267 Z-3.568
X153.064 Y820.214 Z-3.663
X153.124 Y820.154 Z-3.749
X153.191 Y820.086 Z-3.823
X153.265 Y820.013 Z-3.885
X153.342 Y819.935 Z-3.935
X153.424 Y819.854 Z-3.971
X153.508 Y819.77 Z-3.993
X153.593 Y819.685 Z-4.
X154.3 Y818.978
G3 X155.714 I0.707 J0.707
G1 X165.714 Y828.978
G2 X169.25 Y830.442 I3.536 J-3.536
G1 X190.
G2 X195. Y825.442 I0. J-5.
G1 Y814.513
G2 X193.551 Y810.993 I-5. J0.
X197.071 Y812.442 I3.52 J-3.551
G1 X270.
G2 X279. Y785.442 I0. J-15.
G1 X232.889 Y750.858
G3 X227.13 Y736.175 I9. J-12.
G1 X304.919 Y308.336
G2 X300. Y302.442 I-4.919 J-0.894
G1 X249.18
G2 X244.261 Y306.548 I0. J5.
G1 X200.3 Y548.336
G3 X195.38 Y552.442 I-4.919 J-0.895
G1 X104.62
G3 X99.701 Y548.337 I0. J-5.
G1 X55.739 Y306.548
G2 X50.82 Y302.442 I-4.919 J0.894
G1 X0.
G2 X-4.919 Y308.336 I0. J5.
G1 X72.87 Y736.175
G3 X67.111 Y750.858 I-14.758 J2.683
G1 X21. Y785.442
G2 X30. Y812.442 I9. J12.
G1 X102.929
G2 X106.449 Y810.993 I0. J-5.
X105. Y814.513 I3.551 J3.52
G1 Y825.442
G2 X110. Y830.442 I5. J0.
G1 X131.25
G2 X134.786 Y828.978 I0. J-5.
G1 X144.786 Y818.978
G2 X146.25 Y815.442 I-3.536 J-3.536
G1 Y689.513
G2 X144.801 Y685.993 I-5. J0.
X148.321 Y687.442 I3.52 J-3.551
G1 X152.179
G2 X155.699 Y685.993 I0. J-5.
X154.25 Y689.513 I3.551 J3.52
G1 Y815.442
G2 X155.714 Y818.978 I5. J0.
G3 Y820.392 I-0.707 J0.707
G1 X155.007 Y821.099
X154.922 Y821.184 Z-3.993
X154.838 Y821.268 Z-3.971
X154.757 Y821.35 Z-3.935
X154.679 Y821.427 Z-3.885
X154.606 Y821.501 Z-3.823
X154.538 Y821.568 Z-3.749
X154.478 Y821.628 Z-3.663
X154.425 Y821.681 Z-3.568
X154.381 Y821.725 Z-3.465
X154.346 Y821.76 Z-3.355
X154.321 Y821.785 Z-3.239
X154.305 Y821.801 Z-3.121
X154.3 Y821.806 Z-3.
Z6.
X152.886 Y820.392
Z2. F333.
Z-8.
X152.891 Y820.387 Z-8.121 F3500.
X152.907 Y820.371 Z-8.239
X152.932 Y820.346 Z-8.355
X152.967 Y820.311 Z-8.465
X153.011 Y820.267 Z-8.568
X153.064 Y820.214 Z-8.663
X153.124 Y820.154 Z-8.749
X153.191 Y820.086 Z-8.823
X153.265 Y820.013 Z-8.885
X153.342 Y819.935 Z-8.935
X153.424 Y819.854 Z-8.971
X153.508 Y819.77 Z-8.993
X153.593 Y819.685 Z-9.
X154.3 Y818.978
G3 X155.714 I0.707 J0.707
G1 X165.714 Y828.978
G2 X169.25 Y830.442 I3.536 J-3.536
G1 X190.
G2 X195. Y825.442 I0. J-5.
G1 Y814.513
G2 X193.551 Y810.993 I-5. J0.
X197.071 Y812.442 I3.52 J-3.551
G1 X270.
G2 X279. Y785.442 I0. J-15.
G1 X232.889 Y750.858
G3 X227.13 Y736.175 I9. J-12.
G1 X304.919 Y308.336
G2 X300. Y302.442 I-4.919 J-0.894
G1 X249.18
G2 X244.261 Y306.548 I0. J5.
G1 X200.3 Y548.336
G3 X195.38 Y552.442 I-4.919 J-0.895
G1 X104.62
G3 X99.701 Y548.337 I0. J-5.
G1 X55.739 Y306.548
G2 X50.82 Y302.442 I-4.919 J0.894
G1 X0.
G2 X-4.919 Y308.336 I0. J5.
G1 X72.87 Y736.175
G3 X67.111 Y750.858 I-14.758 J2.683
G1 X21. Y785.442
G2 X30. Y812.442 I9. J12.
G1 X102.929
G2 X106.449 Y810.993 I0. J-5.
X105. Y814.513 I3.551 J3.52
G1 Y825.442
G2 X110. Y830.442 I5. J0.
G1 X131.25
G2 X134.786 Y828.978 I0. J-5.
G1 X144.786 Y818.978
G2 X146.25 Y815.442 I-3.536 J-3.536
G1 Y689.513
G2 X144.801 Y685.993 I-5. J0.
X148.321 Y687.442 I3.52 J-3.551
G1 X152.179
G2 X155.699 Y685.993 I0. J-5.
X154.25 Y689.513 I3.551 J3.52
G1 Y815.442
G2 X155.714 Y818.978 I5. J0.
G3 Y820.392 I-0.707 J0.707
G1 X155.007 Y821.099
X154.922 Y821.184 Z-8.993
X154.838 Y821.268 Z-8.971
X154.757 Y821.35 Z-8.935
X154.679 Y821.427 Z-8.885
X154.606 Y821.501 Z-8.823
X154.538 Y821.568 Z-8.749
X154.478 Y821.628 Z-8.663
X154.425 Y821.681 Z-8.568
X154.381 Y821.725 Z-8.465
X154.346 Y821.76 Z-8.355
X154.321 Y821.785 Z-8.239
X154.305 Y821.801 Z-8.121
X154.3 Y821.806 Z-8.
Z6.
X152.886 Y820.392
Z-3. F333.
Z-13.
X152.891 Y820.387 Z-13.121 F3500.
X152.907 Y820.371 Z-13.239
X152.932 Y820.346 Z-13.355
X152.967 Y820.311 Z-13.465
X153.011 Y820.267 Z-13.568
X153.064 Y820.214 Z-13.663
X153.124 Y820.154 Z-13.749
X153.191 Y820.086 Z-13.823
X153.265 Y820.013 Z-13.885
X153.342 Y819.935 Z-13.935
X153.424 Y819.854 Z-13.971
X153.508 Y819.77 Z-13.993
X153.593 Y819.685 Z-14.
X154.3 Y818.978
G3 X155.714 I0.707 J0.707
G1 X165.714 Y828.978
G2 X169.25 Y830.442 I3.536 J-3.536
G1 X190.
G2 X195. Y825.442 I0. J-5.
G1 Y814.513
G2 X193.551 Y810.993 I-5. J0.
X197.071 Y812.442 I3.52 J-3.551
G1 X270.
G2 X279. Y785.442 I0. J-15.
G1 X232.889 Y750.858
G3 X227.13 Y736.175 I9. J-12.
G1 X304.919 Y308.336
G2 X300. Y302.442 I-4.919 J-0.894
G1 X249.18
G2 X244.261 Y306.548 I0. J5.
G1 X200.3 Y548.336
G3 X195.38 Y552.442 I-4.919 J-0.895
G1 X104.62
G3 X99.701 Y548.337 I0. J-5.
G1 X55.739 Y306.548
G2 X50.82 Y302.442 I-4.919 J0.894
G1 X0.
G2 X-4.919 Y308.336 I0. J5.
G1 X72.87 Y736.175
G3 X67.111 Y750.858 I-14.758 J2.683
G1 X21. Y785.442
G2 X30. Y812.442 I9. J12.
G1 X102.929
G2 X106.449 Y810.993 I0. J-5.
X105. Y814.513 I3.551 J3.52
G1 Y825.442
G2 X110. Y830.442 I5. J0.
G1 X131.25
G2 X134.786 Y828.978 I0. J-5.
G1 X144.786 Y818.978
G2 X146.25 Y815.442 I-3.536 J-3.536
G1 Y689.513
G2 X144.801 Y685.993 I-5. J0.
X148.321 Y687.442 I3.52 J-3.551
G1 X152.179
G2 X155.699 Y685.993 I0. J-5.
X154.25 Y689.513 I3.551 J3.52
G1 Y815.442
G2 X155.714 Y818.978 I5. J0.
G3 Y820.392 I-0.707 J0.707
G1 X155.007 Y821.099
X154.922 Y821.184 Z-13.993
X154.838 Y821.268 Z-13.971
X154.757 Y821.35 Z-13.935
X154.679 Y821.427 Z-13.885
X154.606 Y821.501 Z-13.823
X154.538 Y821.568 Z-13.749
X154.478 Y821.628 Z-13.663
X154.425 Y821.681 Z-13.568
X154.381 Y821.725 Z-13.465
X154.346 Y821.76 Z-13.355
X154.321 Y821.785 Z-13.239
X154.305 Y821.801 Z-13.121
X154.3 Y821.806 Z-13.
Z6.
X152.886 Y820.392
Z-8. F333.
Z-15.525
X152.891 Y820.387 Z-15.646 F3500.
X152.907 Y820.371 Z-15.764
X152.932 Y820.346 Z-15.88
X152.967 Y820.311 Z-15.99
X153.011 Y820.267 Z-16.093
X153.064 Y820.214 Z-16.188
X153.124 Y820.154 Z-16.274
X153.191 Y820.086 Z-16.348
X153.265 Y820.013 Z-16.41
X153.342 Y819.935 Z-16.46
X153.424 Y819.854 Z-16.496
X153.508 Y819.77 Z-16.518
X153.593 Y819.685 Z-16.525
X154.3 Y818.978
G3 X155.714 I0.707 J0.707
G1 X165.714 Y828.978
G2 X169.25 Y830.442 I3.536 J-3.536
G1 X190.
G2 X195. Y825.442 I0. J-5.
G1 Y814.513
G2 X193.551 Y810.993 I-5. J0.
X197.071 Y812.442 I3.52 J-3.551
G1 X270.
G2 X279. Y785.442 I0. J-15.
G1 X232.889 Y750.858
G3 X227.13 Y736.175 I9. J-12.
G1 X304.919 Y308.336
G2 X300. Y302.442 I-4.919 J-0.894
G1 X249.18
G2 X244.261 Y306.548 I0. J5.
G1 X200.3 Y548.336
G3 X195.38 Y552.442 I-4.919 J-0.895
G1 X104.62
G3 X99.701 Y548.337 I0. J-5.
G1 X55.739 Y306.548
G2 X50.82 Y302.442 I-4.919 J0.894
G1 X0.
G2 X-4.919 Y308.336 I0. J5.
G1 X72.87 Y736.175
G3 X67.111 Y750.858 I-14.758 J2.683
G1 X21. Y785.442
G2 X30. Y812.442 I9. J12.
G1 X102.929
G2 X106.449 Y810.993 I0. J-5.
X105. Y814.513 I3.551 J3.52
G1 Y825.442
G2 X110. Y830.442 I5. J0.
G1 X131.25
G2 X134.786 Y828.978 I0. J-5.
G1 X144.786 Y818.978
G2 X146.25 Y815.442 I-3.536 J-3.536
G1 Y689.513
G2 X144.801 Y685.993 I-5. J0.
X148.321 Y687.442 I3.52 J-3.551
G1 X152.179
G2 X155.699 Y685.993 I0. J-5.
X154.25 Y689.513 I3.551 J3.52
G1 Y815.442
G2 X155.714 Y818.978 I5. J0.
G3 Y820.392 I-0.707 J0.707
G1 X155.007 Y821.099
X154.922 Y821.184 Z-16.518
X154.838 Y821.268 Z-16.496
X154.757 Y821.35 Z-16.46
X154.679 Y821.427 Z-16.41
X154.606 Y821.501 Z-16.348
X154.538 Y821.568 Z-16.274
X154.478 Y821.628 Z-16.188
X154.425 Y821.681 Z-16.093
X154.381 Y821.725 Z-15.99
X154.346 Y821.76 Z-15.88
X154.321 Y821.785 Z-15.764
X154.305 Y821.801 Z-15.646
X154.3 Y821.806 Z-15.525
Z6.
X152.886 Y820.392
Z-10.525 F333.
Z-18.05
X152.891 Y820.387 Z-18.171 F3500.
X152.907 Y820.371 Z-18.289
X152.932 Y820.346 Z-18.405
X152.967 Y820.311 Z-18.515
X153.011 Y820.267 Z-18.618
X153.064 Y820.214 Z-18.713
X153.124 Y820.154 Z-18.799
X153.191 Y820.086 Z-18.873
X153.265 Y820.013 Z-18.935
X153.342 Y819.935 Z-18.985
X153.424 Y819.854 Z-19.021
X153.508 Y819.77 Z-19.043
X153.593 Y819.685 Z-19.05
X154.3 Y818.978
G3 X155.714 I0.707 J0.707
G1 X165.714 Y828.978
G2 X169.25 Y830.442 I3.536 J-3.536
G1 X190.
G2 X195. Y825.442 I0. J-5.
G1 Y814.513
G2 X193.551 Y810.993 I-5. J0.
X197.071 Y812.442 I3.52 J-3.551
G1 X270.
G2 X279. Y785.442 I0. J-15.
G1 X232.889 Y750.858
G3 X227.13 Y736.175 I9. J-12.
G1 X238.306 Y674.707
Z-16.75
X241.884 Y655.03
Z-19.05 F333.
X264.236 Y532.094 F3500.
Z-16.75
X267.814 Y512.417
Z-19.05 F333.
X290.166 Y389.481 F3500.
Z-16.75
X293.743 Y369.804
Z-19.05 F333.
X304.919 Y308.336 F3500.
G2 X300. Y302.442 I-4.919 J-0.894
G1 X249.18
G2 X244.261 Y306.548 I0. J5.
G1 X235.059 Y357.156
Z-16.75
X231.482 Y376.833
Z-19.05 F333.
X213.079 Y478.051 F3500.
Z-16.75
X209.501 Y497.728
Z-19.05 F333.
X200.3 Y548.336 F3500.
G3 X195.38 Y552.442 I-4.919 J-0.895
G1 X104.62
G3 X99.701 Y548.337 I0. J-5.
G1 X90.499 Y497.728
Z-16.75
X86.921 Y478.051
Z-19.05 F333.
X68.518 Y376.833 F3500.
Z-16.75
X64.941 Y357.156
Z-19.05 F333.
X55.739 Y306.548 F3500.
G2 X50.82 Y302.442 I-4.919 J0.894
G1 X0.
G2 X-4.919 Y308.336 I0. J5.
G1 X6.257 Y369.804
Z-16.75
X9.834 Y389.481
Z-19.05 F333.
X32.186 Y512.417 F3500.
Z-16.75
X35.764 Y532.094
Z-19.05 F333.
X58.116 Y655.03 F3500.
Z-16.75
X61.693 Y674.707
Z-19.05 F333.
X72.87 Y736.175 F3500.
G3 X67.111 Y750.858 I-14.758 J2.683
G1 X21. Y785.442
G2 X30. Y812.442 I9. J12.
G1 X102.929
G2 X106.449 Y810.993 I0. J-5.
X105. Y814.513 I3.551 J3.52
G1 Y825.442
G2 X110. Y830.442 I5. J0.
G1 X131.25
G2 X134.786 Y828.978 I0. J-5.
G1 X144.786 Y818.978
G2 X146.25 Y815.442 I-3.536 J-3.536
G1 Y762.477
Z-16.75
Y742.477
Z-19.05 F333.
Y689.513 F3500.
G2 X144.801 Y685.993 I-5. J0.
X148.321 Y687.442 I3.52 J-3.551
G1 X152.179
G2 X155.699 Y685.993 I0. J-5.
X154.25 Y689.513 I3.551 J3.52
G1 Y742.477
Z-16.75
Y762.477
Z-19.05 F333.
Y815.442 F3500.
G2 X155.714 Y818.978 I5. J0.
G3 Y820.392 I-0.707 J0.707
G1 X155.007 Y821.099
X154.922 Y821.184 Z-19.043
X154.838 Y821.268 Z-19.021
X154.757 Y821.35 Z-18.985
X154.679 Y821.427 Z-18.935
X154.606 Y821.501 Z-18.873
X154.538 Y821.568 Z-18.799
X154.478 Y821.628 Z-18.713
X154.425 Y821.681 Z-18.618
X154.381 Y821.725 Z-18.515
X154.346 Y821.76 Z-18.405
X154.321 Y821.785 Z-18.289
X154.305 Y821.801 Z-18.171
X154.3 Y821.806 Z-18.05
Z6.
X152.886 Y820.392
Z-13.05 F333.
Z-18.25
X152.891 Y820.387 Z-18.371 F3500.
X152.907 Y820.371 Z-18.489
X152.932 Y820.346 Z-18.605
X152.967 Y820.311 Z-18.715
X153.011 Y820.267 Z-18.818
X153.064 Y820.214 Z-18.913
X153.124 Y820.154 Z-18.999
X153.191 Y820.086 Z-19.073
X153.265 Y820.013 Z-19.135
X153.342 Y819.935 Z-19.185
X153.424 Y819.854 Z-19.221
X153.508 Y819.77 Z-19.243
X153.593 Y819.685 Z-19.25
X154.3 Y818.978
G3 X155.714 I0.707 J0.707
G1 X165.714 Y828.978
G2 X169.25 Y830.442 I3.536 J-3.536
G1 X190.
G2 X195. Y825.442 I0. J-5.
G1 Y814.513
G2 X193.551 Y810.993 I-5. J0.
X197.071 Y812.442 I3.52 J-3.551
G1 X270.
G2 X279. Y785.442 I0. J-15.
G1 X232.889 Y750.858
G3 X227.13 Y736.175 I9. J-12.
G1 X238.306 Y674.707
Z-16.75
X241.884 Y655.03
Z-19.25 F333.
X264.236 Y532.094 F3500.
Z-16.75
X267.814 Y512.417
Z-19.25 F333.
X290.166 Y389.481 F3500.
Z-16.75
X293.743 Y369.804
Z-19.25 F333.
X304.919 Y308.336 F3500.
G2 X300. Y302.442 I-4.919 J-0.894
G1 X249.18
G2 X244.261 Y306.548 I0. J5.
G1 X235.059 Y357.156
Z-16.75
X231.482 Y376.833
Z-19.25 F333.
X213.079 Y478.051 F3500.
Z-16.75
X209.501 Y497.728
Z-19.25 F333.
X200.3 Y548.336 F3500.
G3 X195.38 Y552.442 I-4.919 J-0.895
G1 X104.62
G3 X99.701 Y548.337 I0. J-5.
G1 X90.499 Y497.728
Z-16.75
X86.921 Y478.051
Z-19.25 F333.
X68.518 Y376.833 F3500.
Z-16.75
X64.941 Y357.156
Z-19.25 F333.
X55.739 Y306.548 F3500.
G2 X50.82 Y302.442 I-4.919 J0.894
G1 X0.
G2 X-4.919 Y308.336 I0. J5.
G1 X6.257 Y369.804
Z-16.75
X9.834 Y389.481
Z-19.25 F333.
X32.186 Y512.417 F3500.
Z-16.75
X35.764 Y532.094
Z-19.25 F333.
X58.116 Y655.03 F3500.
Z-16.75
X61.693 Y674.707
Z-19.25 F333.
X72.87 Y736.175 F3500.
G3 X67.111 Y750.858 I-14.758 J2.683
G1 X21. Y785.442
G2 X30. Y812.442 I9. J12.
G1 X102.929
G2 X106.449 Y810.993 I0. J-5.
X105. Y814.513 I3.551 J3.52
G1 Y825.442
G2 X110. Y830.442 I5. J0.
G1 X131.25
G2 X134.786 Y828.978 I0. J-5.
G1 X144.786 Y818.978
G2 X146.25 Y815.442 I-3.536 J-3.536
G1 Y762.477
Z-16.75
Y742.477
Z-19.25 F333.
Y689.513 F3500.
G2 X144.801 Y685.993 I-5. J0.
X148.321 Y687.442 I3.52 J-3.551
G1 X152.179
G2 X155.699 Y685.993 I0. J-5.
X154.25 Y689.513 I3.551 J3.52
G1 Y742.477
Z-16.75
Y762.477
Z-19.25 F333.
Y815.442 F3500.
G2 X155.714 Y818.978 I5. J0.
G3 Y820.392 I-0.707 J0.707
G1 X155.007 Y821.099
X154.922 Y821.184 Z-19.243
X154.838 Y821.268 Z-19.221
X154.757 Y821.35 Z-19.185
X154.679 Y821.427 Z-19.135
X154.606 Y821.501 Z-19.073
X154.538 Y821.568 Z-18.999
X154.478 Y821.628 Z-18.913
X154.425 Y821.681 Z-18.818
X154.381 Y821.725 Z-18.715
X154.346 Y821.76 Z-18.605
X154.321 Y821.785 Z-18.489
X154.305 Y821.801 Z-18.371
X154.3 Y821.806 Z-18.25
Z16.

M9
G28 G91 Z0.
G90
G28 G91 X0. Y0.
G90
M30
