(B)
(T8  D=10. CR=0. - ZMIN=-19.25 - FLAT END MILL)
G90 G94 G91.1 G40 G49 G17
G21
(WHEN USING FUSION 360 FOR PERSONAL USE, THE FEEDRATE OF)
(RAPID MOVES IS REDUCED TO MATCH THE FEEDRATE OF CUTTING)
(MOVES, WHICH CAN INCREASE MACHINING TIME. UNRESTRICTED RAPID)
(MOVES ARE AVAILABLE WITH A FUSION 360 SUBSCRIPTION.)
G28 G91 Z0.
G90

(2D CONTOUR4)
M5
T8 M6
S10000 M3
G54
M8
G0 X172.301 Y1108.146
G1 Z7. F3500.
Z-3. F333.
X172.306 Y1108.151 Z-3.121 F3500.
X172.321 Y1108.166 Z-3.239
X172.347 Y1108.192 Z-3.355
X172.382 Y1108.227 Z-3.465
X172.426 Y1108.271 Z-3.568
X172.479 Y1108.324 Z-3.663
X172.539 Y1108.384 Z-3.749
X172.606 Y1108.451 Z-3.823
X172.679 Y1108.524 Z-3.885
X172.757 Y1108.602 Z-3.935
X172.839 Y1108.684 Z-3.971
X172.923 Y1108.768 Z-3.993
X173.008 Y1108.853 Z-4.
X173.715 Y1109.56
G3 Y1110.974 I-0.707 J0.707
G2 X172.25 Y1114.51 I3.535 J3.536
G1 Y1225.37
G2 X173.67 Y1228.86 I5. J0.
X170.179 Y1227.44 I-3.491 J3.58
G1 X166.321
G2 X162.83 Y1228.86 I0. J5.
X164.25 Y1225.37 I-3.58 J-3.49
G1 Y1114.51
G2 X162.785 Y1110.974 I-5. J0.
G1 X155.714 Y1103.904
G2 X152.179 Y1102.44 I-3.535 J3.536
G1 X130.966
G3 X116.207 Y1090.125 I-0.001 J-15.
G1 X73.739 Y856.548
G2 X68.82 Y852.442 I-4.919 J0.894
G1 X18.
G2 X13.081 Y858.336 I0. J5.
G1 X90.87 Y1286.174
G3 X85.112 Y1300.86 I-14.758 J2.685
G1 X39. Y1335.44
G2 X48. Y1362.44 I9. J12.
G1 X118.
G2 X123. Y1357.44 I0. J-5.
G1 Y1367.44
Y1374.94
G2 X128. Y1379.94 I5. J0.
G1 X208.
G2 X213. Y1374.94 I0. J-5.
G1 Y1357.44
G2 X218. Y1362.44 I5. J0.
G1 X288.
G2 X297. Y1335.44 I0. J-15.
G1 X250.889 Y1300.86
G3 X245.13 Y1286.175 I9. J-12.001
G1 X322.919 Y858.336
G2 X318. Y852.442 I-4.919 J-0.894
G1 X267.18
G2 X262.261 Y856.548 I0. J5.
G1 X219.793 Y1090.125
G3 X205.034 Y1102.44 I-14.758 J-2.686
G1 X184.321
G2 X180.786 Y1103.904 I0. J5.
G1 X173.715 Y1110.974
G3 X172.301 I-0.707 J-0.707
G1 X171.593 Y1110.267
X171.508 Y1110.182 Z-3.993
X171.424 Y1110.098 Z-3.971
X171.343 Y1110.016 Z-3.935
X171.265 Y1109.938 Z-3.885
X171.192 Y1109.865 Z-3.823
X171.125 Y1109.798 Z-3.749
X171.064 Y1109.738 Z-3.663
X171.012 Y1109.685 Z-3.568
X170.967 Y1109.641 Z-3.465
X170.932 Y1109.606 Z-3.355
X170.907 Y1109.58 Z-3.239
X170.892 Y1109.565 Z-3.121
X170.886 Y1109.56 Z-3.
Z6.
X172.301 Y1108.146
Z2. F333.
Z-8.
X172.306 Y1108.151 Z-8.121 F3500.
X172.321 Y1108.166 Z-8.239
X172.347 Y1108.192 Z-8.355
X172.382 Y1108.227 Z-8.465
X172.426 Y1108.271 Z-8.568
X172.479 Y1108.324 Z-8.663
X172.539 Y1108.384 Z-8.749
X172.606 Y1108.451 Z-8.823
X172.679 Y1108.524 Z-8.885
X172.757 Y1108.602 Z-8.935
X172.839 Y1108.684 Z-8.971
X172.923 Y1108.768 Z-8.993
X173.008 Y1108.853 Z-9.
X173.715 Y1109.56
G3 Y1110.974 I-0.707 J0.707
G2 X172.25 Y1114.51 I3.535 J3.536
G1 Y1225.37
G2 X173.67 Y1228.86 I5. J0.
X170.179 Y1227.44 I-3.491 J3.58
G1 X166.321
G2 X162.83 Y1228.86 I0. J5.
X164.25 Y1225.37 I-3.58 J-3.49
G1 Y1114.51
G2 X162.785 Y1110.974 I-5. J0.
G1 X155.714 Y1103.904
G2 X152.179 Y1102.44 I-3.535 J3.536
G1 X130.966
G3 X116.207 Y1090.125 I-0.001 J-15.
G1 X73.739 Y856.548
G2 X68.82 Y852.442 I-4.919 J0.894
G1 X18.
G2 X13.081 Y858.336 I0. J5.
G1 X90.87 Y1286.174
G3 X85.112 Y1300.86 I-14.758 J2.685
G1 X39. Y1335.44
G2 X48. Y1362.44 I9. J12.
G1 X118.
G2 X123. Y1357.44 I0. J-5.
G1 Y1367.44
Y1374.94
G2 X128. Y1379.94 I5. J0.
G1 X208.
G2 X213. Y1374.94 I0. J-5.
G1 Y1357.44
G2 X218. Y1362.44 I5. J0.
G1 X288.
G2 X297. Y1335.44 I0. J-15.
G1 X250.889 Y1300.86
G3 X245.13 Y1286.175 I9. J-12.001
G1 X322.919 Y858.336
G2 X318. Y852.442 I-4.919 J-0.894
G1 X267.18
G2 X262.261 Y856.548 I0. J5.
G1 X219.793 Y1090.125
G3 X205.034 Y1102.44 I-14.758 J-2.686
G1 X184.321
G2 X180.786 Y1103.904 I0. J5.
G1 X173.715 Y1110.974
G3 X172.301 I-0.707 J-0.707
G1 X171.593 Y1110.267
X171.508 Y1110.182 Z-8.993
X171.424 Y1110.098 Z-8.971
X171.343 Y1110.016 Z-8.935
X171.265 Y1109.938 Z-8.885
X171.192 Y1109.865 Z-8.823
X171.125 Y1109.798 Z-8.749
X171.064 Y1109.738 Z-8.663
X171.012 Y1109.685 Z-8.568
X170.967 Y1109.641 Z-8.465
X170.932 Y1109.606 Z-8.355
X170.907 Y1109.58 Z-8.239
X170.892 Y1109.565 Z-8.121
X170.886 Y1109.56 Z-8.
Z6.
X172.301 Y1108.146
Z-3. F333.
Z-13.
X172.306 Y1108.151 Z-13.121 F3500.
X172.321 Y1108.166 Z-13.239
X172.347 Y1108.192 Z-13.355
X172.382 Y1108.227 Z-13.465
X172.426 Y1108.271 Z-13.568
X172.479 Y1108.324 Z-13.663
X172.539 Y1108.384 Z-13.749
X172.606 Y1108.451 Z-13.823
X172.679 Y1108.524 Z-13.885
X172.757 Y1108.602 Z-13.935
X172.839 Y1108.684 Z-13.971
X172.923 Y1108.768 Z-13.993
X173.008 Y1108.853 Z-14.
X173.715 Y1109.56
G3 Y1110.974 I-0.707 J0.707
G2 X172.25 Y1114.51 I3.535 J3.536
G1 Y1225.37
G2 X173.67 Y1228.86 I5. J0.
X170.179 Y1227.44 I-3.491 J3.58
G1 X166.321
G2 X162.83 Y1228.86 I0. J5.
X164.25 Y1225.37 I-3.58 J-3.49
G1 Y1114.51
G2 X162.785 Y1110.974 I-5. J0.
G1 X155.714 Y1103.904
G2 X152.179 Y1102.44 I-3.535 J3.536
G1 X130.966
G3 X116.207 Y1090.125 I-0.001 J-15.
G1 X73.739 Y856.548
G2 X68.82 Y852.442 I-4.919 J0.894
G1 X18.
G2 X13.081 Y858.336 I0. J5.
G1 X90.87 Y1286.174
G3 X85.112 Y1300.86 I-14.758 J2.685
G1 X39. Y1335.44
G2 X48. Y1362.44 I9. J12.
G1 X118.
G2 X123. Y1357.44 I0. J-5.
G1 Y1367.44
Y1374.94
G2 X128. Y1379.94 I5. J0.
G1 X208.
G2 X213. Y1374.94 I0. J-5.
G1 Y1357.44
G2 X218. Y1362.44 I5. J0.
G1 X288.
G2 X297. Y1335.44 I0. J-15.
G1 X250.889 Y1300.86
G3 X245.13 Y1286.175 I9. J-12.001
G1 X322.919 Y858.336
G2 X318. Y852.442 I-4.919 J-0.894
G1 X267.18
G2 X262.261 Y856.548 I0. J5.
G1 X219.793 Y1090.125
G3 X205.034 Y1102.44 I-14.758 J-2.686
G1 X184.321
G2 X180.786 Y1103.904 I0. J5.
G1 X173.715 Y1110.974
G3 X172.301 I-0.707 J-0.707
G1 X171.593 Y1110.267
X171.508 Y1110.182 Z-13.993
X171.424 Y1110.098 Z-13.971
X171.343 Y1110.016 Z-13.935
X171.265 Y1109.938 Z-13.885
X171.192 Y1109.865 Z-13.823
X171.125 Y1109.798 Z-13.749
X171.064 Y1109.738 Z-13.663
X171.012 Y1109.685 Z-13.568
X170.967 Y1109.641 Z-13.465
X170.932 Y1109.606 Z-13.355
X170.907 Y1109.58 Z-13.239
X170.892 Y1109.565 Z-13.121
X170.886 Y1109.56 Z-13.
Z6.
X172.301 Y1108.146
Z-8. F333.
Z-15.625
X172.306 Y1108.151 Z-15.746 F3500.
X172.321 Y1108.166 Z-15.864
X172.347 Y1108.192 Z-15.98
X172.382 Y1108.227 Z-16.09
X172.426 Y1108.271 Z-16.193
X172.479 Y1108.324 Z-16.288
X172.539 Y1108.384 Z-16.374
X172.606 Y1108.451 Z-16.448
X172.679 Y1108.524 Z-16.51
X172.757 Y1108.602 Z-16.56
X172.839 Y1108.684 Z-16.596
X172.923 Y1108.768 Z-16.618
X173.008 Y1108.853 Z-16.625
X173.715 Y1109.56
G3 Y1110.974 I-0.707 J0.707
G2 X172.25 Y1114.51 I3.535 J3.536
G1 Y1225.37
G2 X173.67 Y1228.86 I5. J0.
X170.179 Y1227.44 I-3.491 J3.58
G1 X166.321
G2 X162.83 Y1228.86 I0. J5.
X164.25 Y1225.37 I-3.58 J-3.49
G1 Y1114.51
G2 X162.785 Y1110.974 I-5. J0.
G1 X155.714 Y1103.904
G2 X152.179 Y1102.44 I-3.535 J3.536
G1 X130.966
G3 X116.207 Y1090.125 I-0.001 J-15.
G1 X73.739 Y856.548
G2 X68.82 Y852.442 I-4.919 J0.894
G1 X18.
G2 X13.081 Y858.336 I0. J5.
G1 X90.87 Y1286.174
G3 X85.112 Y1300.86 I-14.758 J2.685
G1 X39. Y1335.44
G2 X48. Y1362.44 I9. J12.
G1 X118.
G2 X123. Y1357.44 I0. J-5.
G1 Y1367.44
Y1374.94
G2 X128. Y1379.94 I5. J0.
G1 X208.
G2 X213. Y1374.94 I0. J-5.
G1 Y1357.44
G2 X218. Y1362.44 I5. J0.
G1 X288.
G2 X297. Y1335.44 I0. J-15.
G1 X250.889 Y1300.86
G3 X245.13 Y1286.175 I9. J-12.001
G1 X322.919 Y858.336
G2 X318. Y852.442 I-4.919 J-0.894
G1 X267.18
G2 X262.261 Y856.548 I0. J5.
G1 X219.793 Y1090.125
G3 X205.034 Y1102.44 I-14.758 J-2.686
G1 X184.321
G2 X180.786 Y1103.904 I0. J5.
G1 X173.715 Y1110.974
G3 X172.301 I-0.707 J-0.707
G1 X171.593 Y1110.267
X171.508 Y1110.182 Z-16.618
X171.424 Y1110.098 Z-16.596
X171.343 Y1110.016 Z-16.56
X171.265 Y1109.938 Z-16.51
X171.192 Y1109.865 Z-16.448
X171.125 Y1109.798 Z-16.374
X171.064 Y1109.738 Z-16.288
X171.012 Y1109.685 Z-16.193
X170.967 Y1109.641 Z-16.09
X170.932 Y1109.606 Z-15.98
X170.907 Y1109.58 Z-15.864
X170.892 Y1109.565 Z-15.746
X170.886 Y1109.56 Z-15.625
Z6.
X172.301 Y1108.146
Z-10.625 F333.
Z-18.25
X172.306 Y1108.151 Z-18.371 F3500.
X172.321 Y1108.166 Z-18.489
X172.347 Y1108.192 Z-18.605
X172.382 Y1108.227 Z-18.715
X172.426 Y1108.271 Z-18.818
X172.479 Y1108.324 Z-18.913
X172.539 Y1108.384 Z-18.999
X172.606 Y1108.451 Z-19.073
X172.679 Y1108.524 Z-19.135
X172.757 Y1108.602 Z-19.185
X172.839 Y1108.684 Z-19.221
X172.923 Y1108.768 Z-19.243
X173.008 Y1108.853 Z-19.25
X173.715 Y1109.56
G3 Y1110.974 I-0.707 J0.707
G2 X172.25 Y1114.51 I3.535 J3.536
G1 Y1225.37
G2 X173.67 Y1228.86 I5. J0.
X170.179 Y1227.44 I-3.491 J3.58
G1 X166.321
G2 X162.83 Y1228.86 I0. J5.
X164.25 Y1225.37 I-3.58 J-3.49
G1 Y1114.51
G2 X162.785 Y1110.974 I-5. J0.
G1 X155.714 Y1103.904
G2 X152.179 Y1102.44 I-3.535 J3.536
G1 X130.966
G3 X116.207 Y1090.125 I-0.001 J-15.
G1 X96.762 Y983.175
Z-16.75
X93.184 Y963.498
Z-19.25 F333.
X73.739 Y856.548 F3500.
G2 X68.82 Y852.442 I-4.919 J0.894
G1 X18.
G2 X13.081 Y858.336 I0. J5.
G1 X24.257 Y919.804
Z-16.75
X27.834 Y939.481
Z-19.25 F333.
X50.186 Y1062.416 F3500.
Z-16.75
X53.764 Y1082.093
Z-19.25 F333.
X76.115 Y1205.026 F3500.
Z-16.75
X79.693 Y1224.703
Z-19.25 F333.
X90.87 Y1286.174 F3500.
G3 X85.112 Y1300.86 I-14.758 J2.685
G1 X39. Y1335.44
G2 X48. Y1362.44 I9. J12.
G1 X118.
G2 X123. Y1357.44 I0. J-5.
G1 Y1374.94
G2 X128. Y1379.94 I5. J0.
G1 X208.
G2 X213. Y1374.94 I0. J-5.
G1 Y1357.44
G2 X218. Y1362.44 I5. J0.
G1 X288.
G2 X297. Y1335.44 I0. J-15.
G1 X250.889 Y1300.86
G3 X245.13 Y1286.175 I9. J-12.001
G1 X256.307 Y1224.703
Z-16.75
X259.885 Y1205.026
Z-19.25 F333.
X282.236 Y1082.093 F3500.
Z-16.75
X285.814 Y1062.416
Z-19.25 F333.
X308.166 Y939.481 F3500.
Z-16.75
X311.743 Y919.804
Z-19.25 F333.
X322.919 Y858.336 F3500.
G2 X318. Y852.442 I-4.919 J-0.894
G1 X267.18
G2 X262.261 Y856.548 I0. J5.
G1 X242.815 Y963.498
Z-16.75
X239.238 Y983.175
Z-19.25 F333.
X219.793 Y1090.125 F3500.
G3 X205.034 Y1102.44 I-14.758 J-2.686
G1 X184.321
G2 X180.786 Y1103.904 I0. J5.
G1 X173.715 Y1110.974
G3 X172.301 I-0.707 J-0.707
G1 X171.593 Y1110.267
X171.508 Y1110.182 Z-19.243
X171.424 Y1110.098 Z-19.221
X171.343 Y1110.016 Z-19.185
X171.265 Y1109.938 Z-19.135
X171.192 Y1109.865 Z-19.073
X171.125 Y1109.798 Z-18.999
X171.064 Y1109.738 Z-18.913
X171.012 Y1109.685 Z-18.818
X170.967 Y1109.641 Z-18.715
X170.932 Y1109.606 Z-18.605
X170.907 Y1109.58 Z-18.489
X170.892 Y1109.565 Z-18.371
X170.886 Y1109.56 Z-18.25
Z16.

M9
G28 G91 Z0.
G90
G28 G91 X0. Y0.
G90
M30
