(CIRCLE)
(T8  D=10. CR=0. - ZMIN=-19.25 - FLAT END MILL)
G90 G94 G91.1 G40 G49 G17
G21
(WHEN USING FUSION 360 FOR PERSONAL USE, THE FEEDRATE OF)
(RAPID MOVES IS REDUCED TO MATCH THE FEEDRATE OF CUTTING)
(MOVES, WHICH CAN INCREASE MACHINING TIME. UNRESTRICTED RAPID)
(MOVES ARE AVAILABLE WITH A FUSION 360 SUBSCRIPTION.)
G28 G91 Z0.
G90

(2D CONTOUR2)
M5
T8 M6
S10000 M3
G54
M8
G0 X168.046 Y-8.
G1 Z7. F3500.
Z-3. F333.
G19 G3 Y-7. Z-4. J1. K0. F3500.
G1 Y-6.
G17 G3 X167.046 Y-5. I-1. J0.
G2 Y305. I0. J155.
Y-5. I0. J-155.
G3 X166.046 Y-6. I0. J-1.
G1 Y-7.
G19 G2 Y-8. Z-3. J0. K1.
G1 Z6.
X168.046
Z2. F333.
Z-8.
G3 Y-7. Z-9. J1. K0. F3500.
G1 Y-6.
G17 G3 X167.046 Y-5. I-1. J0.
G2 Y305. I0. J155.
Y-5. I0. J-155.
G3 X166.046 Y-6. I0. J-1.
G1 Y-7.
G19 G2 Y-8. Z-8. J0. K1.
G1 Z6.
X168.046
Z-3. F333.
Z-13.
G3 Y-7. Z-14. J1. K0. F3500.
G1 Y-6.
G17 G3 X167.046 Y-5. I-1. J0.
G2 Y305. I0. J155.
Y-5. I0. J-155.
G3 X166.046 Y-6. I0. J-1.
G1 Y-7.
G19 G2 Y-8. Z-13. J0. K1.
G1 Z6.
X168.046
Z-8. F333.
Z-15.625
G3 Y-7. Z-16.625 J1. K0. F3500.
G1 Y-6.
G17 G3 X167.046 Y-5. I-1. J0.
G2 Y305. I0. J155.
Y-5. I0. J-155.
G3 X166.046 Y-6. I0. J-1.
G1 Y-7.
G19 G2 Y-8. Z-15.625 J0. K1.
G1 Z6.
X168.046
Z-10.625 F333.
Z-18.25
G3 Y-7. Z-19.25 J1. K0. F3500.
G1 Y-6.
G17 G3 X167.046 Y-5. I-1. J0.
G2 X154.932 Y-4.526 I0. J155.
G1 Z-16.75
G2 X135.135 Y-1.68 I12.114 J154.526
G1 Z-19.25 F333.
G2 X73.311 Y26.554 I31.911 J151.68 F3500.
G1 Z-16.75
G2 X58.196 Y39.652 I93.735 J123.446
G1 Z-19.25 F333.
G2 X21.452 Y96.827 I108.85 J110.348 F3500.
G1 Z-16.75
G2 X15.817 Y116.017 I145.594 J53.173
G1 Z-19.25 F333.
G2 Y183.983 I151.229 J33.983 F3500.
G1 Z-16.75
G2 X21.452 Y203.173 I151.229 J-33.983
G1 Z-19.25 F333.
G2 X58.196 Y260.348 I145.594 J-53.173 F3500.
G1 Z-16.75
G2 X73.311 Y273.446 I108.85 J-110.348
G1 Z-19.25 F333.
G2 X135.135 Y301.68 I93.735 J-123.446 F3500.
G1 Z-16.75
G2 X154.932 Y304.526 I31.911 J-151.68
G1 Z-19.25 F333.
G2 X222.205 Y294.853 I12.114 J-154.526 F3500.
G1 Z-16.75
G2 X240.397 Y286.545 I-55.159 J-144.853
G1 Z-19.25 F333.
G2 X291.762 Y242.037 I-73.351 J-136.545 F3500.
G1 Z-16.75
G2 X302.575 Y225.212 I-124.716 J-92.037
G1 Z-19.25 F333.
G2 X321.723 Y160. I-135.529 J-75.212 F3500.
G1 Z-16.75
G2 Y140. I-154.677 J-10.
G1 Z-19.25 F333.
G2 X302.575 Y74.788 I-154.677 J10. F3500.
G1 Z-16.75
G2 X291.762 Y57.963 I-135.529 J75.212
G1 Z-19.25 F333.
G2 X240.397 Y13.455 I-124.716 J92.037 F3500.
G1 Z-16.75
G2 X222.205 Y5.147 I-73.351 J136.545
G1 Z-19.25 F333.
G2 X167.046 Y-5. I-55.159 J144.853 F3500.
G3 X166.046 Y-6. I0. J-1.
G1 Y-7.
G19 G2 Y-8. Z-18.25 J0. K1.
G1 Z16.
G17

M9
G28 G91 Z0.
G90
G28 G91 X0. Y0.
G90
M30
