(CROSS)
(T8  D=10. CR=0. - ZMIN=-19.25 - FLAT END MILL)
G90 G94 G91.1 G40 G49 G17
G21
(WHEN USING FUSION 360 FOR PERSONAL USE, THE FEEDRATE OF)
(RAPID MOVES IS REDUCED TO MATCH THE FEEDRATE OF CUTTING)
(MOVES, WHICH CAN INCREASE MACHINING TIME. UNRESTRICTED RAPID)
(MOVES ARE AVAILABLE WITH A FUSION 360 SUBSCRIPTION.)
G28 G91 Z0.
G90

(2D CONTOUR5)
M5
T8 M6
S10000 M3
G54
M8
G0 X171.096 Y152.636
G1 Z7. F3500.
Z-3. F333.
X171.101 Y152.641 Z-3.121 F3500.
X171.117 Y152.657 Z-3.239
X171.142 Y152.682 Z-3.355
X171.177 Y152.717 Z-3.465
X171.221 Y152.761 Z-3.568
X171.274 Y152.814 Z-3.663
X171.334 Y152.874 Z-3.749
X171.402 Y152.941 Z-3.823
X171.475 Y153.015 Z-3.885
X171.553 Y153.092 Z-3.935
X171.634 Y153.174 Z-3.971
X171.718 Y153.258 Z-3.993
X171.803 Y153.343 Z-4.
X172.51 Y154.05
G3 Y155.464 I-0.707 J0.707
G2 X171.046 Y159. I3.536 J3.536
G1 Y183.871
G2 X172.495 Y187.391 I5. J0.
X168.975 Y185.942 I-3.52 J3.551
G1 X165.117
G2 X161.597 Y187.391 I0. J5.
X163.046 Y183.871 I-3.551 J-3.52
G1 Y159.
G2 X158.046 Y154. I-5. J0.
G1 X134.162
G2 X130.642 Y155.449 I0. J5.
X132.091 Y151.929 I-3.551 J-3.52
G1 Y148.071
G2 X130.642 Y144.551 I-5. J0.
X134.162 Y146. I3.52 J-3.551
G1 X158.046
G2 X163.046 Y141. I0. J-5.
G1 Y116.129
G2 X161.597 Y112.609 I-5. J0.
X165.117 Y114.058 I3.52 J-3.551
G1 X168.975
G2 X172.495 Y112.609 I0. J-5.
X171.046 Y116.129 I3.551 J3.52
G1 Y141.
G2 X176.046 Y146. I5. J0.
G1 X199.93
G2 X203.45 Y144.551 I0. J-5.
X202.001 Y148.071 I3.551 J3.52
G1 Y151.929
G2 X203.45 Y155.449 I5. J0.
X199.93 Y154. I-3.52 J3.551
G1 X176.046
G2 X172.51 Y155.464 I0. J5.
G3 X171.096 I-0.707 J-0.707
G1 X170.389 Y154.757
X170.304 Y154.672 Z-3.993
X170.22 Y154.588 Z-3.971
X170.138 Y154.507 Z-3.935
X170.061 Y154.429 Z-3.885
X169.987 Y154.356 Z-3.823
X169.92 Y154.288 Z-3.749
X169.86 Y154.228 Z-3.663
X169.807 Y154.175 Z-3.568
X169.763 Y154.131 Z-3.465
X169.728 Y154.096 Z-3.355
X169.703 Y154.071 Z-3.239
X169.687 Y154.055 Z-3.121
X169.682 Y154.05 Z-3.
Z6.
X171.096 Y152.636
Z2. F333.
Z-8.
X171.101 Y152.641 Z-8.121 F3500.
X171.117 Y152.657 Z-8.239
X171.142 Y152.682 Z-8.355
X171.177 Y152.717 Z-8.465
X171.221 Y152.761 Z-8.568
X171.274 Y152.814 Z-8.663
X171.334 Y152.874 Z-8.749
X171.402 Y152.941 Z-8.823
X171.475 Y153.015 Z-8.885
X171.553 Y153.092 Z-8.935
X171.634 Y153.174 Z-8.971
X171.718 Y153.258 Z-8.993
X171.803 Y153.343 Z-9.
X172.51 Y154.05
G3 Y155.464 I-0.707 J0.707
G2 X171.046 Y159. I3.536 J3.536
G1 Y183.871
G2 X172.495 Y187.391 I5. J0.
X168.975 Y185.942 I-3.52 J3.551
G1 X165.117
G2 X161.597 Y187.391 I0. J5.
X163.046 Y183.871 I-3.551 J-3.52
G1 Y159.
G2 X158.046 Y154. I-5. J0.
G1 X134.162
G2 X130.642 Y155.449 I0. J5.
X132.091 Y151.929 I-3.551 J-3.52
G1 Y148.071
G2 X130.642 Y144.551 I-5. J0.
X134.162 Y146. I3.52 J-3.551
G1 X158.046
G2 X163.046 Y141. I0. J-5.
G1 Y116.129
G2 X161.597 Y112.609 I-5. J0.
X165.117 Y114.058 I3.52 J-3.551
G1 X168.975
G2 X172.495 Y112.609 I0. J-5.
X171.046 Y116.129 I3.551 J3.52
G1 Y141.
G2 X176.046 Y146. I5. J0.
G1 X199.93
G2 X203.45 Y144.551 I0. J-5.
X202.001 Y148.071 I3.551 J3.52
G1 Y151.929
G2 X203.45 Y155.449 I5. J0.
X199.93 Y154. I-3.52 J3.551
G1 X176.046
G2 X172.51 Y155.464 I0. J5.
G3 X171.096 I-0.707 J-0.707
G1 X170.389 Y154.757
X170.304 Y154.672 Z-8.993
X170.22 Y154.588 Z-8.971
X170.138 Y154.507 Z-8.935
X170.061 Y154.429 Z-8.885
X169.987 Y154.356 Z-8.823
X169.92 Y154.288 Z-8.749
X169.86 Y154.228 Z-8.663
X169.807 Y154.175 Z-8.568
X169.763 Y154.131 Z-8.465
X169.728 Y154.096 Z-8.355
X169.703 Y154.071 Z-8.239
X169.687 Y154.055 Z-8.121
X169.682 Y154.05 Z-8.
Z6.
X171.096 Y152.636
Z-3. F333.
Z-13.
X171.101 Y152.641 Z-13.121 F3500.
X171.117 Y152.657 Z-13.239
X171.142 Y152.682 Z-13.355
X171.177 Y152.717 Z-13.465
X171.221 Y152.761 Z-13.568
X171.274 Y152.814 Z-13.663
X171.334 Y152.874 Z-13.749
X171.402 Y152.941 Z-13.823
X171.475 Y153.015 Z-13.885
X171.553 Y153.092 Z-13.935
X171.634 Y153.174 Z-13.971
X171.718 Y153.258 Z-13.993
X171.803 Y153.343 Z-14.
X172.51 Y154.05
G3 Y155.464 I-0.707 J0.707
G2 X171.046 Y159. I3.536 J3.536
G1 Y183.871
G2 X172.495 Y187.391 I5. J0.
X168.975 Y185.942 I-3.52 J3.551
G1 X165.117
G2 X161.597 Y187.391 I0. J5.
X163.046 Y183.871 I-3.551 J-3.52
G1 Y159.
G2 X158.046 Y154. I-5. J0.
G1 X134.162
G2 X130.642 Y155.449 I0. J5.
X132.091 Y151.929 I-3.551 J-3.52
G1 Y148.071
G2 X130.642 Y144.551 I-5. J0.
X134.162 Y146. I3.52 J-3.551
G1 X158.046
G2 X163.046 Y141. I0. J-5.
G1 Y116.129
G2 X161.597 Y112.609 I-5. J0.
X165.117 Y114.058 I3.52 J-3.551
G1 X168.975
G2 X172.495 Y112.609 I0. J-5.
X171.046 Y116.129 I3.551 J3.52
G1 Y141.
G2 X176.046 Y146. I5. J0.
G1 X199.93
G2 X203.45 Y144.551 I0. J-5.
X202.001 Y148.071 I3.551 J3.52
G1 Y151.929
G2 X203.45 Y155.449 I5. J0.
X199.93 Y154. I-3.52 J3.551
G1 X176.046
G2 X172.51 Y155.464 I0. J5.
G3 X171.096 I-0.707 J-0.707
G1 X170.389 Y154.757
X170.304 Y154.672 Z-13.993
X170.22 Y154.588 Z-13.971
X170.138 Y154.507 Z-13.935
X170.061 Y154.429 Z-13.885
X169.987 Y154.356 Z-13.823
X169.92 Y154.288 Z-13.749
X169.86 Y154.228 Z-13.663
X169.807 Y154.175 Z-13.568
X169.763 Y154.131 Z-13.465
X169.728 Y154.096 Z-13.355
X169.703 Y154.071 Z-13.239
X169.687 Y154.055 Z-13.121
X169.682 Y154.05 Z-13.
Z6.
X171.096 Y152.636
Z-8. F333.
Z-15.625
X171.101 Y152.641 Z-15.746 F3500.
X171.117 Y152.657 Z-15.864
X171.142 Y152.682 Z-15.98
X171.177 Y152.717 Z-16.09
X171.221 Y152.761 Z-16.193
X171.274 Y152.814 Z-16.288
X171.334 Y152.874 Z-16.374
X171.402 Y152.941 Z-16.448
X171.475 Y153.015 Z-16.51
X171.553 Y153.092 Z-16.56
X171.634 Y153.174 Z-16.596
X171.718 Y153.258 Z-16.618
X171.803 Y153.343 Z-16.625
X172.51 Y154.05
G3 Y155.464 I-0.707 J0.707
G2 X171.046 Y159. I3.536 J3.536
G1 Y183.871
G2 X172.495 Y187.391 I5. J0.
X168.975 Y185.942 I-3.52 J3.551
G1 X165.117
G2 X161.597 Y187.391 I0. J5.
X163.046 Y183.871 I-3.551 J-3.52
G1 Y159.
G2 X158.046 Y154. I-5. J0.
G1 X134.162
G2 X130.642 Y155.449 I0. J5.
X132.091 Y151.929 I-3.551 J-3.52
G1 Y148.071
G2 X130.642 Y144.551 I-5. J0.
X134.162 Y146. I3.52 J-3.551
G1 X158.046
G2 X163.046 Y141. I0. J-5.
G1 Y116.129
G2 X161.597 Y112.609 I-5. J0.
X165.117 Y114.058 I3.52 J-3.551
G1 X168.975
G2 X172.495 Y112.609 I0. J-5.
X171.046 Y116.129 I3.551 J3.52
G1 Y141.
G2 X176.046 Y146. I5. J0.
G1 X199.93
G2 X203.45 Y144.551 I0. J-5.
X202.001 Y148.071 I3.551 J3.52
G1 Y151.929
G2 X203.45 Y155.449 I5. J0.
X199.93 Y154. I-3.52 J3.551
G1 X176.046
G2 X172.51 Y155.464 I0. J5.
G3 X171.096 I-0.707 J-0.707
G1 X170.389 Y154.757
X170.304 Y154.672 Z-16.618
X170.22 Y154.588 Z-16.596
X170.138 Y154.507 Z-16.56
X170.061 Y154.429 Z-16.51
X169.987 Y154.356 Z-16.448
X169.92 Y154.288 Z-16.374
X169.86 Y154.228 Z-16.288
X169.807 Y154.175 Z-16.193
X169.763 Y154.131 Z-16.09
X169.728 Y154.096 Z-15.98
X169.703 Y154.071 Z-15.864
X169.687 Y154.055 Z-15.746
X169.682 Y154.05 Z-15.625
Z6.
X171.096 Y152.636
Z-10.625 F333.
Z-18.25
X171.101 Y152.641 Z-18.371 F3500.
X171.117 Y152.657 Z-18.489
X171.142 Y152.682 Z-18.605
X171.177 Y152.717 Z-18.715
X171.221 Y152.761 Z-18.818
X171.274 Y152.814 Z-18.913
X171.334 Y152.874 Z-18.999
X171.402 Y152.941 Z-19.073
X171.475 Y153.015 Z-19.135
X171.553 Y153.092 Z-19.185
X171.634 Y153.174 Z-19.221
X171.718 Y153.258 Z-19.243
X171.803 Y153.343 Z-19.25
X172.51 Y154.05
G3 Y155.464 I-0.707 J0.707
G2 X171.046 Y159. I3.536 J3.536
G1 Y183.871
G2 X172.495 Y187.391 I5. J0.
X168.975 Y185.942 I-3.52 J3.551
G1 X165.117
G2 X161.597 Y187.391 I0. J5.
X163.046 Y183.871 I-3.551 J-3.52
G1 Y159.
G2 X158.046 Y154. I-5. J0.
G1 X134.162
G2 X130.642 Y155.449 I0. J5.
X132.091 Y151.929 I-3.551 J-3.52
G1 Y148.071
G2 X130.642 Y144.551 I-5. J0.
X134.162 Y146. I3.52 J-3.551
G1 X158.046
G2 X163.046 Y141. I0. J-5.
G1 Y116.129
G2 X161.597 Y112.609 I-5. J0.
X165.117 Y114.058 I3.52 J-3.551
G1 X168.975
G2 X172.495 Y112.609 I0. J-5.
X171.046 Y116.129 I3.551 J3.52
G1 Y141.
G2 X176.046 Y146. I5. J0.
G1 X199.93
G2 X203.45 Y144.551 I0. J-5.
X202.001 Y148.071 I3.551 J3.52
G1 Y151.929
G2 X203.45 Y155.449 I5. J0.
X199.93 Y154. I-3.52 J3.551
G1 X176.046
G2 X172.51 Y155.464 I0. J5.
G3 X171.096 I-0.707 J-0.707
G1 X170.389 Y154.757
X170.304 Y154.672 Z-19.243
X170.22 Y154.588 Z-19.221
X170.138 Y154.507 Z-19.185
X170.061 Y154.429 Z-19.135
X169.987 Y154.356 Z-19.073
X169.92 Y154.288 Z-18.999
X169.86 Y154.228 Z-18.913
X169.807 Y154.175 Z-18.818
X169.763 Y154.131 Z-18.715
X169.728 Y154.096 Z-18.605
X169.703 Y154.071 Z-18.489
X169.687 Y154.055 Z-18.371
X169.682 Y154.05 Z-18.25
Z16.

M9
G28 G91 Z0.
G90
G28 G91 X0. Y0.
G90
M30
